; generated by Slic3r 1.3.1-dev (Build (Unknown revision)) on 2020-02-13 at 23:16:00

; external perimeters extrusion width = 0.55mm (4.37mm^3/s)
; perimeters extrusion width = 0.70mm (11.44mm^3/s)
; infill extrusion width = 0.62mm (13.45mm^3/s)
; solid infill extrusion width = 0.70mm (3.81mm^3/s)
; top infill extrusion width = 0.70mm (2.86mm^3/s)

M107
G92 E0
M104 S200 ; set temperature
G28 ; home all axes
G1 Z5 F5000 ; lift nozzle

; Filament gcode

M109 S200 ; set temperature and wait for it to be reached
G21 ; set units to millimeters
G90 ; use absolute coordinates
M82 ; use absolute distances for extrusion
G92 E0
G1 Z0.350 F7800.000
G1 E-2.00000 F2400.00000
G92 E0
G1 X86.290 Y91.053 F7800.000
G1 E2.00000 F2400.00000
G1 F1800.000
G1 X88.043 Y89.574 E2.07096
G1 X90.195 Y88.781 E2.14192
G1 X91.375 Y88.675 E2.17858
G1 X108.625 Y88.675 E2.71231
G1 X110.884 Y89.072 E2.78328
G1 X112.872 Y90.215 E2.85424
G1 X114.351 Y91.968 E2.92520
G1 X115.144 Y94.120 E2.99616
G1 X115.250 Y95.300 E3.03281
G1 X115.250 Y100.500 E3.19371
G1 X114.853 Y102.759 E3.26467
G1 X113.710 Y104.747 E3.33563
G1 X111.709 Y106.363 E3.41520
G1 X104.334 Y110.243 E3.67304
G1 X103.588 Y110.597 E3.69860
G1 X103.201 Y110.751 E3.71148
G1 X102.652 Y110.935 E3.72941
G1 X101.932 Y111.119 E3.75239
G1 X101.523 Y111.197 E3.76527
G1 X100.949 Y111.275 E3.78320
G1 X100.208 Y111.322 E3.80618
G1 X99.629 Y111.316 E3.82411
G1 X99.051 Y111.275 E3.84203
G1 X98.477 Y111.197 E3.85996
G1 X98.068 Y111.119 E3.87284
G1 X97.348 Y110.935 E3.89582
G1 X96.952 Y110.806 E3.90870
G1 X96.412 Y110.597 E3.92663
G1 X95.663 Y110.241 E3.95228
G1 X88.291 Y106.363 E4.21003
G1 X86.476 Y104.960 E4.28099
G1 X85.249 Y103.023 E4.35196
G1 X84.750 Y100.500 E4.43152
G1 X84.750 Y95.300 E4.59242
G1 X85.147 Y93.041 E4.66338
G1 X86.253 Y91.118 E4.73202
G1 E2.73202 F2400.00000
G92 E0
G1 X107.025 Y99.534 F7800.000
G1 E2.00000 F2400.00000
G1 F1800.000
G1 X103.163 Y101.566 E2.13503
G1 X103.040 Y101.086 E2.15036
G1 X102.810 Y100.555 E2.16825
G1 X102.471 Y100.056 E2.18692
G1 X102.044 Y99.629 E2.20560
G1 X101.545 Y99.290 E2.22428
G1 X100.991 Y99.050 E2.24295
G1 X100.402 Y98.918 E2.26163
G1 X99.799 Y98.899 E2.28030
G1 X99.202 Y98.994 E2.29898
G1 X98.635 Y99.198 E2.31766
G1 X98.115 Y99.506 E2.33633
G1 X97.681 Y99.888 E2.35422
G1 X97.409 Y100.217 E2.36745
G1 X97.180 Y100.578 E2.38068
G1 X96.950 Y101.109 E2.39857
G1 X96.847 Y101.571 E2.41321
G1 X92.975 Y99.534 E2.54859
G1 X92.975 Y96.900 E2.63009
G1 X107.025 Y96.900 E3.06483
G1 X107.025 Y99.459 E3.14402
G1 X107.650 Y99.911 F7800.000
G1 F1800.000
G1 X102.554 Y102.592 E3.32220
G1 X102.574 Y101.953 E3.34198
G1 X102.531 Y101.617 E3.35247
G1 X102.447 Y101.289 E3.36295
G1 X102.260 Y100.857 E3.37750
G1 X101.987 Y100.456 E3.39252
G1 X101.644 Y100.113 E3.40754
G1 X101.243 Y99.840 E3.42256
G1 X100.797 Y99.647 E3.43758
G1 X100.323 Y99.541 E3.45260
G1 X99.838 Y99.526 E3.46762
G1 X99.359 Y99.602 E3.48264
G1 X98.902 Y99.766 E3.49766
G1 X98.484 Y100.013 E3.51268
G1 X98.131 Y100.324 E3.52723
G1 X97.915 Y100.585 E3.53771
G1 X97.734 Y100.872 E3.54820
G1 X97.547 Y101.303 E3.56275
G1 X97.441 Y101.777 E3.57777
G1 X97.426 Y102.247 E3.59231
G1 X97.472 Y102.606 E3.60351
G1 X92.350 Y99.911 E3.78258
G1 X92.350 Y96.275 E3.89510
G1 X107.650 Y96.275 E4.36850
G1 X107.650 Y99.836 E4.47870
G1 X108.275 Y100.289 F7800.000
G1 F1800.000
G1 X101.385 Y103.913 E4.71957
G1 X101.194 Y103.653 E4.72955
G1 X101.504 Y103.344 E4.74309
G1 X101.710 Y103.040 E4.75445
G1 X101.856 Y102.703 E4.76582
G1 X101.936 Y102.345 E4.77719
G1 X101.948 Y101.983 E4.78838
G1 X101.916 Y101.734 E4.79613
G1 X101.854 Y101.492 E4.80388
G1 X101.710 Y101.160 E4.81507
G1 X101.504 Y100.856 E4.82644
G1 X101.244 Y100.596 E4.83780
G1 X100.940 Y100.390 E4.84917
G1 X100.603 Y100.244 E4.86054
G1 X100.245 Y100.164 E4.87190
G1 X99.877 Y100.152 E4.88327
G1 X99.515 Y100.210 E4.89463
G1 X99.169 Y100.334 E4.90600
G1 X98.853 Y100.521 E4.91736
G1 X98.582 Y100.760 E4.92856
G1 X98.422 Y100.953 E4.93631
G1 X98.288 Y101.165 E4.94406
G1 X98.144 Y101.497 E4.95525
G1 X98.064 Y101.855 E4.96662
G1 X98.052 Y102.217 E4.97781
G1 X98.084 Y102.466 E4.98556
G1 X98.146 Y102.708 E4.99331
G1 X98.290 Y103.040 E5.00450
G1 X98.496 Y103.344 E5.01587
G1 X98.806 Y103.654 E5.02942
G1 X98.615 Y103.913 E5.03939
G1 X91.725 Y100.289 E5.28027
G1 X91.725 Y95.650 E5.42379
G1 X108.275 Y95.650 E5.93587
G1 X108.275 Y100.214 E6.07708
G1 X107.788 Y100.403 F7800.000
G1 E4.07708 F2400.00000
G92 E0
G1 X101.372 Y103.895 F7800.000
G1 E2.00000 F2400.00000
G1 F1800.000
G1 X100.386 Y104.164 E2.04660
G1 X100.140 Y104.195 E2.05790
G1 X99.737 Y104.182 E2.07627
G1 X98.602 Y103.930 E2.12925
G1 X97.987 Y103.198 F7800.000
G1 F1800.000
G1 X97.915 Y103.121 E2.12952
G1 X97.865 Y102.935 E2.13001
G1 E0.13001 F2400.00000
G92 E0
G1 X102.112 Y103.178 F7800.000
G1 E2.00000 F2400.00000
G1 F1800.000
G1 X102.201 Y102.779 E2.00113
G1 E0.00113 F2400.00000
G92 E0
G1 X106.157 Y99.400 F7800.000
G1 E2.00000 F2400.00000
G1 F1800.000
G1 X106.643 Y98.913 E2.02172
G1 X106.643 Y98.011 E2.05021
G1 X104.254 Y100.401 E2.15694
G1 X103.295 Y100.906 E2.19117
G1 X103.159 Y100.593 E2.20191
G1 X106.471 Y97.282 E2.34982
G1 X105.569 Y97.282 E2.37831
G1 X102.809 Y100.042 E2.50160
G1 X102.712 Y99.899 E2.50706
G1 X102.381 Y99.568 E2.52184
G1 X104.667 Y97.282 E2.62395
G1 X103.765 Y97.282 E2.65244
G1 X101.878 Y99.169 E2.73673
G1 X101.604 Y98.983 E2.74718
G1 X101.296 Y98.849 E2.75780
G1 X102.863 Y97.282 E2.82781
G1 X101.961 Y97.282 E2.85630
G1 X100.619 Y98.624 E2.91625
G1 X100.238 Y98.539 E2.92859
G1 X99.815 Y98.525 E2.94193
G1 X101.059 Y97.282 E2.99749
G1 X100.157 Y97.282 E3.02598
G1 X98.811 Y98.628 E3.08610
G1 X98.124 Y98.873 E3.10913
G1 X97.503 Y99.241 E3.13192
G1 X96.988 Y99.695 E3.15360
G1 X96.659 Y100.092 E3.16990
G1 X96.383 Y100.528 E3.18619
G1 X96.219 Y100.906 E3.19919
G1 X95.834 Y100.703 E3.21295
G1 X99.255 Y97.282 E3.36575
G1 X98.353 Y97.282 E3.39424
G1 X95.243 Y100.392 E3.53315
G1 X94.652 Y100.081 E3.55424
G1 X97.451 Y97.282 E3.67927
G1 X96.549 Y97.282 E3.70776
G1 X94.061 Y99.770 E3.81889
G1 X93.469 Y99.459 E3.83999
G1 X95.647 Y97.282 E3.93724
G1 X94.745 Y97.282 E3.96572
G1 X93.357 Y98.670 E4.02773
G1 X93.357 Y97.768 E4.05621
G1 X93.843 Y97.282 E4.07793
G1 Z0.650 F7800.000
G1 E2.07793 F2400.00000
G92 E0
G1 X101.842 Y101.749 F7800.000
G1 E2.00000 F2400.00000
G1 F900.000
G1 X101.872 Y101.987 E2.00494
G1 X101.861 Y102.335 E2.01213
G1 X101.784 Y102.680 E2.01941
G1 X101.644 Y103.004 E2.02669
G1 X101.446 Y103.296 E2.03397
G1 X101.196 Y103.546 E2.04125
G1 X100.904 Y103.744 E2.04852
G1 X100.584 Y103.883 E2.05571
G1 X100.351 Y103.942 E2.06066
G1 X100.113 Y103.972 E2.06560
G1 X99.765 Y103.961 E2.07279
G1 X99.420 Y103.884 E2.08007
G1 X99.096 Y103.744 E2.08735
G1 X98.804 Y103.546 E2.09462
G1 X98.554 Y103.296 E2.10190
G1 X98.356 Y103.004 E2.10918
G1 X98.217 Y102.684 E2.11637
G1 X98.158 Y102.451 E2.12131
G1 X98.128 Y102.213 E2.12626
G1 X98.139 Y101.865 E2.13344
G1 X98.216 Y101.520 E2.14072
G1 X98.354 Y101.200 E2.14791
G1 X98.483 Y100.998 E2.15286
G1 X98.636 Y100.813 E2.15780
G1 X98.897 Y100.582 E2.16499
G1 X99.201 Y100.402 E2.17227
G1 X99.533 Y100.283 E2.17954
G1 X99.882 Y100.227 E2.18682
G1 X100.235 Y100.239 E2.19410
G1 X100.580 Y100.316 E2.20138
G1 X100.904 Y100.456 E2.20866
G1 X101.196 Y100.654 E2.21594
G1 X101.446 Y100.904 E2.22321
G1 X101.644 Y101.196 E2.23049
G1 X101.783 Y101.516 E2.23768
G1 X101.824 Y101.676 E2.24108
G1 X101.842 Y101.749 F7800.000
G1 X103.079 Y101.755 F7800.000
G1 F900.000
G1 X102.918 Y101.128 E2.25856
G1 X102.697 Y100.617 E2.27356
G1 X102.371 Y100.138 E2.28919
G1 X101.962 Y99.729 E2.30481
G1 X101.483 Y99.403 E2.32044
G1 X100.951 Y99.173 E2.33607
G1 X100.386 Y99.046 E2.35169
G1 X99.807 Y99.028 E2.36732
G1 X99.235 Y99.119 E2.38295
G1 X98.690 Y99.315 E2.39858
G1 X98.191 Y99.610 E2.41420
G1 X97.774 Y99.978 E2.42920
G1 X97.513 Y100.293 E2.44024
G1 X97.294 Y100.639 E2.45129
G1 X97.073 Y101.149 E2.46628
G1 X96.936 Y101.763 E2.48326
G1 X92.846 Y99.612 E2.60791
G1 X92.846 Y96.771 E2.68453
G1 X107.154 Y96.771 E3.07050
G1 X107.154 Y99.612 E3.14712
G1 X103.145 Y101.720 E3.26930
G1 X102.315 Y102.875 F7800.000
G1 F3600.000
G1 X102.420 Y102.406 E3.28228
G1 X102.434 Y101.960 E3.29430
G1 X102.394 Y101.643 E3.30292
G1 X102.315 Y101.334 E3.31153
G1 X102.138 Y100.925 E3.32356
G1 X101.880 Y100.545 E3.33594
G1 X101.555 Y100.220 E3.34833
G1 X101.175 Y99.962 E3.36072
G1 X100.754 Y99.780 E3.37310
G1 X100.306 Y99.680 E3.38549
G1 X99.847 Y99.665 E3.39787
G1 X99.393 Y99.737 E3.41026
G1 X98.961 Y99.893 E3.42264
G1 X98.566 Y100.127 E3.43503
G1 X98.232 Y100.421 E3.44706
G1 X98.028 Y100.667 E3.45567
G1 X97.857 Y100.937 E3.46428
G1 X97.680 Y101.346 E3.47631
G1 X97.580 Y101.794 E3.48870
G1 X97.566 Y102.240 E3.50073
G1 X97.643 Y102.853 E3.51741
G1 X92.211 Y99.995 E3.68301
G1 X92.211 Y96.136 E3.78713
G1 X107.789 Y96.136 E4.20739
G1 X107.789 Y99.995 E4.31151
G1 X102.382 Y102.840 E4.47635
G1 X108.350 Y100.334 F7800.000
G1 F1800.000
G1 X101.130 Y104.132 E4.64450
G1 X100.860 Y104.259 E4.65065
G1 X100.431 Y104.384 E4.65985
G1 X100.150 Y104.419 E4.66569
G1 X99.709 Y104.405 E4.67479
G1 X99.282 Y104.310 E4.68380
G1 X98.866 Y104.130 E4.69314
G1 X91.650 Y100.334 E4.86119
G1 X91.650 Y95.575 E4.95928
G1 X108.350 Y95.575 E5.30347
G1 X108.350 Y100.259 E5.40001
G1 X107.863 Y100.448 F7800.000
G1 X106.765 Y97.654 F7800.000
G1 F1200.000
G1 X106.271 Y97.160 E5.41949
G1 X105.342 Y97.160 E5.44537
G1 X106.765 Y98.583 E5.50145
G1 X106.765 Y99.475 E5.52632
G1 X106.742 Y99.487 E5.52707
G1 X104.414 Y97.160 E5.61881
G1 X103.485 Y97.160 E5.64468
G1 X106.133 Y99.808 E5.74904
G1 X105.525 Y100.128 E5.76819
G1 X102.557 Y97.160 E5.88516
G1 X101.628 Y97.160 E5.91104
G1 X104.916 Y100.448 E6.04062
G1 X104.308 Y100.768 E6.05978
G1 X100.699 Y97.160 E6.20198
G1 X99.771 Y97.160 E6.22785
G1 X101.446 Y98.835 E6.29387
G1 X100.713 Y98.660 E6.31486
G1 X100.331 Y98.648 E6.32551
G1 X98.842 Y97.160 E6.38418
G1 X97.914 Y97.160 E6.41005
G1 X99.477 Y98.723 E6.47168
G1 X99.323 Y98.748 E6.47603
G1 X98.772 Y98.946 E6.49236
G1 X96.985 Y97.160 E6.56276
G1 X96.057 Y97.160 E6.58864
G1 X98.173 Y99.276 E6.67203
G1 X98.063 Y99.341 E6.67559
G1 X97.662 Y99.694 E6.69047
G1 X95.128 Y97.160 E6.79034
G1 X94.200 Y97.160 E6.81622
G1 X97.230 Y100.190 E6.93564
G1 X96.977 Y100.587 E6.94876
G1 X96.893 Y100.782 E6.95467
G1 X93.271 Y97.160 E7.09742
G1 X93.235 Y97.160 E7.09843
G1 X93.235 Y98.052 E7.12329
G1 X95.689 Y100.506 E7.22000
G1 X93.729 Y99.475 E7.28169
G1 X93.235 Y98.980 E7.30119
G1 X97.969 Y102.907 F7800.000
G1 F1200.000
G1 X98.123 Y103.423 E7.30325
G1 E5.30325 F2400.00000
G92 E0
G1 X101.791 Y103.468 F7800.000
G1 E2.00000 F2400.00000
G1 F1200.000
G1 X101.935 Y103.136 E2.00086
G1 Z0.950 F7800.000
G1 X101.842 Y101.749 F7800.000
G1 F900.000
G1 X101.872 Y101.987 E2.00580
G1 X101.861 Y102.335 E2.01299
G1 X101.784 Y102.680 E2.02027
G1 X101.644 Y103.004 E2.02755
G1 X101.446 Y103.296 E2.03483
G1 X101.196 Y103.546 E2.04211
G1 X100.904 Y103.744 E2.04938
G1 X100.584 Y103.883 E2.05657
G1 X100.351 Y103.942 E2.06152
G1 X100.113 Y103.972 E2.06646
G1 X99.765 Y103.961 E2.07365
G1 X99.420 Y103.884 E2.08093
G1 X99.096 Y103.744 E2.08821
G1 X98.804 Y103.546 E2.09548
G1 X98.554 Y103.296 E2.10276
G1 X98.356 Y103.004 E2.11004
G1 X98.217 Y102.684 E2.11723
G1 X98.158 Y102.451 E2.12217
G1 X98.127 Y102.212 E2.12714
G1 X98.142 Y101.824 E2.13515
G1 X98.217 Y101.518 E2.14164
G1 X98.354 Y101.200 E2.14878
G1 X98.483 Y100.998 E2.15372
G1 X98.636 Y100.813 E2.15867
G1 X98.897 Y100.582 E2.16585
G1 X99.201 Y100.402 E2.17313
G1 X99.533 Y100.283 E2.18041
G1 X99.882 Y100.227 E2.18769
G1 X100.235 Y100.239 E2.19497
G1 X100.580 Y100.316 E2.20225
G1 X100.904 Y100.456 E2.20952
G1 X101.196 Y100.654 E2.21680
G1 X101.446 Y100.904 E2.22408
G1 X101.644 Y101.196 E2.23136
G1 X101.783 Y101.516 E2.23855
G1 X101.824 Y101.676 E2.24195
G1 X101.842 Y101.749 F7800.000
G1 X103.079 Y101.755 F7800.000
G1 F900.000
G1 X102.918 Y101.128 E2.25943
G1 X102.697 Y100.617 E2.27442
G1 X102.371 Y100.138 E2.29005
G1 X101.962 Y99.729 E2.30568
G1 X101.483 Y99.403 E2.32131
G1 X100.951 Y99.173 E2.33693
G1 X100.386 Y99.046 E2.35256
G1 X99.807 Y99.028 E2.36819
G1 X99.235 Y99.119 E2.38382
G1 X98.690 Y99.315 E2.39944
G1 X98.191 Y99.610 E2.41507
G1 X97.774 Y99.978 E2.43007
G1 X97.513 Y100.293 E2.44111
G1 X97.294 Y100.639 E2.45215
G1 X97.078 Y101.137 E2.46679
G1 X96.927 Y101.759 E2.48405
G1 X92.846 Y99.612 E2.60845
G1 X92.846 Y96.771 E2.68508
G1 X107.154 Y96.771 E3.07104
G1 X107.154 Y99.612 E3.14767
G1 X103.145 Y101.720 E3.26985
G1 X102.315 Y102.875 F7800.000
G1 F3600.000
G1 X102.420 Y102.406 E3.28282
G1 X102.434 Y101.960 E3.29485
G1 X102.394 Y101.643 E3.30347
G1 X102.315 Y101.334 E3.31208
G1 X102.138 Y100.925 E3.32411
G1 X101.880 Y100.545 E3.33649
G1 X101.555 Y100.220 E3.34888
G1 X101.175 Y99.962 E3.36126
G1 X100.754 Y99.780 E3.37365
G1 X100.306 Y99.680 E3.38604
G1 X99.847 Y99.665 E3.39842
G1 X99.393 Y99.737 E3.41081
G1 X98.961 Y99.893 E3.42319
G1 X98.566 Y100.127 E3.43558
G1 X98.232 Y100.421 E3.44761
G1 X98.028 Y100.667 E3.45622
G1 X97.857 Y100.937 E3.46483
G1 X97.683 Y101.339 E3.47666
G1 X97.584 Y101.747 E3.48796
G1 X97.566 Y102.237 E3.50120
G1 X97.643 Y102.853 E3.51796
G1 X92.211 Y99.995 E3.68356
G1 X92.211 Y96.136 E3.78769
G1 X107.789 Y96.136 E4.20795
G1 X107.789 Y99.995 E4.31207
G1 X102.382 Y102.840 E4.47691
G1 X108.350 Y100.334 F7800.000
G1 F1800.000
G1 X101.130 Y104.132 E4.64505
G1 X100.860 Y104.259 E4.65121
G1 X100.435 Y104.383 E4.66031
G1 X100.000 Y104.424 E4.66933
G1 X99.560 Y104.382 E4.67843
G1 X99.286 Y104.312 E4.68427
G1 X98.866 Y104.130 E4.69369
G1 X91.650 Y100.334 E4.86175
G1 X91.650 Y95.575 E4.95983
G1 X108.350 Y95.575 E5.30402
G1 X108.350 Y100.259 E5.40056
G1 X107.863 Y100.448 F7800.000
G1 X106.271 Y99.475 F7800.000
G1 F900.000
G1 X106.765 Y98.980 E5.42006
G1 X106.765 Y98.052 E5.44593
G1 X104.311 Y100.506 E5.54264
G1 X103.233 Y101.073 E5.57660
G1 X103.107 Y100.782 E5.58545
G1 X106.729 Y97.160 E5.72820
G1 X105.800 Y97.160 E5.75408
G1 X102.764 Y100.196 E5.87374
G1 X102.616 Y99.978 E5.88107
G1 X102.335 Y99.697 E5.89216
G1 X104.872 Y97.160 E5.99215
G1 X103.943 Y97.160 E6.01803
G1 X101.822 Y99.280 E6.10161
G1 X101.543 Y99.091 E6.11102
G1 X101.223 Y98.952 E6.12076
G1 X103.015 Y97.160 E6.19139
G1 X102.086 Y97.160 E6.21727
G1 X100.519 Y98.727 E6.27905
G1 X100.219 Y98.660 E6.28761
G1 X99.674 Y98.643 E6.30279
G1 X101.158 Y97.160 E6.36126
G1 X100.229 Y97.160 E6.38713
G1 X98.535 Y98.853 E6.45388
G1 X98.171 Y98.985 E6.46469
G1 X97.568 Y99.341 E6.48418
G1 X97.069 Y99.781 E6.50274
G1 X96.751 Y100.166 E6.51665
G1 X96.483 Y100.587 E6.53057
G1 X96.273 Y101.073 E6.54532
G1 X95.692 Y100.768 E6.56359
G1 X99.301 Y97.160 E6.70579
G1 X98.372 Y97.160 E6.73167
G1 X95.084 Y100.448 E6.86125
G1 X94.475 Y100.128 E6.88041
G1 X97.443 Y97.160 E6.99738
G1 X96.515 Y97.160 E7.02325
G1 X93.867 Y99.808 E7.12761
G1 X93.258 Y99.487 E7.14677
G1 X95.586 Y97.160 E7.23850
G1 X94.658 Y97.160 E7.26438
G1 X93.235 Y98.583 E7.32046
G1 X93.235 Y97.654 E7.34634
G1 X93.729 Y97.160 E7.36583
G1 E5.36583 F2400.00000
G92 E0
G1 X97.969 Y102.907 F7800.000
G1 E2.00000 F2400.00000
G1 F1200.000
G1 X98.123 Y103.423 E2.00206
G1 E0.00206 F2400.00000
G92 E0
G1 X101.791 Y103.468 F7800.000
G1 E2.00000 F2400.00000
G1 F1200.000
G1 X101.935 Y103.136 E2.00086
M106 S237.15
G1 Z1.250 F7800.000
G1 X101.842 Y101.749 F7800.000
G1 F900.000
G1 X101.872 Y101.987 E2.00580
G1 X101.861 Y102.335 E2.01299
G1 X101.784 Y102.680 E2.02027
G1 X101.644 Y103.004 E2.02755
G1 X101.446 Y103.296 E2.03483
G1 X101.196 Y103.546 E2.04211
G1 X100.904 Y103.744 E2.04938
G1 X100.584 Y103.883 E2.05657
G1 X100.351 Y103.942 E2.06152
G1 X100.113 Y103.972 E2.06646
G1 X99.765 Y103.961 E2.07365
G1 X99.420 Y103.884 E2.08093
G1 X99.096 Y103.744 E2.08821
G1 X98.804 Y103.546 E2.09548
G1 X98.554 Y103.296 E2.10276
G1 X98.356 Y103.004 E2.11004
G1 X98.217 Y102.684 E2.11723
G1 X98.158 Y102.451 E2.12217
G1 X98.128 Y102.213 E2.12712
G1 X98.139 Y101.865 E2.13431
G1 X98.216 Y101.520 E2.14158
G1 X98.354 Y101.200 E2.14877
G1 X98.483 Y100.998 E2.15372
G1 X98.636 Y100.813 E2.15866
G1 X98.897 Y100.582 E2.16585
G1 X99.201 Y100.402 E2.17313
G1 X99.533 Y100.283 E2.18041
