; generated by Slic3r 1.3.1-dev (Build (Unknown revision)) on 2020-02-19 at 16:44:38

; external perimeters extrusion width = 0.55mm (3.65mm^3/s)
; perimeters extrusion width = 0.70mm (5.26mm^3/s)
; infill extrusion width = 0.62mm (4.66mm^3/s)
; solid infill extrusion width = 0.70mm (3.94mm^3/s)
; top infill extrusion width = 0.70mm (3.94mm^3/s)

M107
G92 E0
M104 S200 ; set temperature
G28 ; home all axes
G1 Z5 F5000 ; lift nozzle

; Filament gcode

M109 S200 ; set temperature and wait for it to be reached
G21 ; set units to millimeters
G90 ; use absolute coordinates
M82 ; use absolute distances for extrusion
G92 E0
G1 Z0.300 F7800.000
G1 E-2.00000 F2400.00000
G92 E0
G1 X85.004 Y90.787 F7800.000
G1 E2.00000 F2400.00000
G1 F1800.000
G1 X86.753 Y89.328 E2.05178
G1 X90.000 Y88.464 E2.12815
G1 X110.000 Y88.464 E2.58280
G1 X112.243 Y88.861 E2.63458
G1 X114.213 Y90.004 E2.68636
G1 X115.672 Y91.753 E2.73814
G1 X116.536 Y95.000 E2.81451
G1 X116.536 Y105.000 E3.04183
G1 X116.139 Y107.243 E3.09361
G1 X114.996 Y109.213 E3.14539
G1 X113.247 Y110.672 E3.19717
G1 X110.000 Y111.536 E3.27354
G1 X90.000 Y111.536 E3.72819
G1 X87.757 Y111.139 E3.77997
G1 X85.787 Y109.996 E3.83175
G1 X84.328 Y108.247 E3.88353
G1 X83.464 Y105.000 E3.95990
G1 X83.464 Y95.000 E4.18722
G1 X83.861 Y92.757 E4.23900
G1 X84.966 Y90.851 E4.28908
G1 E2.28908 F2400.00000
G92 E0
G1 X108.629 Y103.629 F7800.000
G1 E2.00000 F2400.00000
G1 F1800.000
G1 X96.371 Y103.629 E2.27864
G1 X96.371 Y96.371 E2.44362
G1 X108.629 Y96.371 E2.72227
G1 X108.629 Y103.554 E2.88554
G1 X109.164 Y104.164 F7800.000
G1 F1800.000
G1 X95.836 Y104.164 E3.18854
G1 X95.836 Y95.836 E3.37787
G1 X109.164 Y95.836 E3.68086
G1 X109.164 Y104.089 E3.86849
G1 X109.700 Y104.700 F7800.000
G1 F1800.000
G1 X95.300 Y104.700 E4.19584
G1 X95.300 Y95.300 E4.40952
G1 X109.700 Y95.300 E4.73687
G1 X109.700 Y104.625 E4.94885
G1 X109.209 Y104.604 F7800.000
G1 E2.94885 F2400.00000
G92 E0
G1 X95.300 Y104.800 F7800.000
G1 E2.00000 F2400.00000
G1 F1800.000
G1 X90.000 Y104.800 E2.07549
G1 E0.07549 F2400.00000
G92 E0
G1 X90.000 Y95.200 F7800.000
G1 E2.00000 F2400.00000
G1 F1800.000
G1 X95.300 Y95.200 E2.07549
G1 E0.07549 F2400.00000
G92 E0
G1 X97.115 Y96.699 F7800.000
G1 E2.00000 F2400.00000
G1 F1800.000
G1 X96.699 Y97.115 E2.01397
G1 X96.699 Y97.905 E2.03268
G1 X97.905 Y96.699 E2.07311
G1 X98.695 Y96.699 E2.09183
G1 X96.699 Y98.695 E2.15872
G1 X96.699 Y99.484 E2.17743
G1 X99.484 Y96.699 E2.27079
G1 X100.274 Y96.699 E2.28951
G1 X96.699 Y100.274 E2.40933
G1 X96.699 Y101.064 E2.42805
G1 X101.064 Y96.699 E2.57433
G1 X101.853 Y96.699 E2.59305
G1 X96.699 Y101.853 E2.76580
G1 X96.699 Y102.643 E2.78451
G1 X102.643 Y96.699 E2.98373
G1 X103.433 Y96.699 E3.00245
G1 X96.830 Y103.301 E3.22374
G1 X97.619 Y103.301 E3.24245
G1 X104.222 Y96.699 E3.46374
G1 X105.012 Y96.699 E3.48245
G1 X98.409 Y103.301 E3.70374
G1 X99.199 Y103.301 E3.72246
G1 X105.801 Y96.699 E3.94375
G1 X106.591 Y96.699 E3.96246
G1 X99.988 Y103.301 E4.18375
G1 X100.778 Y103.301 E4.20246
G1 X107.381 Y96.699 E4.42375
G1 X108.170 Y96.699 E4.44247
G1 X101.567 Y103.301 E4.66376
G1 X102.357 Y103.301 E4.68247
G1 X108.301 Y97.357 E4.88169
G1 X108.301 Y98.147 E4.90040
G1 X103.147 Y103.301 E5.07315
G1 X103.936 Y103.301 E5.09187
G1 X108.301 Y98.936 E5.23816
G1 X108.301 Y99.726 E5.25687
G1 X104.726 Y103.301 E5.37669
G1 X105.516 Y103.301 E5.39541
G1 X108.301 Y100.516 E5.48877
G1 X108.301 Y101.305 E5.50748
G1 X106.305 Y103.301 E5.57438
G1 X107.095 Y103.301 E5.59309
G1 X108.301 Y102.095 E5.63352
G1 X108.301 Y102.885 E5.65223
G1 X107.885 Y103.301 E5.66620
G1 Z0.500 F7800.000
G1 X108.486 Y103.486 F7800.000
G1 F1800.000
G1 X96.514 Y103.486 E5.88877
G1 X96.514 Y96.514 E6.01839
G1 X108.486 Y96.514 E6.24096
G1 X108.486 Y103.411 E6.36918
G1 X109.143 Y104.143 F7800.000
G1 F2400.000
G1 X95.857 Y104.143 E6.61618
G1 X95.857 Y95.857 E6.77023
G1 X109.143 Y95.857 E7.01724
G1 X109.143 Y104.068 E7.16989
G1 X109.725 Y104.725 F7800.000
G1 F2160.000
G1 X95.275 Y104.725 E7.37721
G1 X95.275 Y95.275 E7.51279
G1 X109.725 Y95.275 E7.72011
G1 X109.725 Y104.650 E7.85462
G1 X109.234 Y104.629 F7800.000
G1 X95.275 Y104.800 F7800.000
G1 F2160.000
G1 X90.000 Y104.800 E7.90791
G1 E5.90791 F2400.00000
G92 E0
G1 X90.000 Y95.200 F7800.000
G1 E2.00000 F2400.00000
G1 F2160.000
G1 X95.275 Y95.200 E2.05329
G1 X97.427 Y103.084 F7800.000
G1 F1800.000
G1 X96.916 Y102.573 E2.06717
G1 X96.916 Y101.613 E2.08560
G1 X98.387 Y103.084 E2.12554
G1 X99.346 Y103.084 E2.14397
G1 X96.916 Y100.654 E2.20997
G1 X96.916 Y99.694 E2.22840
G1 X100.306 Y103.084 E2.32046
G1 X101.266 Y103.084 E2.33888
G1 X96.916 Y98.734 E2.45700
G1 X96.916 Y97.775 E2.47543
G1 X102.225 Y103.084 E2.61961
G1 X103.185 Y103.084 E2.63804
G1 X97.016 Y96.916 E2.80554
G1 X97.976 Y96.916 E2.82397
G1 X104.145 Y103.084 E2.99147
G1 X105.104 Y103.084 E3.00990
G1 X98.936 Y96.916 E3.17740
G1 X99.896 Y96.916 E3.19583
G1 X106.064 Y103.084 E3.36333
G1 X107.024 Y103.084 E3.38175
G1 X100.855 Y96.916 E3.54926
G1 X101.815 Y96.916 E3.56768
G1 X107.984 Y103.084 E3.73519
G1 X108.084 Y103.084 E3.73712
G1 X108.084 Y102.225 E3.75361
G1 X102.775 Y96.916 E3.89779
G1 X103.734 Y96.916 E3.91622
G1 X108.084 Y101.266 E4.03434
G1 X108.084 Y100.306 E4.05277
G1 X104.694 Y96.916 E4.14483
G1 X105.654 Y96.916 E4.16325
G1 X108.084 Y99.346 E4.22925
G1 X108.084 Y98.387 E4.24768
G1 X106.613 Y96.916 E4.28762
G1 X107.573 Y96.916 E4.30605
G1 X108.084 Y97.427 E4.31993
G1 Z0.700 F7800.000
G1 X108.486 Y103.486 F7800.000
G1 F1800.000
G1 X96.514 Y103.486 E4.54250
G1 X96.514 Y96.514 E4.67212
G1 X108.486 Y96.514 E4.89469
G1 X108.486 Y103.411 E5.02291
G1 X109.143 Y104.143 F7800.000
G1 F2400.000
G1 X95.857 Y104.143 E5.26991
G1 X95.857 Y95.857 E5.42396
G1 X109.143 Y95.857 E5.67097
G1 X109.143 Y104.068 E5.82362
G1 X109.725 Y104.725 F7800.000
G1 F2160.000
G1 X95.275 Y104.725 E6.03094
G1 X95.275 Y95.275 E6.16652
G1 X109.725 Y95.275 E6.37384
G1 X109.725 Y104.650 E6.50835
G1 X109.234 Y104.629 F7800.000
G1 X95.275 Y104.800 F7800.000
G1 F2160.000
G1 X90.000 Y104.800 E6.56164
G1 E4.56164 F2400.00000
G92 E0
G1 X90.000 Y95.200 F7800.000
G1 E2.00000 F2400.00000
G1 F2160.000
G1 X95.275 Y95.200 E2.05329
G1 X96.916 Y97.427 F7800.000
G1 F1800.000
G1 X97.427 Y96.916 E2.06717
G1 X98.387 Y96.916 E2.08560
G1 X96.916 Y98.387 E2.12554
G1 X96.916 Y99.346 E2.14397
G1 X99.346 Y96.916 E2.20997
G1 X100.306 Y96.916 E2.22840
G1 X96.916 Y100.306 E2.32046
G1 X96.916 Y101.266 E2.33888
G1 X101.266 Y96.916 E2.45700
G1 X102.225 Y96.916 E2.47543
G1 X96.916 Y102.225 E2.61961
G1 X96.916 Y103.084 E2.63610
G1 X97.016 Y103.084 E2.63804
G1 X103.185 Y96.916 E2.80554
G1 X104.145 Y96.916 E2.82397
G1 X97.976 Y103.084 E2.99147
G1 X98.936 Y103.084 E3.00990
G1 X105.104 Y96.916 E3.17740
G1 X106.064 Y96.916 E3.19583
G1 X99.896 Y103.084 E3.36333
G1 X100.855 Y103.084 E3.38175
G1 X107.024 Y96.916 E3.54926
G1 X107.984 Y96.916 E3.56768
G1 X101.815 Y103.084 E3.73519
G1 X102.775 Y103.084 E3.75361
G1 X108.084 Y97.775 E3.89779
G1 X108.084 Y98.734 E3.91622
G1 X103.734 Y103.084 E4.03434
G1 X104.694 Y103.084 E4.05277
G1 X108.084 Y99.694 E4.14483
G1 X108.084 Y100.654 E4.16325
G1 X105.654 Y103.084 E4.22925
G1 X106.613 Y103.084 E4.24768
G1 X108.084 Y101.613 E4.28762
G1 X108.084 Y102.573 E4.30605
G1 X107.573 Y103.084 E4.31993
M106 S244.8
G1 Z0.900 F7800.000
G1 X108.486 Y103.486 F7800.000
G1 F1800.000
G1 X96.514 Y103.486 E4.54250
G1 X96.514 Y96.514 E4.67212
G1 X108.486 Y96.514 E4.89469
G1 X108.486 Y103.411 E5.02291
G1 X109.143 Y104.143 F7800.000
G1 F2400.000
G1 X95.857 Y104.143 E5.26991
G1 X95.857 Y95.857 E5.42396
G1 X109.143 Y95.857 E5.67097
G1 X109.143 Y104.068 E5.82362
G1 X109.725 Y104.725 F7800.000
G1 F2160.000
G1 X95.275 Y104.725 E6.03094
G1 X95.275 Y95.275 E6.16652
G1 X109.725 Y95.275 E6.37384
G1 X109.725 Y104.650 E6.50835
G1 X109.234 Y104.629 F7800.000
G1 X95.275 Y104.800 F7800.000
G1 F2160.000
G1 X90.000 Y104.800 E6.56164
G1 E4.56164 F2400.00000
G92 E0
G1 X90.000 Y95.200 F7800.000
G1 E2.00000 F2400.00000
G1 F2160.000
G1 X95.275 Y95.200 E2.05329
G1 X97.427 Y103.084 F7800.000
G1 F1800.000
G1 X96.916 Y102.573 E2.06717
G1 X96.916 Y101.613 E2.08560
G1 X98.387 Y103.084 E2.12554
G1 X99.346 Y103.084 E2.14397
G1 X96.916 Y100.654 E2.20997
G1 X96.916 Y99.694 E2.22840
G1 X100.306 Y103.084 E2.32046
G1 X101.266 Y103.084 E2.33888
G1 X96.916 Y98.734 E2.45700
G1 X96.916 Y97.775 E2.47543
G1 X102.225 Y103.084 E2.61961
G1 X103.185 Y103.084 E2.63804
G1 X97.016 Y96.916 E2.80554
G1 X97.976 Y96.916 E2.82397
G1 X104.145 Y103.084 E2.99147
G1 X105.104 Y103.084 E3.00990
G1 X98.936 Y96.916 E3.17740
G1 X99.896 Y96.916 E3.19583
G1 X106.064 Y103.084 E3.36333
G1 X107.024 Y103.084 E3.38175
G1 X100.855 Y96.916 E3.54926
G1 X101.815 Y96.916 E3.56768
G1 X107.984 Y103.084 E3.73519
G1 X108.084 Y103.084 E3.73712
G1 X108.084 Y102.225 E3.75361
G1 X102.775 Y96.916 E3.89779
G1 X103.734 Y96.916 E3.91622
G1 X108.084 Y101.266 E4.03434
G1 X108.084 Y100.306 E4.05277
G1 X104.694 Y96.916 E4.14483
G1 X105.654 Y96.916 E4.16325
G1 X108.084 Y99.346 E4.22925
G1 X108.084 Y98.387 E4.24768
G1 X106.613 Y96.916 E4.28762
G1 X107.573 Y96.916 E4.30605
G1 X108.084 Y97.427 E4.31993
M106 S255
G1 Z1.100 F7800.000
G1 X108.486 Y103.486 F7800.000
G1 F1607.324
G1 X96.514 Y103.486 E4.54250
G1 X96.514 Y96.514 E4.67212
G1 X108.486 Y96.514 E4.89469
G1 X108.486 Y103.411 E5.02291
G1 X109.143 Y104.143 F7800.000
G1 F2143.099
G1 X95.857 Y104.143 E5.26991
G1 X95.857 Y95.857 E5.42396
G1 X109.143 Y95.857 E5.67097
G1 X109.143 Y104.068 E5.82362
G1 X109.725 Y104.725 F7800.000
G1 F2160.000
G1 X95.275 Y104.725 E6.03094
G1 X95.275 Y95.275 E6.16652
G1 X109.725 Y95.275 E6.37384
G1 X109.725 Y104.650 E6.50835
G1 X109.234 Y104.629 F7800.000
G1 X95.275 Y104.800 F7800.000
G1 F2160.000
G1 X90.000 Y104.800 E6.56164
G1 E4.56164 F2400.00000
G92 E0
G1 X90.000 Y95.200 F7800.000
G1 E2.00000 F2400.00000
G1 F2160.000
G1 X95.275 Y95.200 E2.05329
G1 X97.375 Y103.046 F7800.000
G1 F2143.099
G1 X97.375 Y103.107 E2.05430
G1 X97.436 Y103.107 E2.05530
G1 X96.893 Y102.564 E2.06795
G1 X96.893 Y96.893 E2.16136
G1 X103.569 Y96.893 E2.27131
G1 X108.107 Y101.431 E2.37701
G1 X108.195 Y102.691 F7800.000
G1 F2143.099
G1 X107.213 Y102.954 E2.39376
G1 X103.296 Y103.195 F7800.000
G1 F2143.099
G1 X105.008 Y96.805 E2.50272
G1 Z1.300 F7800.000
G1 X108.486 Y103.486 F7800.000
G1 F1562.618
G1 X96.514 Y103.486 E2.72529
G1 X96.514 Y96.514 E2.85491
G1 X108.486 Y96.514 E3.07748
G1 X108.486 Y103.411 E3.20570
G1 X109.143 Y104.143 F7800.000
G1 F2083.490
G1 X95.857 Y104.143 E3.45271
G1 X95.857 Y95.857 E3.60675
G1 X109.143 Y95.857 E3.85376
G1 X109.143 Y104.068 E4.00641
G1 X109.725 Y104.725 F7800.000
G1 F2160.000
G1 X95.275 Y104.725 E4.21373
G1 X95.275 Y95.275 E4.34931
G1 X109.725 Y95.275 E4.55663
G1 X109.725 Y104.650 E4.69114
G1 X109.234 Y104.629 F7800.000
G1 X95.275 Y104.800 F7800.000
G1 F2160.000
G1 X90.000 Y104.800 E4.74443
G1 E2.74443 F2400.00000
G92 E0
G1 X90.000 Y95.200 F7800.000
G1 E2.00000 F2400.00000
G1 F2160.000
G1 X95.275 Y95.200 E2.05329
G1 X105.215 Y96.805 F7800.000
G1 F2083.490
G1 X103.503 Y103.195 E2.16226
G1 X106.441 Y102.954 F7800.000
G1 F2083.490
G1 X108.195 Y102.484 E2.19218
G1 X108.107 Y101.714 F7800.000
G1 F2083.490
G1 X103.286 Y96.893 E2.30447
G1 X107.625 Y96.893 E2.37593
G1 X107.625 Y101.232 E2.44740
G1 Z1.500 F7800.000
G1 X108.486 Y103.486 F7800.000
G1 F1586.117
G1 X96.514 Y103.486 E2.66997
G1 X96.514 Y96.514 E2.79959
G1 X108.486 Y96.514 E3.02216
G1 X108.486 Y103.411 E3.15038
G1 X109.143 Y104.143 F7800.000
G1 F2114.822
G1 X95.857 Y104.143 E3.39738
G1 X95.857 Y95.857 E3.55143
G1 X109.143 Y95.857 E3.79843
G1 X109.143 Y104.068 E3.95109
G1 X109.725 Y104.725 F7800.000
G1 F2160.000
G1 X95.275 Y104.725 E4.15841
G1 X95.275 Y95.275 E4.29399
G1 X109.725 Y95.275 E4.50131
G1 X109.725 Y104.650 E4.63582
G1 X109.234 Y104.629 F7800.000
G1 X95.275 Y104.800 F7800.000
G1 F2160.000
G1 X90.000 Y104.800 E4.68911
G1 E2.68911 F2400.00000
G92 E0
G1 X90.000 Y95.200 F7800.000
G1 E2.00000 F2400.00000
G1 F2160.000
G1 X95.275 Y95.200 E2.05329
G1 X105.422 Y96.805 F7800.000
G1 F2114.822
G1 X103.710 Y103.195 E2.16226
G1 X105.668 Y102.954 F7800.000
G1 F2114.822
G1 X108.195 Y102.277 E2.20536
G1 X108.107 Y101.997 F7800.000
G1 F2114.822
G1 X103.003 Y96.893 E2.32423
G1 X107.625 Y96.893 E2.40036
G1 X107.625 Y101.515 E2.47648
G1 Z1.700 F7800.000
G1 X108.486 Y103.486 F7800.000
G1 F1609.616
G1 X96.514 Y103.486 E2.69905
G1 X96.514 Y96.514 E2.82867
G1 X108.486 Y96.514 E3.05124
G1 X108.486 Y103.411 E3.17946
G1 X109.143 Y104.143 F7800.000
G1 F2146.154
G1 X95.857 Y104.143 E3.42646
G1 X95.857 Y95.857 E3.58051
G1 X109.143 Y95.857 E3.82751
G1 X109.143 Y104.068 E3.98017
G1 X109.725 Y104.725 F7800.000
G1 F2160.000
G1 X95.275 Y104.725 E4.18749
G1 X95.275 Y95.275 E4.32307
G1 X109.725 Y95.275 E4.53039
G1 X109.725 Y104.650 E4.66490
G1 X109.234 Y104.629 F7800.000
G1 X95.275 Y104.800 F7800.000
G1 F2160.000
G1 X90.000 Y104.800 E4.71819
G1 E2.71819 F2400.00000
G92 E0
G1 X90.000 Y95.200 F7800.000
G1 E2.00000 F2400.00000
G1 F2160.000
G1 X95.275 Y95.200 E2.05329
G1 X105.629 Y96.805 F7800.000
G1 F2146.154
G1 X103.917 Y103.195 E2.16226
G1 X104.895 Y102.954 F7800.000
G1 F2146.154
G1 X108.195 Y102.070 E2.21853
G1 X108.107 Y102.280 F7800.000
G1 F2146.154
G1 X102.720 Y96.893 E2.34400
G1 X107.625 Y96.893 E2.42478
G1 X107.625 Y101.798 E2.50556
G1 Z1.900 F7800.000
G1 X108.486 Y103.486 F7800.000
G1 F1633.115
G1 X96.514 Y103.486 E2.72813
G1 X96.514 Y96.514 E2.85775
G1 X108.486 Y96.514 E3.08032
G1 X108.486 Y103.411 E3.20854
G1 X109.143 Y104.143 F7800.000
G1 F2177.487
G1 X95.857 Y104.143 E3.45554
G1 X95.857 Y95.857 E3.60959
G1 X109.143 Y95.857 E3.85659
G1 X109.143 Y104.068 E4.00925
G1 X109.725 Y104.725 F7800.000
G1 F2160.000
G1 X95.275 Y104.725 E4.21657
G1 X95.275 Y95.275 E4.35215
G1 X109.725 Y95.275 E4.55947
G1 X109.725 Y104.650 E4.69398
G1 X109.234 Y104.629 F7800.000
G1 X95.275 Y104.800 F7800.000
G1 F2160.000
G1 X90.000 Y104.800 E4.74727
G1 E2.74727 F2400.00000
G92 E0
G1 X90.000 Y95.200 F7800.000
G1 E2.00000 F2400.00000
G1 F2160.000
G1 X95.275 Y95.200 E2.05329
G1 X105.836 Y96.805 F7800.000
G1 F2177.487
G1 X104.124 Y103.195 E2.16226
G1 X104.123 Y102.954 F7800.000
G1 F2177.487
G1 X108.195 Y101.863 E2.23171
G1 X107.625 Y102.080 F7800.000
G1 F2177.487
G1 X107.625 Y96.893 E2.31715
G1 X102.438 Y96.893 E2.40259
G1 X108.107 Y102.562 E2.53464
G1 Z2.100 F7800.000
G1 X108.486 Y103.486 F7800.000
G1 F1656.614
G1 X96.514 Y103.486 E2.75721
G1 X96.514 Y96.514 E2.88683
G1 X108.486 Y96.514 E3.10940
G1 X108.486 Y103.411 E3.23762
G1 X109.143 Y104.143 F7800.000
G1 F2208.818
G1 X95.857 Y104.143 E3.48462
G1 X95.857 Y95.857 E3.63867
G1 X109.143 Y95.857 E3.88567
G1 X109.143 Y104.068 E4.03833
G1 X109.725 Y104.725 F7800.000
G1 F2160.000
G1 X95.275 Y104.725 E4.24565
G1 X95.275 Y95.275 E4.38123
G1 X109.725 Y95.275 E4.58855
G1 X109.725 Y104.650 E4.72306
G1 X109.234 Y104.629 F7800.000
G1 X95.275 Y104.800 F7800.000
G1 F2160.000
G1 X90.000 Y104.800 E4.77635
G1 E2.77635 F2400.00000
G92 E0
G1 X90.000 Y95.200 F7800.000
G1 E2.00000 F2400.00000
G1 F2160.000
G1 X95.275 Y95.200 E2.05329
G1 X106.043 Y96.805 F7800.000
G1 F2208.818
G1 X104.331 Y103.195 E2.16226
G1 X103.350 Y102.954 F7800.000
G1 F2208.818
G1 X108.195 Y101.656 E2.24488
G1 X107.625 Y102.363 F7800.000
G1 F2208.818
G1 X107.625 Y96.893 E2.33498
G1 X102.155 Y96.893 E2.42508
G1 X108.107 Y102.845 E2.56372
G1 Z2.300 F7800.000
G1 X108.486 Y103.486 F7800.000
G1 F1679.720
G1 X96.514 Y103.486 E2.78629
G1 X96.514 Y96.514 E2.91591
G1 X108.486 Y96.514 E3.13848
G1 X108.486 Y103.411 E3.26670
G1 X109.143 Y104.143 F7800.000
G1 F2239.627
G1 X95.857 Y104.143 E3.51370
G1 X95.857 Y95.857 E3.66775
G1 X109.143 Y95.857 E3.91475
G1 X109.143 Y104.068 E4.06741
G1 X109.725 Y104.725 F7800.000
G1 F2160.000
G1 X95.275 Y104.725 E4.27473
G1 X95.275 Y95.275 E4.41031
G1 X109.725 Y95.275 E4.61763
G1 X109.725 Y104.650 E4.75214
G1 X109.234 Y104.629 F7800.000
G1 X95.275 Y104.800 F7800.000
G1 F2160.000
G1 X90.000 Y104.800 E4.80543
G1 E2.80543 F2400.00000
G92 E0
G1 X90.000 Y95.200 F7800.000
G1 E2.00000 F2400.00000
G1 F2160.000
G1 X95.275 Y95.200 E2.05329
G1 X102.577 Y102.954 F7800.000
G1 F2239.627
G1 X108.195 Y101.449 E2.14909
G1 X107.604 Y102.625 F7800.000
