; generated by Slic3r 1.3.1-dev (Build 54a31ee) on 2020-03-22 at 20:00:20

; external perimeters extrusion width = 0.55mm (4.37mm^3/s)
; perimeters extrusion width = 0.70mm (11.44mm^3/s)
; infill extrusion width = 0.62mm (13.45mm^3/s)
; solid infill extrusion width = 0.70mm (3.81mm^3/s)
; top infill extrusion width = 0.70mm (2.86mm^3/s)

M107
G92 E0
M104 S200 ; set temperature
G28 ; home all axes
G1 Z5 F5000 ; lift nozzle

; Filament gcode

M109 S200 ; set temperature and wait for it to be reached
G21 ; set units to millimeters
G90 ; use absolute coordinates
M82 ; use absolute distances for extrusion
G92 E0
G1 Z0.350 F7800.000
G1 E-2.00000 F2400.00000
G92 E0
G1 X71.415 Y78.253 F7800.000
G1 E2.00000 F2400.00000
G1 F1800.000
G1 X73.168 Y76.774 E2.07096
G1 X75.320 Y75.981 E2.14192
G1 X76.500 Y75.875 E2.17858
G1 X88.500 Y75.875 E2.54987
G1 X89.345 Y75.929 E2.57606
G1 X124.345 Y80.429 E3.66792
G1 X126.535 Y81.111 E3.73889
G1 X128.361 Y82.499 E3.80985
G1 X129.604 Y84.426 E3.88081
G1 X130.125 Y87.000 E3.96208
G1 X130.125 Y103.000 E4.45714
G1 X129.728 Y105.259 E4.52810
G1 X128.585 Y107.247 E4.59907
G1 X126.036 Y109.120 E4.69695
G1 X91.036 Y123.620 E5.86915
G1 X88.500 Y124.125 E5.94914
G1 X76.500 Y124.125 E6.32044
G1 X74.241 Y123.728 E6.39140
G1 X72.253 Y122.585 E6.46236
G1 X70.774 Y120.832 E6.53332
G1 X69.981 Y118.680 E6.60429
G1 X69.875 Y117.500 E6.64094
G1 X69.875 Y82.500 E7.72388
G1 X70.272 Y80.241 E7.79484
G1 X71.378 Y78.318 E7.86349
G1 E5.86349 F2400.00000
G92 E0
G1 X83.902 Y116.428 F7800.000
G1 E2.00000 F2400.00000
G1 F1800.000
G1 X81.098 Y116.428 E2.08676
G1 X79.696 Y114.000 E2.17353
G1 X81.098 Y111.572 E2.26029
G1 X83.902 Y111.572 E2.34706
G1 X85.304 Y114.000 E2.43382
G1 X83.940 Y116.364 E2.51827
G1 X83.902 Y116.928 F7800.000
G1 X85.650 Y115.900 F7800.000
G1 F1800.000
G1 X86.622 Y114.216 E2.57843
G1 X86.900 Y114.291 E2.58733
G1 X86.900 Y115.900 E2.63713
G1 X85.725 Y115.900 E2.67348
G1 E0.67348 F2400.00000
G92 E0
G1 X79.350 Y115.900 F7800.000
G1 E2.00000 F2400.00000
G1 F1800.000
G1 X78.100 Y115.900 E2.03868
G1 X78.100 Y114.291 E2.08847
G1 X78.378 Y114.216 E2.09738
G1 X79.312 Y115.835 E2.15522
G1 E0.15522 F2400.00000
G92 E0
G1 X78.378 Y85.784 F7800.000
G1 E2.00000 F2400.00000
G1 F1800.000
G1 X78.100 Y85.709 E2.00890
G1 X78.100 Y84.100 E2.05870
G1 X79.350 Y84.100 E2.09738
G1 X78.415 Y85.719 E2.15522
G1 E0.15522 F2400.00000
G92 E0
G1 X85.650 Y84.100 F7800.000
G1 E2.00000 F2400.00000
G1 F1800.000
G1 X86.900 Y84.100 E2.03868
G1 X86.900 Y85.709 E2.08847
G1 X86.622 Y85.784 E2.09738
G1 X85.688 Y84.165 E2.15522
G1 E0.15522 F2400.00000
G92 E0
G1 X84.624 Y89.678 F7800.000
G1 E2.00000 F2400.00000
G1 F1800.000
G1 X86.622 Y86.216 E2.12368
G1 X86.900 Y86.291 E2.13259
G1 X86.900 Y113.709 E2.98095
G1 X86.622 Y113.784 E2.98985
G1 X84.624 Y110.322 E3.11353
G1 X80.376 Y110.322 E3.24495
G1 X78.378 Y113.784 E3.36864
G1 X78.100 Y113.709 E3.37754
G1 X78.100 Y86.291 E4.22590
G1 X78.378 Y86.216 E4.23480
G1 X80.376 Y89.678 E4.35848
G1 X84.549 Y89.678 E4.48758
G1 X84.263 Y89.053 F7800.000
G1 F1800.000
G1 X86.026 Y86.000 E4.59667
G1 X84.568 Y83.475 E4.68688
G1 X87.525 Y83.475 E4.77839
G1 X87.525 Y116.525 E5.80100
G1 X84.568 Y116.525 E5.89251
G1 X86.026 Y114.000 E5.98272
G1 X84.263 Y110.947 E6.09181
G1 X80.737 Y110.947 E6.20090
G1 X78.974 Y114.000 E6.30999
G1 X80.432 Y116.525 E6.40021
G1 X77.475 Y116.525 E6.49171
G1 X77.475 Y83.475 E7.51433
G1 X80.432 Y83.475 E7.60583
G1 X78.974 Y86.000 E7.69605
G1 X80.737 Y89.053 E7.80514
G1 X84.188 Y89.053 E7.91191
G1 X83.902 Y88.428 F7800.000
G1 F1800.000
G1 X81.098 Y88.428 E7.99867
G1 X79.696 Y86.000 E8.08544
G1 X81.098 Y83.572 E8.17220
G1 X83.902 Y83.572 E8.25896
G1 X85.304 Y86.000 E8.34573
G1 X83.940 Y88.364 E8.43017
G1 X83.902 Y88.928 F7800.000
G1 E6.43017 F2400.00000
G92 E0
G1 X88.150 Y82.850 F7800.000
G1 E2.00000 F2400.00000
G1 F1800.000
G1 X88.150 Y117.150 E3.06129
G1 X76.850 Y117.150 E3.41092
G1 X76.850 Y82.850 E4.47221
G1 X88.075 Y82.850 E4.81953
G1 X88.097 Y83.347 F7800.000
G1 E2.81953 F2400.00000
G92 E0
G1 X84.055 Y83.211 F7800.000
G1 E2.00000 F2400.00000
G1 F1800.000
G1 X80.945 Y83.211 E2.00332
G1 E0.00332 F2400.00000
G92 E0
G1 X78.482 Y88.310 F7800.000
G1 E2.00000 F2400.00000
G1 F1800.000
G1 X78.968 Y87.824 E2.02160
G1 X79.296 Y88.393 E2.04225
G1 X78.482 Y89.208 E2.07846
G1 X78.482 Y90.105 E2.10667
G1 X79.625 Y88.962 E2.15748
G1 X79.953 Y89.531 E2.17813
G1 X78.482 Y91.003 E2.24354
G1 X78.482 Y91.901 E2.27175
G1 X80.322 Y90.060 E2.35356
G1 X81.220 Y90.060 E2.38176
G1 X78.482 Y92.798 E2.50346
G1 X78.482 Y93.696 E2.53167
G1 X82.117 Y90.060 E2.69327
G1 X83.015 Y90.060 E2.72148
G1 X78.482 Y94.594 E2.92297
G1 X78.482 Y95.491 E2.95117
G1 X83.913 Y90.060 E3.19256
G1 X84.810 Y90.060 E3.22077
G1 X78.482 Y96.389 E3.50204
G1 X78.482 Y97.286 E3.53025
G1 X86.518 Y89.250 E3.88744
G1 X86.518 Y90.147 E3.91565
G1 X78.482 Y98.184 E4.27284
G1 X78.482 Y99.082 E4.30105
G1 X86.518 Y91.045 E4.65825
G1 X86.518 Y91.942 E4.68645
G1 X78.482 Y99.979 E5.04365
G1 X78.482 Y100.877 E5.07186
G1 X86.518 Y92.840 E5.42905
G1 X86.518 Y93.738 E5.45726
G1 X78.482 Y101.774 E5.81445
G1 X78.482 Y102.672 E5.84266
G1 X86.518 Y94.635 E6.19985
G1 X86.518 Y95.533 E6.22806
G1 X78.482 Y103.570 E6.58525
G1 X78.482 Y104.467 E6.61346
G1 X86.518 Y96.430 E6.97065
G1 X86.518 Y97.328 E6.99886
G1 X78.482 Y105.365 E7.35606
G1 X78.482 Y106.262 E7.38427
G1 X86.518 Y98.226 E7.74146
G1 X86.518 Y99.123 E7.76967
G1 X78.482 Y107.160 E8.12686
G1 X78.482 Y108.058 E8.15507
G1 X86.518 Y100.021 E8.51226
G1 X86.518 Y100.918 E8.54047
G1 X78.482 Y108.955 E8.89766
G1 X78.482 Y109.853 E8.92587
G1 X86.518 Y101.816 E9.28306
G1 X86.518 Y102.714 E9.31127
G1 X78.482 Y110.750 E9.66847
G1 X78.482 Y111.648 E9.69667
G1 X79.203 Y110.927 E9.72872
G1 X79.773 Y109.940 E9.76454
G1 X80.190 Y109.940 E9.77765
G1 X86.518 Y103.611 E10.05893
G1 X86.518 Y104.509 E10.08714
G1 X81.087 Y109.940 E10.32852
G1 X81.985 Y109.940 E10.35673
G1 X86.518 Y105.406 E10.55821
G1 X86.518 Y106.304 E10.58642
G1 X82.883 Y109.940 E10.74802
G1 X83.780 Y109.940 E10.77622
G1 X86.518 Y107.202 E10.89792
G1 X86.518 Y108.099 E10.92613
G1 X84.678 Y109.940 E11.00794
G1 X84.741 Y109.940 E11.00994
G1 X85.047 Y110.469 E11.02912
G1 X86.518 Y108.997 E11.09453
G1 X86.518 Y109.894 E11.12274
G1 X85.375 Y111.038 E11.17355
G1 X85.704 Y111.607 E11.19420
G1 X86.518 Y110.792 E11.23041
G1 X86.518 Y111.690 E11.25862
G1 X86.032 Y112.176 E11.28022
G1 E9.28022 F2400.00000
G92 E0
G1 X85.311 Y89.559 F7800.000
G1 E2.00000 F2400.00000
G1 F1800.000
G1 X86.518 Y88.352 E2.05365
G1 E0.05365 F2400.00000
G92 E0
G1 X84.055 Y116.789 F7800.000
G1 E2.00000 F2400.00000
G1 F1800.000
G1 X80.945 Y116.789 E2.00331
G1 E0.00331 F2400.00000
G92 E0
G1 X98.100 Y88.600 F7800.000
G1 E2.00000 F2400.00000
G1 F1800.000
G1 X121.900 Y88.600 E2.73642
G1 X121.900 Y101.400 E3.13248
G1 X98.100 Y101.400 E3.86890
G1 X98.100 Y88.675 E4.26264
G1 X97.475 Y87.975 F7800.000
G1 F1800.000
G1 X122.525 Y87.975 E5.03773
G1 X122.525 Y102.025 E5.47246
G1 X97.475 Y102.025 E6.24754
G1 X97.475 Y88.050 E6.67996
G1 X96.850 Y87.350 F7800.000
G1 F1800.000
G1 X123.150 Y87.350 E7.49371
G1 X123.150 Y102.650 E7.96712
G1 X96.850 Y102.650 E8.78087
G1 X96.850 Y87.425 E9.25195
G1 X97.342 Y87.437 F7800.000
G1 E7.25195 F2400.00000
G92 E0
G1 X98.968 Y88.982 F7800.000
G1 E2.00000 F2400.00000
G1 F1800.000
G1 X98.482 Y89.468 E2.02160
G1 X98.482 Y90.365 E2.04980
G1 X99.865 Y88.982 E2.11128
G1 X100.763 Y88.982 E2.13948
G1 X98.482 Y91.263 E2.24083
G1 X98.482 Y92.160 E2.26903
G1 X101.660 Y88.982 E2.41026
G1 X102.557 Y88.982 E2.43846
G1 X98.482 Y93.057 E2.61956
G1 X98.482 Y93.955 E2.64776
G1 X103.455 Y88.982 E2.86874
G1 X104.352 Y88.982 E2.89694
G1 X98.482 Y94.852 E3.15779
G1 X98.482 Y95.750 E3.18599
G1 X105.250 Y88.982 E3.48672
G1 X106.147 Y88.982 E3.51492
G1 X98.482 Y96.647 E3.85553
G1 X98.482 Y97.544 E3.88372
G1 X107.044 Y88.982 E4.26421
G1 X107.942 Y88.982 E4.29240
G1 X98.482 Y98.442 E4.71276
G1 X98.482 Y99.339 E4.74096
G1 X108.839 Y88.982 E5.20119
G1 X109.737 Y88.982 E5.22939
G1 X98.482 Y100.237 E5.72950
G1 X98.482 Y101.018 E5.75406
G1 X98.597 Y101.018 E5.75770
G1 X110.634 Y88.982 E6.29254
G1 X111.531 Y88.982 E6.32074
G1 X99.495 Y101.018 E6.85559
G1 X100.392 Y101.018 E6.88378
G1 X112.429 Y88.982 E7.41863
G1 X113.326 Y88.982 E7.44683
G1 X101.289 Y101.018 E7.98168
G1 X102.187 Y101.018 E8.00987
G1 X114.224 Y88.982 E8.54472
G1 X115.121 Y88.982 E8.57292
G1 X103.084 Y101.018 E9.10776
G1 X103.982 Y101.018 E9.13596
G1 X116.018 Y88.982 E9.67081
G1 X116.916 Y88.982 E9.69900
G1 X104.879 Y101.018 E10.23385
G1 X105.776 Y101.018 E10.26205
G1 X117.813 Y88.982 E10.79690
G1 X118.711 Y88.982 E10.82509
G1 X106.674 Y101.018 E11.35994
G1 X107.571 Y101.018 E11.38814
G1 X119.608 Y88.982 E11.92298
G1 X120.505 Y88.982 E11.95118
G1 X108.469 Y101.018 E12.48603
G1 X109.366 Y101.018 E12.51422
G1 X121.403 Y88.982 E13.04907
G1 X121.518 Y88.982 E13.05270
G1 X121.518 Y89.763 E13.07727
G1 X110.263 Y101.018 E13.57738
G1 X111.161 Y101.018 E13.60557
G1 X121.518 Y90.661 E14.06581
G1 X121.518 Y91.558 E14.09400
G1 X112.058 Y101.018 E14.51436
G1 X112.956 Y101.018 E14.54256
G1 X121.518 Y92.456 E14.92304
G1 X121.518 Y93.353 E14.95124
G1 X113.853 Y101.018 E15.29184
G1 X114.750 Y101.018 E15.32004
G1 X121.518 Y94.250 E15.62077
G1 X121.518 Y95.148 E15.64897
G1 X115.648 Y101.018 E15.90982
G1 X116.545 Y101.018 E15.93802
G1 X121.518 Y96.045 E16.15900
G1 X121.518 Y96.943 E16.18720
G1 X117.443 Y101.018 E16.36830
G1 X118.340 Y101.018 E16.39650
G1 X121.518 Y97.840 E16.53773
G1 X121.518 Y98.737 E16.56592
G1 X119.237 Y101.018 E16.66728
G1 X120.135 Y101.018 E16.69548
G1 X121.518 Y99.635 E16.75695
G1 X121.518 Y100.532 E16.78515
G1 X121.032 Y101.018 E16.80675
G1 Z0.650 F7800.000
G1 E14.80675 F2400.00000
G92 E0
G1 X83.859 Y111.647 F7800.000
G1 E2.00000 F2400.00000
G1 F900.000
G1 X85.218 Y114.000 E2.05601
G1 X83.859 Y116.353 E2.11202
G1 X81.141 Y116.353 E2.16803
G1 X79.782 Y114.000 E2.22404
G1 X81.141 Y111.647 E2.28005
G1 X83.784 Y111.647 E2.33451
G1 X84.292 Y111.397 F7800.000
G1 X84.549 Y110.450 F7800.000
G1 F3600.000
G1 X80.451 Y110.450 E2.44509
G1 X78.401 Y114.000 E2.55566
G1 X79.572 Y116.029 E2.61886
G1 X77.971 Y116.029 E2.66205
G1 X77.971 Y83.971 E3.52685
G1 X79.572 Y83.971 E3.57005
G1 X78.401 Y86.000 E3.63324
G1 X80.451 Y89.550 E3.74381
G1 X84.549 Y89.550 E3.85439
G1 X86.599 Y86.000 E3.96496
G1 X85.428 Y83.971 E4.02815
G1 X87.029 Y83.971 E4.07135
G1 X87.029 Y116.029 E4.93615
G1 X85.428 Y116.029 E4.97935
G1 X86.599 Y114.000 E5.04254
G1 X84.587 Y110.515 E5.15109
G1 X84.182 Y111.086 F7800.000
G1 F3600.000
G1 X80.818 Y111.086 E5.24186
G1 X79.135 Y114.000 E5.33264
G1 X80.673 Y116.664 E5.41563
G1 X77.336 Y116.664 E5.50567
G1 X77.336 Y83.336 E6.40477
G1 X80.673 Y83.336 E6.49481
G1 X79.135 Y86.000 E6.57781
G1 X80.818 Y88.914 E6.66858
G1 X84.182 Y88.914 E6.75935
G1 X85.865 Y86.000 E6.85012
G1 X84.327 Y83.336 E6.93312
G1 X87.664 Y83.336 E7.02316
G1 X87.664 Y116.664 E7.92225
G1 X84.327 Y116.664 E8.01230
G1 X85.865 Y114.000 E8.09529
G1 X84.220 Y111.151 E8.18404
G1 X83.859 Y88.353 F7800.000
G1 F900.000
G1 X81.141 Y88.353 E8.24005
G1 X79.782 Y86.000 E8.29606
G1 X81.141 Y83.647 E8.35207
G1 X83.859 Y83.647 E8.40808
G1 X85.218 Y86.000 E8.46409
G1 X83.896 Y88.289 E8.51855
G1 X83.859 Y88.853 F7800.000
G1 X88.225 Y82.775 F7800.000
G1 F1800.000
G1 X88.225 Y117.225 E9.22858
G1 X76.775 Y117.225 E9.46457
G1 X76.775 Y82.775 E10.17459
G1 X88.150 Y82.775 E10.40903
G1 X88.172 Y83.272 F7800.000
G1 X83.931 Y83.211 F7800.000
G1 F1200.000
G1 X81.069 Y83.211 E10.43898
G1 E8.43898 F2400.00000
G92 E0
G1 X79.327 Y88.695 F7800.000
G1 E2.00000 F2400.00000
G1 F1200.000
G1 X78.360 Y87.727 E2.03712
G1 X78.360 Y88.630 E2.06162
G1 X86.640 Y87.875 F7800.000
G1 F1200.000
G1 X86.146 Y87.380 E2.08059
G1 X85.815 Y87.953 E2.09853
G1 X86.640 Y88.778 E2.13017
G1 X86.640 Y89.682 E2.15468
G1 X85.484 Y88.526 E2.19901
G1 X85.154 Y89.099 E2.21695
G1 X86.640 Y90.586 E2.27397
G1 X86.640 Y91.489 E2.29848
G1 X84.823 Y89.672 E2.36818
G1 X84.669 Y89.938 E2.37652
G1 X84.185 Y89.938 E2.38963
G1 X86.640 Y92.393 E2.48378
G1 X86.640 Y93.297 E2.50829
G1 X83.282 Y89.938 E2.63709
G1 X82.378 Y89.938 E2.66160
G1 X86.640 Y94.200 E2.82506
G1 X86.640 Y95.104 E2.84957
G1 X81.475 Y89.938 E3.04769
G1 X80.571 Y89.938 E3.07219
G1 X86.640 Y96.008 E3.30497
G1 X86.640 Y96.911 E3.32947
G1 X78.360 Y88.630 E3.64705
G1 X78.360 Y89.534 E3.67156
G1 X86.640 Y97.815 E3.98914
G1 X86.640 Y98.718 E4.01364
G1 X78.360 Y90.438 E4.33123
G1 X78.360 Y91.341 E4.35573
G1 X86.640 Y99.622 E4.67331
G1 X86.640 Y100.526 E4.69782
G1 X78.360 Y92.245 E5.01540
G1 X78.360 Y93.149 E5.03990
G1 X86.640 Y101.429 E5.35748
G1 X86.640 Y102.333 E5.38199
G1 X78.360 Y94.052 E5.69957
G1 X78.360 Y94.956 E5.72408
G1 X86.640 Y103.237 E6.04166
G1 X86.640 Y104.140 E6.06616
G1 X78.360 Y95.860 E6.38374
G1 X78.360 Y96.763 E6.40825
G1 X86.640 Y105.044 E6.72583
G1 X86.640 Y105.948 E6.75034
G1 X78.360 Y97.667 E7.06792
G1 X78.360 Y98.571 E7.09242
G1 X86.640 Y106.851 E7.41000
G1 X86.640 Y107.755 E7.43451
G1 X78.360 Y99.474 E7.75209
G1 X78.360 Y100.378 E7.77659
G1 X86.640 Y108.659 E8.09417
G1 X86.640 Y109.562 E8.11868
G1 X78.360 Y101.281 E8.43626
G1 X78.360 Y102.185 E8.46077
G1 X86.640 Y110.466 E8.77835
G1 X86.640 Y111.369 E8.80285
G1 X78.360 Y103.089 E9.12043
G1 X78.360 Y103.992 E9.14494
G1 X84.429 Y110.062 E9.37771
G1 X83.525 Y110.062 E9.40222
G1 X78.360 Y104.896 E9.60034
G1 X78.360 Y105.800 E9.62484
G1 X82.622 Y110.062 E9.78831
G1 X81.718 Y110.062 E9.81281
G1 X78.360 Y106.703 E9.94162
G1 X78.360 Y107.607 E9.96612
G1 X80.815 Y110.062 E10.06027
G1 X80.331 Y110.062 E10.07339
G1 X80.177 Y110.328 E10.08173
G1 X78.360 Y108.511 E10.15143
G1 X78.360 Y109.414 E10.17594
G1 X79.846 Y110.901 E10.23295
G1 X79.516 Y111.474 E10.25089
G1 X78.360 Y110.318 E10.29523
G1 X78.360 Y111.222 E10.31973
G1 X79.185 Y112.047 E10.35138
G1 X78.854 Y112.620 E10.36932
G1 X78.360 Y112.125 E10.38828
G1 X83.935 Y109.567 F7800.000
G1 F1200.000
G1 X84.669 Y109.567 E10.40820
G1 X85.672 Y111.305 E10.46262
G1 X86.640 Y112.273 E10.49974
G1 X83.931 Y116.789 F7800.000
G1 F1200.000
G1 X81.069 Y116.789 E10.52968
G1 E8.52968 F2400.00000
G92 E0
G1 X97.971 Y88.471 F7800.000
G1 E2.00000 F2400.00000
G1 F3600.000
G1 X122.029 Y88.471 E2.64899
G1 X122.029 Y101.529 E3.00124
G1 X97.971 Y101.529 E3.65022
G1 X97.971 Y88.546 E4.00045
G1 X97.336 Y87.836 F7800.000
G1 F3600.000
G1 X122.664 Y87.836 E4.68373
G1 X122.664 Y102.164 E5.07027
G1 X97.336 Y102.164 E5.75355
G1 X97.336 Y87.911 E6.13807
G1 X96.775 Y87.275 F7800.000
G1 F1800.000
G1 X123.225 Y87.275 E6.68321
G1 X123.225 Y102.725 E7.00164
G1 X96.775 Y102.725 E7.54678
G1 X96.775 Y87.350 E7.86367
G1 X97.267 Y87.363 F7800.000
G1 X98.360 Y100.646 F7800.000
G1 F1200.000
G1 X98.854 Y101.140 E7.88276
G1 X99.764 Y101.140 E7.90761
G1 X98.360 Y99.736 E7.96183
G1 X98.360 Y98.826 E7.98667
G1 X100.674 Y101.140 E8.07603
G1 X101.584 Y101.140 E8.10087
G1 X98.360 Y97.916 E8.22536
G1 X98.360 Y97.007 E8.25020
G1 X102.493 Y101.140 E8.40981
G1 X103.403 Y101.140 E8.43465
G1 X98.360 Y96.097 E8.62940
G1 X98.360 Y95.187 E8.65424
G1 X104.313 Y101.140 E8.88412
G1 X105.223 Y101.140 E8.90896
G1 X98.360 Y94.277 E9.17397
G1 X98.360 Y93.367 E9.19881
G1 X106.133 Y101.140 E9.49894
G1 X107.042 Y101.140 E9.52378
G1 X98.360 Y92.458 E9.85905
G1 X98.360 Y91.548 E9.88389
G1 X107.952 Y101.140 E10.25429
G1 X108.862 Y101.140 E10.27913
G1 X98.360 Y90.638 E10.68466
G1 X98.360 Y89.728 E10.70950
G1 X109.772 Y101.140 E11.15016
G1 X110.682 Y101.140 E11.17500
G1 X98.401 Y88.860 E11.64919
G1 X99.311 Y88.860 E11.67403
G1 X111.591 Y101.140 E12.14823
G1 X112.501 Y101.140 E12.17307
G1 X100.220 Y88.860 E12.64727
G1 X101.130 Y88.860 E12.67211
G1 X113.411 Y101.140 E13.14630
G1 X114.321 Y101.140 E13.17115
G1 X102.040 Y88.860 E13.64534
G1 X102.950 Y88.860 E13.67018
G1 X115.231 Y101.140 E14.14438
G1 X116.140 Y101.140 E14.16922
G1 X103.860 Y88.860 E14.64342
G1 X104.769 Y88.860 E14.66826
G1 X117.050 Y101.140 E15.14245
G1 X117.960 Y101.140 E15.16729
G1 X105.679 Y88.860 E15.64149
G1 X106.589 Y88.860 E15.66633
G1 X118.870 Y101.140 E16.14053
G1 X119.780 Y101.140 E16.16537
G1 X107.499 Y88.860 E16.63956
G1 X108.409 Y88.860 E16.66440
