; generated by Slic3r 1.3.1-dev (Build adea0d9) on 2020-02-21 at 13:53:33

; external perimeters extrusion width = 0.44mm (2.86mm^3/s)
; perimeters extrusion width = 0.56mm (4.14mm^3/s)
; infill extrusion width = 0.50mm (3.66mm^3/s)
; solid infill extrusion width = 0.56mm (3.10mm^3/s)
; top infill extrusion width = 0.56mm (3.10mm^3/s)

M107
G92 E0
;D3D:START:START
T0
M104 S215 T0

G21
G90
M107
T0
G28
G29
M109 T0 S215 T0
G0 F3000
M107
T0
G92 E0
G0 X0 Y149 Z0.1 F3600
G1 Y49 E6.5 F1200
G0 Z1
G92 E0
; Filament gcode

G21 ; set units to millimeters
G90 ; use absolute coordinates
M82 ; use absolute distances for extrusion
G92 E0
G1 Z0.300 F7800.000
G1 E-2.00000 F2400.00000
G92 E0
G1 X56.051 Y86.491 F7800.000
G1 E2.00000 F2400.00000
G1 F1800.000
G1 X58.949 Y86.491 E2.09598
G1 X60.397 Y89.000 E2.19197
G1 X58.949 Y91.509 E2.28795
G1 X56.051 Y91.509 E2.38394
G1 X54.603 Y89.000 E2.47992
G1 X56.021 Y86.543 E2.57392
G1 X56.205 Y86.757 F7800.000
G1 F1800.000
G1 X58.795 Y86.757 E2.65974
G1 X60.091 Y89.000 E2.74557
G1 X58.795 Y91.243 E2.83139
G1 X56.205 Y91.243 E2.91721
G1 X54.909 Y89.000 E3.00304
G1 X56.175 Y86.808 E3.08688
G1 X56.205 Y86.356 F7800.000
G1 X55.898 Y86.225 F7800.000
G1 F1800.000
G1 X54.296 Y89.000 E3.19302
G1 X55.915 Y91.804 E3.30028
G1 X52.196 Y91.804 E3.42347
G1 X52.196 Y58.196 E4.53687
G1 X55.915 Y58.196 E4.66007
G1 X54.296 Y61.000 E4.76732
G1 X55.898 Y63.775 E4.87347
G1 X59.102 Y63.775 E4.97961
G1 X60.704 Y61.000 E5.08576
G1 X59.085 Y58.196 E5.19302
G1 X62.804 Y58.196 E5.31621
G1 X62.804 Y91.804 E6.42961
G1 X59.085 Y91.804 E6.55281
G1 X60.704 Y89.000 E6.66006
G1 X59.102 Y86.225 E6.76621
G1 X55.958 Y86.225 E6.87037
G1 E4.87037 F2400.00000
G92 E0
G1 X56.051 Y63.509 F7800.000
G1 E2.00000 F2400.00000
G1 F1800.000
G1 X54.603 Y61.000 E2.09598
G1 X56.051 Y58.491 E2.19197
G1 X58.949 Y58.491 E2.28795
G1 X60.397 Y61.000 E2.38394
G1 X58.949 Y63.509 E2.47992
G1 X56.111 Y63.509 E2.57392
G1 X56.205 Y63.243 F7800.000
G1 F1800.000
G1 X54.909 Y61.000 E2.65974
G1 X56.205 Y58.757 E2.74556
G1 X58.795 Y58.757 E2.83138
G1 X60.091 Y61.000 E2.91721
G1 X58.795 Y63.243 E3.00303
G1 X56.265 Y63.243 E3.08687
G1 X55.858 Y63.443 F7800.000
G1 E1.08687 F2400.00000
G92 E0
G1 X51.931 Y57.931 F7800.000
G1 E2.00000 F2400.00000
G1 F1800.000
G1 X63.069 Y57.931 E2.36902
G1 X63.069 Y92.069 E3.50002
G1 X51.931 Y92.069 E3.86904
G1 X51.931 Y57.991 E4.99806
G1 X51.665 Y57.665 F7800.000
G1 F1800.000
G1 X63.335 Y57.665 E5.38468
G1 X63.335 Y92.335 E6.53328
G1 X51.665 Y92.335 E6.91990
G1 X51.665 Y57.725 E8.06651
G1 X52.031 Y57.826 F7800.000
G1 E6.06651 F2400.00000
G92 E0
G1 X56.060 Y58.211 F7800.000
G1 E2.00000 F2400.00000
G1 F1800.000
G1 X58.940 Y58.211 E2.08274
G1 X59.551 Y58.565 F7800.000
G1 F1800.000
G1 X59.442 Y58.565 E2.08638
G1 X59.482 Y58.634 E2.08904
G1 X59.757 Y58.359 E2.10205
G1 X60.136 Y58.359 E2.11469
G1 X59.620 Y58.874 E2.13903
G1 X59.759 Y59.114 E2.14829
G1 X60.515 Y58.359 E2.18396
G1 X60.893 Y58.359 E2.19660
G1 X59.897 Y59.354 E2.24360
G1 X60.036 Y59.594 E2.25285
G1 X61.272 Y58.359 E2.31119
G1 X61.650 Y58.359 E2.32382
G1 X60.175 Y59.834 E2.39349
G1 X60.313 Y60.074 E2.40274
G1 X62.029 Y58.359 E2.48373
G1 X62.407 Y58.359 E2.49637
G1 X60.452 Y60.314 E2.58869
G1 X60.590 Y60.554 E2.59794
G1 X62.641 Y58.503 E2.69479
G1 X62.641 Y58.881 E2.70742
G1 X60.729 Y60.794 E2.79773
G1 X60.867 Y61.034 E2.80698
G1 X62.641 Y59.260 E2.89074
G1 X62.641 Y59.638 E2.90338
G1 X60.540 Y61.740 E3.00261
G1 X60.023 Y62.636 E3.03713
G1 X62.641 Y60.017 E3.16078
G1 X62.641 Y60.395 E3.17342
G1 X59.505 Y63.531 E3.32147
G1 E1.32147 F2400.00000
G92 E0
G1 X52.565 Y58.359 F7800.000
G1 E2.00000 F2400.00000
G1 F1800.000
G1 X52.359 Y58.565 E2.00977
G1 X52.359 Y58.944 E2.02240
G1 X52.944 Y58.359 E2.05004
G1 X53.322 Y58.359 E2.06268
G1 X52.359 Y59.322 E2.10819
G1 X52.359 Y59.701 E2.12083
G1 X53.701 Y58.359 E2.18421
G1 X54.080 Y58.359 E2.19684
G1 X52.359 Y60.080 E2.27810
G1 X52.359 Y60.458 E2.29073
G1 X54.458 Y58.359 E2.38986
G1 X54.837 Y58.359 E2.40249
G1 X52.359 Y60.837 E2.51949
G1 X52.359 Y61.215 E2.53212
G1 X55.215 Y58.359 E2.66699
G1 X55.558 Y58.359 E2.67844
G1 X55.509 Y58.443 E2.68168
G1 X52.359 Y61.594 E2.83044
G1 X52.359 Y61.972 E2.84308
G1 X54.992 Y59.338 E2.96743
G1 X54.475 Y60.234 E3.00196
G1 X52.359 Y62.351 E3.10189
G1 X52.359 Y62.729 E3.11453
G1 X54.129 Y60.959 E3.19810
G1 X54.267 Y61.199 E3.20735
G1 X52.359 Y63.108 E3.29747
G1 X52.359 Y63.486 E3.31011
G1 X54.406 Y61.439 E3.40676
G1 X54.544 Y61.679 E3.41601
G1 X52.359 Y63.865 E3.51921
G1 X52.359 Y64.243 E3.53184
G1 X54.683 Y61.919 E3.64158
G1 X54.821 Y62.159 E3.65083
G1 X52.359 Y64.622 E3.76711
G1 X52.359 Y65.000 E3.77975
G1 X54.960 Y62.399 E3.90257
G1 X55.099 Y62.639 E3.91182
G1 X52.359 Y65.379 E4.04118
G1 X52.359 Y65.757 E4.05382
G1 X55.237 Y62.879 E4.18972
G1 X55.376 Y63.119 E4.19897
G1 X52.359 Y66.136 E4.34142
G1 X52.359 Y66.515 E4.35405
G1 X55.514 Y63.359 E4.50304
G1 X55.653 Y63.599 E4.51229
G1 X52.359 Y66.893 E4.66781
G1 X52.359 Y67.272 E4.68045
G1 X55.791 Y63.839 E4.84252
G1 X55.848 Y63.937 E4.84630
G1 X56.072 Y63.937 E4.85377
G1 X52.359 Y67.650 E5.02907
G1 X52.359 Y68.029 E5.04171
G1 X56.450 Y63.937 E5.23489
G1 X56.829 Y63.937 E5.24752
G1 X52.359 Y68.407 E5.45857
G1 X52.359 Y68.786 E5.47121
G1 X57.207 Y63.937 E5.70012
G1 X57.586 Y63.937 E5.71276
G1 X52.359 Y69.164 E5.95955
G1 X52.359 Y69.543 E5.97218
G1 X57.964 Y63.937 E6.23684
G1 X58.343 Y63.937 E6.24948
G1 X52.359 Y69.921 E6.53201
G1 X52.359 Y70.300 E6.54465
G1 X58.721 Y63.937 E6.84505
G1 X59.100 Y63.937 E6.85769
G1 X52.359 Y70.678 E7.17596
G1 X52.359 Y71.057 E7.18860
G1 X62.641 Y60.774 E7.67408
G1 X62.641 Y61.152 E7.68671
G1 X52.359 Y71.435 E8.17219
G1 X52.359 Y71.814 E8.18483
G1 X62.641 Y61.531 E8.67031
G1 X62.641 Y61.910 E8.68294
G1 X52.359 Y72.192 E9.16842
G1 X52.359 Y72.571 E9.18106
G1 X62.641 Y62.288 E9.66654
G1 X62.641 Y62.667 E9.67918
G1 X52.359 Y72.949 E10.16465
G1 X52.359 Y73.328 E10.17729
G1 X62.641 Y63.045 E10.66277
G1 X62.641 Y63.424 E10.67541
G1 X52.359 Y73.707 E11.16089
G1 X52.359 Y74.085 E11.17352
G1 X62.641 Y63.802 E11.65900
G1 X62.641 Y64.181 E11.67164
G1 X52.359 Y74.464 E12.15712
G1 X52.359 Y74.842 E12.16976
G1 X62.641 Y64.559 E12.65523
G1 X62.641 Y64.938 E12.66787
G1 X52.359 Y75.221 E13.15335
G1 X52.359 Y75.599 E13.16599
G1 X62.641 Y65.316 E13.65147
G1 X62.641 Y65.695 E13.66410
G1 X52.359 Y75.978 E14.14958
G1 X52.359 Y76.356 E14.16222
G1 X62.641 Y66.073 E14.64770
G1 X62.641 Y66.452 E14.66034
G1 X52.359 Y76.735 E15.14581
G1 X52.359 Y77.113 E15.15845
G1 X62.641 Y66.830 E15.64393
G1 X62.641 Y67.209 E15.65657
G1 X52.359 Y77.492 E16.14205
G1 X52.359 Y77.870 E16.15468
G1 X62.641 Y67.587 E16.64016
G1 X62.641 Y67.966 E16.65280
G1 X52.359 Y78.249 E17.13828
G1 X52.359 Y78.627 E17.15091
G1 X62.641 Y68.344 E17.63639
G1 X62.641 Y68.723 E17.64903
G1 X52.359 Y79.006 E18.13451
G1 X52.359 Y79.384 E18.14715
G1 X62.641 Y69.102 E18.63263
G1 X62.641 Y69.480 E18.64526
G1 X52.359 Y79.763 E19.13074
G1 X52.359 Y80.142 E19.14338
G1 X62.641 Y69.859 E19.62886
G1 X62.641 Y70.237 E19.64149
G1 X52.359 Y80.520 E20.12697
G1 X52.359 Y80.899 E20.13961
G1 X62.641 Y70.616 E20.62509
G1 X62.641 Y70.994 E20.63773
G1 X52.359 Y81.277 E21.12321
G1 X52.359 Y81.656 E21.13584
G1 X62.641 Y71.373 E21.62132
G1 X62.641 Y71.751 E21.63396
G1 X52.359 Y82.034 E22.11944
G1 X52.359 Y82.413 E22.13207
G1 X62.641 Y72.130 E22.61755
G1 X62.641 Y72.508 E22.63019
G1 X52.359 Y82.791 E23.11567
G1 X52.359 Y83.170 E23.12831
G1 X62.641 Y72.887 E23.61379
G1 X62.641 Y73.265 E23.62642
G1 X52.359 Y83.548 E24.11190
G1 X52.359 Y83.927 E24.12454
G1 X62.641 Y73.644 E24.61002
G1 X62.641 Y74.022 E24.62265
G1 X52.359 Y84.305 E25.10813
G1 X52.359 Y84.684 E25.12077
G1 X62.641 Y74.401 E25.60625
G1 X62.641 Y74.779 E25.61889
G1 X52.359 Y85.062 E26.10436
G1 X52.359 Y85.441 E26.11700
G1 X62.641 Y75.158 E26.60248
G1 X62.641 Y75.537 E26.61512
G1 X52.359 Y85.819 E27.10060
G1 X52.359 Y86.198 E27.11323
G1 X62.641 Y75.915 E27.59871
G1 X62.641 Y76.294 E27.61135
G1 X52.359 Y86.577 E28.09683
G1 X52.359 Y86.955 E28.10947
G1 X62.641 Y76.672 E28.59494
G1 X62.641 Y77.051 E28.60758
G1 X52.359 Y87.334 E29.09306
G1 X52.359 Y87.712 E29.10570
G1 X62.641 Y77.429 E29.59118
G1 X62.641 Y77.808 E29.60381
G1 X52.359 Y88.091 E30.08929
G1 X52.359 Y88.469 E30.10193
G1 X62.641 Y78.186 E30.58741
G1 X62.641 Y78.565 E30.60005
G1 X52.359 Y88.848 E31.08552
G1 X52.359 Y89.226 E31.09816
G1 X62.641 Y78.943 E31.58364
G1 X62.641 Y79.322 E31.59628
G1 X55.900 Y86.063 E31.91454
G1 X56.279 Y86.063 E31.92718
G1 X62.641 Y79.700 E32.22757
G1 X62.641 Y80.079 E32.24021
G1 X56.657 Y86.063 E32.52273
G1 X57.036 Y86.063 E32.53537
G1 X62.641 Y80.457 E32.80002
G1 X62.641 Y80.836 E32.81265
G1 X57.414 Y86.063 E33.05943
G1 X57.793 Y86.063 E33.07207
G1 X62.641 Y81.214 E33.30098
G1 X62.641 Y81.593 E33.31362
G1 X58.171 Y86.063 E33.52465
G1 X58.550 Y86.063 E33.53729
G1 X62.641 Y81.972 E33.73046
G1 X62.641 Y82.350 E33.74309
G1 X58.929 Y86.063 E33.91839
G1 X59.152 Y86.063 E33.92585
G1 X59.209 Y86.161 E33.92964
G1 X62.641 Y82.729 E34.09170
G1 X62.641 Y83.107 E34.10434
G1 X59.347 Y86.401 E34.25986
G1 X59.486 Y86.641 E34.26912
G1 X62.641 Y83.486 E34.41810
G1 X62.641 Y83.864 E34.43073
G1 X59.624 Y86.881 E34.57318
G1 X59.763 Y87.121 E34.58243
G1 X62.641 Y84.243 E34.71833
G1 X62.641 Y84.621 E34.73096
G1 X59.902 Y87.361 E34.86032
G1 X60.040 Y87.601 E34.86957
G1 X62.641 Y85.000 E34.99239
G1 X62.641 Y85.378 E35.00503
G1 X60.179 Y87.841 E35.12130
G1 X60.317 Y88.081 E35.13055
G1 X62.641 Y85.757 E35.24029
G1 X62.641 Y86.135 E35.25293
G1 X60.456 Y88.321 E35.35612
G1 X60.594 Y88.561 E35.36537
G1 X62.641 Y86.514 E35.46202
G1 X62.641 Y86.892 E35.47466
G1 X60.733 Y88.801 E35.56477
G1 X60.871 Y89.041 E35.57402
G1 X62.641 Y87.271 E35.65759
G1 X62.641 Y87.649 E35.67023
G1 X60.524 Y89.766 E35.77018
G1 X60.007 Y90.662 E35.80470
G1 X62.641 Y88.028 E35.92906
G1 X62.641 Y88.406 E35.94170
G1 X59.490 Y91.558 E36.09047
G1 X59.442 Y91.641 E36.09370
G1 X59.785 Y91.641 E36.10515
G1 X62.641 Y88.785 E36.24001
G1 X62.641 Y89.164 E36.25265
G1 X60.164 Y91.641 E36.36964
G1 X60.542 Y91.641 E36.38227
G1 X62.641 Y89.542 E36.48139
G1 X62.641 Y89.921 E36.49403
G1 X60.921 Y91.641 E36.57527
G1 X61.299 Y91.641 E36.58791
G1 X62.641 Y90.299 E36.65128
G1 X62.641 Y90.678 E36.66392
G1 X61.678 Y91.641 E36.70942
G1 X62.056 Y91.641 E36.72206
G1 X62.641 Y91.056 E36.74969
G1 X62.641 Y91.435 E36.76233
G1 X62.435 Y91.641 E36.77209
G1 E34.77209 F2400.00000
G92 E0
G1 X55.243 Y91.641 F7800.000
G1 E2.00000 F2400.00000
G1 F1800.000
G1 X55.518 Y91.366 E2.01301
G1 X55.380 Y91.126 E2.02226
G1 X54.864 Y91.641 E2.04660
G1 X54.486 Y91.641 E2.05924
G1 X55.241 Y90.886 E2.09491
G1 X55.103 Y90.646 E2.10416
G1 X54.107 Y91.641 E2.15116
G1 X53.729 Y91.641 E2.16379
G1 X54.964 Y90.406 E2.22212
G1 X54.825 Y90.166 E2.23137
G1 X53.350 Y91.641 E2.30103
G1 X52.972 Y91.641 E2.31367
G1 X54.687 Y89.926 E2.39466
G1 X54.548 Y89.686 E2.40391
G1 X52.593 Y91.641 E2.49623
G1 X52.359 Y91.641 E2.50406
G1 X52.359 Y91.497 E2.50887
G1 X54.410 Y89.446 E2.60571
G1 X54.271 Y89.206 E2.61496
G1 X52.359 Y91.119 E2.70527
G1 X52.359 Y90.740 E2.71791
G1 X54.133 Y88.966 E2.80167
G1 X54.093 Y88.897 E2.80435
G1 X54.460 Y88.260 E2.82888
G1 X52.359 Y90.362 E2.92811
G1 X52.359 Y89.983 E2.94074
G1 X54.977 Y87.365 E3.06438
G1 X55.494 Y86.469 E3.09890
G1 X52.359 Y89.605 E3.24694
G1 X52.359 Y89.226 E3.25958
G1 E1.25958 F2400.00000
G92 E0
G1 X56.060 Y91.789 F7800.000
G1 E2.00000 F2400.00000
G1 F1800.000
G1 X58.940 Y91.789 E2.08273
G1 E0.08273 F2400.00000
G92 E0
G1 X72.196 Y62.696 F7800.000
G1 E2.00000 F2400.00000
G1 F1800.000
G1 X97.804 Y62.696 E2.84837
G1 X97.804 Y77.304 E3.33231
G1 X72.196 Y77.304 E4.18067
G1 X72.196 Y62.756 E4.66262
G1 X71.931 Y62.431 F7800.000
G1 F1800.000
G1 X98.069 Y62.431 E5.52859
G1 X98.069 Y77.569 E6.03013
G1 X71.931 Y77.569 E6.89609
G1 X71.931 Y62.491 E7.39564
G1 X71.665 Y62.165 F7800.000
G1 F1800.000
G1 X98.335 Y62.165 E8.27921
G1 X98.335 Y77.835 E8.79835
G1 X71.665 Y77.835 E9.68191
G1 X71.665 Y62.225 E10.19906
G1 X72.059 Y62.235 F7800.000
G1 X72.565 Y62.859 F7800.000
G1 F1800.000
G1 X72.359 Y63.065 E10.20877
G1 X72.359 Y63.442 E10.22127
G1 X72.942 Y62.859 E10.24866
G1 X73.318 Y62.859 E10.26116
G1 X72.359 Y63.818 E10.30622
G1 X72.359 Y64.195 E10.31872
G1 X73.695 Y62.859 E10.38146
G1 X74.071 Y62.859 E10.39395
G1 X72.359 Y64.571 E10.47437
G1 X72.359 Y64.948 E10.48687
G1 X74.448 Y62.859 E10.58496
G1 X74.824 Y62.859 E10.59746
G1 X72.359 Y65.324 E10.71323
G1 X72.359 Y65.701 E10.72573
G1 X75.201 Y62.859 E10.85917
G1 X75.577 Y62.859 E10.87167
G1 X72.359 Y66.077 E11.02280
G1 X72.359 Y66.453 E11.03530
G1 X75.953 Y62.859 E11.20410
G1 X76.330 Y62.859 E11.21659
G1 X72.359 Y66.830 E11.40307
G1 X72.359 Y67.206 E11.41557
G1 X76.706 Y62.859 E11.61972
G1 X77.083 Y62.859 E11.63222
G1 X72.359 Y67.583 E11.85405
G1 X72.359 Y67.959 E11.86655
G1 X77.459 Y62.859 E12.10606
G1 X77.836 Y62.859 E12.11856
G1 X72.359 Y68.336 E12.37574
G1 X72.359 Y68.712 E12.38824
G1 X78.212 Y62.859 E12.66310
G1 X78.589 Y62.859 E12.67560
G1 X72.359 Y69.089 E12.96814
G1 X72.359 Y69.465 E12.98064
G1 X78.965 Y62.859 E13.29085
G1 X79.342 Y62.859 E13.30335
G1 X72.359 Y69.842 E13.63124
G1 X72.359 Y70.218 E13.64374
G1 X79.718 Y62.859 E13.98931
G1 X80.095 Y62.859 E14.00181
G1 X72.359 Y70.595 E14.36505
G1 X72.359 Y70.971 E14.37755
G1 X80.471 Y62.859 E14.75847
G1 X80.848 Y62.859 E14.77097
G1 X72.359 Y71.348 E15.16957
G1 X72.359 Y71.724 E15.18207
G1 X81.224 Y62.859 E15.59835
G1 X81.600 Y62.859 E15.61085
G1 X72.359 Y72.100 E16.04480
G1 X72.359 Y72.477 E16.05730
G1 X81.977 Y62.859 E16.50893
G1 X82.353 Y62.859 E16.52143
G1 X72.359 Y72.853 E16.99073
G1 X72.359 Y73.230 E17.00323
G1 X82.730 Y62.859 E17.49021
G1 X83.106 Y62.859 E17.50271
G1 X72.359 Y73.606 E18.00737
G1 X72.359 Y73.983 E18.01987
G1 X83.483 Y62.859 E18.54221
G1 X83.859 Y62.859 E18.55471
G1 X72.359 Y74.359 E19.09472
G1 X72.359 Y74.736 E19.10722
G1 X84.236 Y62.859 E19.66491
G1 X84.612 Y62.859 E19.67741
G1 X72.359 Y75.112 E20.25278
G1 X72.359 Y75.489 E20.26528
G1 X84.989 Y62.859 E20.85832
G1 X85.365 Y62.859 E20.87082
G1 X72.359 Y75.865 E21.48154
G1 X72.359 Y76.242 E21.49404
G1 X85.742 Y62.859 E22.12244
G1 X86.118 Y62.859 E22.13494
G1 X72.359 Y76.618 E22.78101
G1 X72.359 Y76.994 E22.79351
G1 X86.494 Y62.859 E23.45726
G1 X86.871 Y62.859 E23.46976
G1 X72.588 Y77.141 E24.14041
G1 X72.964 Y77.141 E24.15291
G1 X87.247 Y62.859 E24.82356
G1 X87.624 Y62.859 E24.83606
G1 X73.341 Y77.141 E25.50671
G1 X73.717 Y77.141 E25.51921
G1 X88.000 Y62.859 E26.18987
G1 X88.377 Y62.859 E26.20237
G1 X74.094 Y77.141 E26.87302
G1 X74.470 Y77.141 E26.88552
G1 X88.753 Y62.859 E27.55617
G1 X89.130 Y62.859 E27.56867
G1 X74.847 Y77.141 E28.23932
G1 X75.223 Y77.141 E28.25182
G1 X89.506 Y62.859 E28.92247
G1 X89.883 Y62.859 E28.93497
G1 X75.600 Y77.141 E29.60562
G1 X75.976 Y77.141 E29.61812
G1 X90.259 Y62.859 E30.28878
G1 X90.636 Y62.859 E30.30128
G1 X76.353 Y77.141 E30.97193
G1 X76.729 Y77.141 E30.98443
G1 X91.012 Y62.859 E31.65508
G1 X91.389 Y62.859 E31.66758
G1 X77.106 Y77.141 E32.33823
G1 X77.482 Y77.141 E32.35073
G1 X91.765 Y62.859 E33.02138
G1 X92.141 Y62.859 E33.03388
G1 X77.859 Y77.141 E33.70453
G1 X78.235 Y77.141 E33.71703
G1 X92.518 Y62.859 E34.38769
G1 X92.894 Y62.859 E34.40019
G1 X78.611 Y77.141 E35.07084
G1 X78.988 Y77.141 E35.08334
G1 X93.271 Y62.859 E35.75399
G1 X93.647 Y62.859 E35.76649
G1 X79.364 Y77.141 E36.43714
G1 X79.741 Y77.141 E36.44964
G1 X94.024 Y62.859 E37.12029
G1 X94.400 Y62.859 E37.13279
G1 X80.117 Y77.141 E37.80344
G1 X80.494 Y77.141 E37.81594
G1 X94.777 Y62.859 E38.48660
G1 X95.153 Y62.859 E38.49910
G1 X80.870 Y77.141 E39.16975
G1 X81.247 Y77.141 E39.18225
G1 X95.530 Y62.859 E39.85290
G1 X95.906 Y62.859 E39.86540
G1 X81.623 Y77.141 E40.53605
G1 X82.000 Y77.141 E40.54855
G1 X96.283 Y62.859 E41.21920
G1 X96.659 Y62.859 E41.23170
G1 X82.376 Y77.141 E41.90235
G1 X82.753 Y77.141 E41.91485
G1 X97.036 Y62.859 E42.58551
G1 X97.412 Y62.859 E42.59800
G1 X83.129 Y77.141 E43.26866
G1 X83.506 Y77.141 E43.28116
G1 X97.641 Y63.006 E43.94491
G1 X97.641 Y63.382 E43.95741
G1 X83.882 Y77.141 E44.60348
G1 X84.258 Y77.141 E44.61598
G1 X97.641 Y63.758 E45.24438
