; generated by Slic3r 1.3.1-dev (Build (Unknown revision)) on 2020-02-19 at 10:52:35

; external perimeters extrusion width = 0.55mm (3.65mm^3/s)
; perimeters extrusion width = 0.70mm (5.26mm^3/s)
; infill extrusion width = 0.62mm (4.66mm^3/s)
; solid infill extrusion width = 0.70mm (3.94mm^3/s)
; top infill extrusion width = 0.70mm (3.94mm^3/s)

M107
G92 E0
M104 S200 ; set temperature
G28 ; home all axes
G1 Z5 F5000 ; lift nozzle

; Filament gcode

M109 S200 ; set temperature and wait for it to be reached
G21 ; set units to millimeters
G90 ; use absolute coordinates
M82 ; use absolute distances for extrusion
G92 E0
G1 Z0.300 F7800.000
G1 E-2.00000 F2400.00000
G92 E0
G1 X85.004 Y91.787 F7800.000
G1 E2.00000 F2400.00000
G1 F1800.000
G1 X86.753 Y90.328 E2.05178
G1 X90.000 Y89.464 E2.12815
G1 X110.000 Y89.464 E2.58280
G1 X112.243 Y89.861 E2.63458
G1 X114.213 Y91.004 E2.68636
G1 X115.672 Y92.753 E2.73814
G1 X116.536 Y96.000 E2.81451
G1 X116.536 Y104.000 E2.99637
G1 X116.139 Y106.243 E3.04815
G1 X114.996 Y108.213 E3.09993
G1 X113.247 Y109.672 E3.15171
G1 X110.000 Y110.536 E3.22808
G1 X90.000 Y110.536 E3.68272
G1 X87.757 Y110.139 E3.73450
G1 X85.787 Y108.996 E3.78628
G1 X84.328 Y107.247 E3.83806
G1 X83.464 Y104.000 E3.91443
G1 X83.464 Y96.000 E4.09629
G1 X83.861 Y93.757 E4.14807
G1 X84.966 Y91.851 E4.19815
G1 E2.19815 F2400.00000
G92 E0
G1 X109.164 Y103.164 F7800.000
G1 E2.00000 F2400.00000
G1 F1800.000
G1 X90.836 Y103.164 E2.41666
G1 X90.836 Y96.836 E2.56052
G1 X109.164 Y96.836 E2.97718
G1 X109.164 Y103.089 E3.11934
G1 X109.700 Y103.700 F7800.000
G1 F1800.000
G1 X90.300 Y103.700 E3.56035
G1 X90.300 Y96.300 E3.72857
G1 X109.700 Y96.300 E4.16958
G1 X109.700 Y103.625 E4.33610
G1 X109.204 Y103.639 F7800.000
G1 X108.420 Y102.837 F7800.000
G1 F1800.000
G1 X108.837 Y102.420 E4.34983
G1 X108.837 Y101.644 E4.36792
G1 X107.644 Y102.837 E4.40723
G1 X106.868 Y102.837 E4.42532
G1 X108.837 Y100.868 E4.49022
G1 X108.837 Y100.091 E4.50830
G1 X106.091 Y102.837 E4.59878
G1 X105.315 Y102.837 E4.61687
G1 X108.837 Y99.315 E4.73293
G1 X108.837 Y98.538 E4.75102
G1 X104.538 Y102.837 E4.89266
G1 X103.762 Y102.837 E4.91075
G1 X108.837 Y97.762 E5.07797
G1 X108.837 Y97.163 E5.09193
G1 X108.660 Y97.163 E5.09606
G1 X102.986 Y102.837 E5.28303
G1 X102.209 Y102.837 E5.30112
G1 X107.884 Y97.163 E5.48808
G1 X107.107 Y97.163 E5.50617
G1 X101.433 Y102.837 E5.69314
G1 X100.657 Y102.837 E5.71123
G1 X106.331 Y97.163 E5.89819
G1 X105.554 Y97.163 E5.91628
G1 X99.880 Y102.837 E6.10325
G1 X99.104 Y102.837 E6.12134
G1 X104.778 Y97.163 E6.30830
G1 X104.002 Y97.163 E6.32639
G1 X98.327 Y102.837 E6.51336
G1 X97.551 Y102.837 E6.53145
G1 X103.225 Y97.163 E6.71841
G1 X102.449 Y97.163 E6.73650
G1 X96.775 Y102.837 E6.92347
G1 X95.998 Y102.837 E6.94156
G1 X101.673 Y97.163 E7.12852
G1 X100.896 Y97.163 E7.14661
G1 X95.222 Y102.837 E7.33358
G1 X94.446 Y102.837 E7.35167
G1 X100.120 Y97.163 E7.53863
G1 X99.343 Y97.163 E7.55672
G1 X93.669 Y102.837 E7.74369
G1 X92.893 Y102.837 E7.76178
G1 X98.567 Y97.163 E7.94874
G1 X97.791 Y97.163 E7.96683
G1 X92.116 Y102.837 E8.15380
G1 X91.340 Y102.837 E8.17189
G1 X97.014 Y97.163 E8.35885
G1 X96.238 Y97.163 E8.37694
G1 X91.163 Y102.238 E8.54416
G1 X91.163 Y101.462 E8.56225
G1 X95.462 Y97.163 E8.70390
G1 X94.685 Y97.163 E8.72198
G1 X91.163 Y100.685 E8.83804
G1 X91.163 Y99.909 E8.85613
G1 X93.909 Y97.163 E8.94661
G1 X93.132 Y97.163 E8.96470
G1 X91.163 Y99.132 E9.02960
G1 X91.163 Y98.356 E9.04769
G1 X92.356 Y97.163 E9.08700
G1 X91.580 Y97.163 E9.10509
G1 X91.163 Y97.580 E9.11882
G1 Z0.500 F7800.000
G1 X109.143 Y103.143 F7800.000
G1 F2400.000
G1 X90.857 Y103.143 E9.45878
G1 X90.857 Y96.857 E9.57564
G1 X109.143 Y96.857 E9.91560
G1 X109.143 Y103.068 E10.03107
G1 X109.725 Y103.725 F7800.000
G1 F2160.000
G1 X90.275 Y103.725 E10.31013
G1 X90.275 Y96.275 E10.41702
G1 X109.725 Y96.275 E10.69608
G1 X109.725 Y103.650 E10.80189
G1 X109.229 Y103.664 F7800.000
G1 X108.741 Y97.770 F7800.000
G1 F1800.000
G1 X108.230 Y97.259 E10.81569
G1 X107.276 Y97.259 E10.83390
G1 X108.741 Y98.724 E10.87345
G1 X108.741 Y99.678 E10.89166
G1 X106.322 Y97.259 E10.95697
G1 X105.368 Y97.259 E10.97518
G1 X108.741 Y100.632 E11.06624
G1 X108.741 Y101.586 E11.08445
G1 X104.414 Y97.259 E11.20127
G1 X103.460 Y97.259 E11.21948
G1 X108.741 Y102.540 E11.36205
G1 X108.741 Y102.741 E11.36589
G1 X107.989 Y102.741 E11.38026
G1 X102.506 Y97.259 E11.52826
G1 X101.552 Y97.259 E11.54647
G1 X107.035 Y102.741 E11.69448
G1 X106.081 Y102.741 E11.71269
G1 X100.598 Y97.259 E11.86069
G1 X99.644 Y97.259 E11.87890
G1 X105.127 Y102.741 E12.02690
G1 X104.172 Y102.741 E12.04511
G1 X98.690 Y97.259 E12.19312
G1 X97.736 Y97.259 E12.21133
G1 X103.218 Y102.741 E12.35933
G1 X102.264 Y102.741 E12.37754
G1 X96.782 Y97.259 E12.52555
G1 X95.828 Y97.259 E12.54376
G1 X101.310 Y102.741 E12.69176
G1 X100.356 Y102.741 E12.70997
G1 X94.873 Y97.259 E12.85797
G1 X93.919 Y97.259 E12.87619
G1 X99.402 Y102.741 E13.02419
G1 X98.448 Y102.741 E13.04240
G1 X92.965 Y97.259 E13.19040
G1 X92.011 Y97.259 E13.20861
G1 X97.494 Y102.741 E13.35662
G1 X96.540 Y102.741 E13.37483
G1 X91.259 Y97.460 E13.51740
G1 X91.259 Y98.414 E13.53561
G1 X95.586 Y102.741 E13.65242
G1 X94.632 Y102.741 E13.67063
G1 X91.259 Y99.368 E13.76170
G1 X91.259 Y100.322 E13.77991
G1 X93.678 Y102.741 E13.84521
G1 X92.724 Y102.741 E13.86343
G1 X91.259 Y101.276 E13.90298
G1 X91.259 Y102.230 E13.92119
G1 X91.770 Y102.741 E13.93499
G1 Z0.700 F7800.000
G1 X109.143 Y103.143 F7800.000
G1 F2400.000
G1 X90.857 Y103.143 E14.27495
G1 X90.857 Y96.857 E14.39181
G1 X109.143 Y96.857 E14.73177
G1 X109.143 Y103.068 E14.84724
G1 X109.725 Y103.725 F7800.000
G1 F2160.000
G1 X90.275 Y103.725 E15.12630
G1 X90.275 Y96.275 E15.23319
G1 X109.725 Y96.275 E15.51225
G1 X109.725 Y103.650 E15.61806
G1 X109.229 Y103.664 F7800.000
G1 X108.230 Y102.741 F7800.000
G1 F1800.000
G1 X108.741 Y102.230 E15.63186
G1 X108.741 Y101.276 E15.65007
G1 X107.276 Y102.741 E15.68962
G1 X106.322 Y102.741 E15.70783
G1 X108.741 Y100.322 E15.77314
G1 X108.741 Y99.368 E15.79135
G1 X105.368 Y102.741 E15.88241
G1 X104.414 Y102.741 E15.90062
G1 X108.741 Y98.414 E16.01744
G1 X108.741 Y97.460 E16.03565
G1 X103.460 Y102.741 E16.17822
G1 X102.506 Y102.741 E16.19643
G1 X107.989 Y97.259 E16.34443
G1 X107.035 Y97.259 E16.36264
G1 X101.552 Y102.741 E16.51065
G1 X100.598 Y102.741 E16.52886
G1 X106.081 Y97.259 E16.67686
G1 X105.127 Y97.259 E16.69507
G1 X99.644 Y102.741 E16.84308
G1 X98.690 Y102.741 E16.86129
G1 X104.172 Y97.259 E17.00929
G1 X103.218 Y97.259 E17.02750
G1 X97.736 Y102.741 E17.17550
G1 X96.782 Y102.741 E17.19371
G1 X102.264 Y97.259 E17.34172
G1 X101.310 Y97.259 E17.35993
G1 X95.828 Y102.741 E17.50793
G1 X94.873 Y102.741 E17.52614
G1 X100.356 Y97.259 E17.67415
G1 X99.402 Y97.259 E17.69236
G1 X93.919 Y102.741 E17.84036
G1 X92.965 Y102.741 E17.85857
G1 X98.448 Y97.259 E18.00657
G1 X97.494 Y97.259 E18.02478
G1 X92.011 Y102.741 E18.17279
G1 X91.259 Y102.741 E18.18716
G1 X91.259 Y102.540 E18.19100
G1 X96.540 Y97.259 E18.33357
G1 X95.586 Y97.259 E18.35178
G1 X91.259 Y101.586 E18.46859
G1 X91.259 Y100.632 E18.48680
G1 X94.632 Y97.259 E18.57787
G1 X93.678 Y97.259 E18.59608
G1 X91.259 Y99.678 E18.66139
G1 X91.259 Y98.724 E18.67960
G1 X92.724 Y97.259 E18.71915
G1 X91.770 Y97.259 E18.73736
G1 X91.259 Y97.770 E18.75116
M106 S244.8
G1 Z0.900 F7800.000
G1 X109.143 Y103.143 F7800.000
G1 F2400.000
G1 X90.857 Y103.143 E19.09112
G1 X90.857 Y96.857 E19.20798
G1 X109.143 Y96.857 E19.54795
G1 X109.143 Y103.068 E19.66341
G1 X109.725 Y103.725 F7800.000
G1 F2160.000
G1 X90.275 Y103.725 E19.94247
G1 X90.275 Y96.275 E20.04936
G1 X109.725 Y96.275 E20.32842
G1 X109.725 Y103.650 E20.43423
G1 X109.229 Y103.664 F7800.000
G1 X108.741 Y97.770 F7800.000
G1 F1800.000
G1 X108.230 Y97.259 E20.44803
G1 X107.276 Y97.259 E20.46624
G1 X108.741 Y98.724 E20.50579
G1 X108.741 Y99.678 E20.52400
G1 X106.322 Y97.259 E20.58931
G1 X105.368 Y97.259 E20.60752
G1 X108.741 Y100.632 E20.69858
G1 X108.741 Y101.586 E20.71679
G1 X104.414 Y97.259 E20.83361
G1 X103.460 Y97.259 E20.85182
G1 X108.741 Y102.540 E20.99439
G1 X108.741 Y102.741 E20.99823
G1 X107.989 Y102.741 E21.01260
G1 X102.506 Y97.259 E21.16060
G1 X101.552 Y97.259 E21.17881
G1 X107.035 Y102.741 E21.32682
G1 X106.081 Y102.741 E21.34503
G1 X100.598 Y97.259 E21.49303
G1 X99.644 Y97.259 E21.51124
G1 X105.127 Y102.741 E21.65925
G1 X104.172 Y102.741 E21.67746
G1 X98.690 Y97.259 E21.82546
G1 X97.736 Y97.259 E21.84367
G1 X103.218 Y102.741 E21.99167
G1 X102.264 Y102.741 E22.00988
G1 X96.782 Y97.259 E22.15789
G1 X95.828 Y97.259 E22.17610
G1 X101.310 Y102.741 E22.32410
G1 X100.356 Y102.741 E22.34231
G1 X94.873 Y97.259 E22.49032
G1 X93.919 Y97.259 E22.50853
G1 X99.402 Y102.741 E22.65653
G1 X98.448 Y102.741 E22.67474
G1 X92.965 Y97.259 E22.82274
G1 X92.011 Y97.259 E22.84095
G1 X97.494 Y102.741 E22.98896
G1 X96.540 Y102.741 E23.00717
G1 X91.259 Y97.460 E23.14974
G1 X91.259 Y98.414 E23.16795
G1 X95.586 Y102.741 E23.28476
G1 X94.632 Y102.741 E23.30298
G1 X91.259 Y99.368 E23.39404
G1 X91.259 Y100.322 E23.41225
G1 X93.678 Y102.741 E23.47756
G1 X92.724 Y102.741 E23.49577
G1 X91.259 Y101.276 E23.53532
G1 X91.259 Y102.230 E23.55353
G1 X91.770 Y102.741 E23.56733
M106 S255
G1 Z1.100 F7800.000
G1 X109.143 Y103.143 F7800.000
G1 F1695.249
G1 X90.857 Y103.143 E23.90729
G1 X90.857 Y96.857 E24.02415
G1 X109.143 Y96.857 E24.36412
G1 X109.143 Y103.068 E24.47959
G1 X109.725 Y103.725 F7800.000
G1 F2160.000
G1 X90.275 Y103.725 E24.75864
G1 X90.275 Y96.275 E24.86553
G1 X109.725 Y96.275 E25.14459
G1 X109.725 Y103.650 E25.25040
G1 X109.229 Y103.664 F7800.000
G1 X106.401 Y102.853 F7800.000
G1 F1695.249
G1 X107.929 Y97.147 E25.34767
G1 X92.977 Y102.764 F7800.000
G1 F1695.249
G1 X91.236 Y101.023 E25.38823
G1 X91.236 Y97.236 E25.45060
G1 X108.282 Y97.236 E25.73136
G1 X108.282 Y102.282 E25.81447
G1 X92.495 Y102.282 E26.07448
G1 Z1.300 F7800.000
G1 X109.143 Y103.143 F7800.000
G1 F1698.083
G1 X90.857 Y103.143 E26.41445
G1 X90.857 Y96.857 E26.53131
G1 X109.143 Y96.857 E26.87127
G1 X109.143 Y103.068 E26.98674
G1 X109.725 Y103.725 F7800.000
G1 F2160.000
G1 X90.275 Y103.725 E27.26580
G1 X90.275 Y96.275 E27.37269
G1 X109.725 Y96.275 E27.65174
G1 X109.725 Y103.650 E27.75756
G1 X109.229 Y103.664 F7800.000
G1 X106.608 Y102.853 F7800.000
G1 F1698.083
G1 X108.136 Y97.147 E27.85483
G1 X92.694 Y102.764 F7800.000
G1 F1698.083
G1 X91.236 Y101.306 E27.88879
G1 X91.236 Y97.236 E27.95583
G1 X108.282 Y97.236 E28.23658
G1 X108.282 Y102.282 E28.31970
G1 X92.212 Y102.282 E28.58437
M106 S244.8
G1 Z1.500 F7800.000
G1 X109.143 Y103.143 F7800.000
G1 F2400.000
G1 X90.857 Y103.143 E28.92433
G1 X90.857 Y96.857 E29.04119
G1 X109.143 Y96.857 E29.38116
G1 X109.143 Y103.068 E29.49663
G1 X109.725 Y103.725 F7800.000
G1 F2160.000
G1 X90.275 Y103.725 E29.77568
G1 X90.275 Y96.275 E29.88257
G1 X109.725 Y96.275 E30.16163
G1 X109.725 Y103.650 E30.26744
G1 X109.229 Y103.664 F7800.000
G1 X108.305 Y102.774 F7800.000
M106 S255

G1 F2400.000
G1 X108.774 Y102.305 E30.28660
G1 X108.774 Y101.513 E30.30943
G1 X107.513 Y102.774 E30.36087
G1 X106.722 Y102.774 E30.38370
G1 X108.774 Y100.722 E30.46743
G1 X108.774 Y99.931 E30.49026
G1 X105.931 Y102.774 E30.60628
G1 X105.139 Y102.774 E30.62911
G1 X108.774 Y99.139 E30.77741
G1 X108.774 Y98.348 E30.80024
G1 X104.348 Y102.774 E30.98083
G1 X103.557 Y102.774 E31.00366
G1 X108.774 Y97.557 E31.21653
G1 X108.774 Y97.226 E31.22607
G1 X108.313 Y97.226 E31.23936
G1 X102.765 Y102.774 E31.46573
G1 X101.974 Y102.774 E31.48856
G1 X107.522 Y97.226 E31.71492
G1 X106.731 Y97.226 E31.73775
G1 X101.183 Y102.774 E31.96412
G1 X100.391 Y102.774 E31.98694
G1 X105.939 Y97.226 E32.21331
G1 X105.148 Y97.226 E32.23614
G1 X99.600 Y102.774 E32.46250
G1 X98.809 Y102.774 E32.48533
G1 X104.357 Y97.226 E32.71170
G1 X103.565 Y97.226 E32.73453
G1 X98.017 Y102.774 E32.96089
G1 X97.226 Y102.774 E32.98372
G1 X102.774 Y97.226 E33.21009
G1 X101.983 Y97.226 E33.23292
G1 X96.435 Y102.774 E33.45928
G1 X95.643 Y102.774 E33.48211
G1 X101.191 Y97.226 E33.70848
G1 X100.400 Y97.226 E33.73130
G1 X94.852 Y102.774 E33.95767
G1 X94.061 Y102.774 E33.98050
G1 X99.609 Y97.226 E34.20686
G1 X98.817 Y97.226 E34.22969
G1 X93.269 Y102.774 E34.45606
G1 X92.478 Y102.774 E34.47889
G1 X98.026 Y97.226 E34.70525
G1 X97.235 Y97.226 E34.72808
G1 X91.687 Y102.774 E34.95445
G1 X91.226 Y102.774 E34.96774
G1 X91.226 Y102.443 E34.97728
G1 X96.443 Y97.226 E35.19015
G1 X95.652 Y97.226 E35.21298
G1 X91.226 Y101.652 E35.39357
G1 X91.226 Y100.861 E35.41640
G1 X94.861 Y97.226 E35.56470
G1 X94.069 Y97.226 E35.58753
G1 X91.226 Y100.069 E35.70355
G1 X91.226 Y99.278 E35.72638
G1 X93.278 Y97.226 E35.81011
G1 X92.487 Y97.226 E35.83294
G1 X91.226 Y98.487 E35.88439
G1 X91.226 Y97.696 E35.90722
G1 X91.696 Y97.226 E35.92638
M106 S244.8

G1 Z1.700 F7800.000
G1 X109.143 Y103.143 F7800.000
G1 F2400.000
G1 X90.857 Y103.143 E36.26634
G1 X90.857 Y96.857 E36.38320
G1 X109.143 Y96.857 E36.72317
G1 X109.143 Y103.068 E36.83863
G1 X109.725 Y103.725 F7800.000
G1 F2160.000
G1 X90.275 Y103.725 E37.11769
G1 X90.275 Y96.275 E37.22458
G1 X109.725 Y96.275 E37.50364
G1 X109.725 Y103.650 E37.60945
G1 X109.229 Y103.664 F7800.000
G1 X108.741 Y97.770 F7800.000
G1 F1800.000
G1 X108.230 Y97.259 E37.62325
G1 X107.276 Y97.259 E37.64146
G1 X108.741 Y98.724 E37.68101
G1 X108.741 Y99.678 E37.69923
G1 X106.322 Y97.259 E37.76453
G1 X105.368 Y97.259 E37.78274
G1 X108.741 Y100.632 E37.87380
G1 X108.741 Y101.586 E37.89202
G1 X104.414 Y97.259 E38.00883
G1 X103.460 Y97.259 E38.02704
G1 X108.741 Y102.540 E38.16961
G1 X108.741 Y102.741 E38.17345
G1 X107.989 Y102.741 E38.18782
G1 X102.506 Y97.259 E38.33582
G1 X101.552 Y97.259 E38.35403
G1 X107.035 Y102.741 E38.50204
G1 X106.081 Y102.741 E38.52025
G1 X100.598 Y97.259 E38.66825
G1 X99.644 Y97.259 E38.68646
G1 X105.127 Y102.741 E38.83447
G1 X104.172 Y102.741 E38.85268
G1 X98.690 Y97.259 E39.00068
G1 X97.736 Y97.259 E39.01889
G1 X103.218 Y102.741 E39.16689
G1 X102.264 Y102.741 E39.18510
G1 X96.782 Y97.259 E39.33311
G1 X95.828 Y97.259 E39.35132
G1 X101.310 Y102.741 E39.49932
G1 X100.356 Y102.741 E39.51753
G1 X94.873 Y97.259 E39.66554
G1 X93.919 Y97.259 E39.68375
G1 X99.402 Y102.741 E39.83175
G1 X98.448 Y102.741 E39.84996
G1 X92.965 Y97.259 E39.99796
G1 X92.011 Y97.259 E40.01618
G1 X97.494 Y102.741 E40.16418
G1 X96.540 Y102.741 E40.18239
G1 X91.259 Y97.460 E40.32496
G1 X91.259 Y98.414 E40.34317
G1 X95.586 Y102.741 E40.45998
G1 X94.632 Y102.741 E40.47820
G1 X91.259 Y99.368 E40.56926
G1 X91.259 Y100.322 E40.58747
G1 X93.678 Y102.741 E40.65278
G1 X92.724 Y102.741 E40.67099
G1 X91.259 Y101.276 E40.71054
G1 X91.259 Y102.230 E40.72875
G1 X91.770 Y102.741 E40.74255
G1 Z1.900 F7800.000
G1 X109.143 Y103.143 F7800.000
G1 F2400.000
G1 X90.857 Y103.143 E41.08251
G1 X90.857 Y96.857 E41.19937
G1 X109.143 Y96.857 E41.53934
G1 X109.143 Y103.068 E41.65481
G1 X109.725 Y103.725 F7800.000
G1 F2160.000
G1 X90.275 Y103.725 E41.93386
G1 X90.275 Y96.275 E42.04075
G1 X109.725 Y96.275 E42.31981
G1 X109.725 Y103.650 E42.42562
G1 X109.229 Y103.664 F7800.000
G1 X108.230 Y102.741 F7800.000
G1 F1800.000
G1 X108.741 Y102.230 E42.43942
G1 X108.741 Y101.276 E42.45763
G1 X107.276 Y102.741 E42.49719
G1 X106.322 Y102.741 E42.51540
G1 X108.741 Y100.322 E42.58070
G1 X108.741 Y99.368 E42.59891
G1 X105.368 Y102.741 E42.68998
G1 X104.414 Y102.741 E42.70819
G1 X108.741 Y98.414 E42.82500
G1 X108.741 Y97.460 E42.84321
G1 X103.460 Y102.741 E42.98578
G1 X102.506 Y102.741 E43.00399
G1 X107.989 Y97.259 E43.15199
G1 X107.035 Y97.259 E43.17020
G1 X101.552 Y102.741 E43.31821
G1 X100.598 Y102.741 E43.33642
G1 X106.081 Y97.259 E43.48442
G1 X105.127 Y97.259 E43.50263
G1 X99.644 Y102.741 E43.65064
G1 X98.690 Y102.741 E43.66885
G1 X104.172 Y97.259 E43.81685
G1 X103.218 Y97.259 E43.83506
G1 X97.736 Y102.741 E43.98306
G1 X96.782 Y102.741 E44.00128
G1 X102.264 Y97.259 E44.14928
G1 X101.310 Y97.259 E44.16749
G1 X95.828 Y102.741 E44.31549
G1 X94.873 Y102.741 E44.33370
G1 X100.356 Y97.259 E44.48171
G1 X99.402 Y97.259 E44.49992
G1 X93.919 Y102.741 E44.64792
G1 X92.965 Y102.741 E44.66613
G1 X98.448 Y97.259 E44.81414
G1 X97.494 Y97.259 E44.83235
G1 X92.011 Y102.741 E44.98035
