; generated by Slic3r 1.3.1-dev (Build (Unknown revision)) on 2020-02-20 at 13:51:17

; external perimeters extrusion width = 0.44mm (2.86mm^3/s)
; perimeters extrusion width = 0.56mm (4.14mm^3/s)
; infill extrusion width = 0.50mm (3.66mm^3/s)
; solid infill extrusion width = 0.56mm (3.10mm^3/s)
; top infill extrusion width = 0.56mm (3.10mm^3/s)

M107
G92 E0
;D3D:START:START
T0
M104 S215 T0

G21
G90
M107
T0
G28
G29
M109 T0 S215 T0
G0 F3000
M107
T0
G92 E0
G0 X0 Y149 Z0.1 F3600
G1 Y49 E6.5 F1200
G0 Z1
G92 E0
; Filament gcode

G21 ; set units to millimeters
G90 ; use absolute coordinates
M82 ; use absolute distances for extrusion
G92 E0
G1 Z0.200 F7800.000
G1 E-2.00000 F2400.00000
G92 E0
G1 X73.054 Y69.299 F7800.000
G1 E2.00000 F2400.00000
G1 F1800.000
G1 X72.148 Y68.776 E2.01402
G1 X72.433 Y68.281 E2.02168
G1 X85.526 Y75.840 E2.22425
G1 X80.990 Y83.696 E2.34581
G1 X67.898 Y76.137 E2.54838
G1 X68.183 Y75.642 E2.55604
G1 X69.090 Y76.165 E2.57006
G1 X73.024 Y69.351 E2.67549
G1 X72.812 Y69.364 F7800.000
G1 F1800.000
G1 X71.906 Y68.841 E2.68951
G1 X72.369 Y68.039 E2.70192
G1 X85.768 Y75.775 E2.90923
G1 X81.055 Y83.938 E3.03553
G1 X67.656 Y76.202 E3.24285
G1 X68.119 Y75.400 E3.25525
G1 X69.025 Y75.923 E3.26928
G1 X72.782 Y69.416 E3.36996
G1 X72.570 Y69.429 F7800.000
G1 F1800.000
G1 X71.664 Y68.905 E3.38398
G1 X72.304 Y67.797 E3.40113
G1 X86.010 Y75.710 E3.61320
G1 X81.120 Y84.180 E3.74424
G1 X67.414 Y76.267 E3.95630
G1 X68.054 Y75.158 E3.97345
G1 X68.960 Y75.681 E3.98748
G1 X72.540 Y69.481 E4.08341
G1 X72.787 Y69.092 F7800.000
G1 X72.461 Y68.560 F7800.000
G1 F1800.000
G1 X72.536 Y68.485 E4.08484
G1 X72.695 Y68.577 E4.08731
G1 X72.461 Y68.811 E4.09177
G1 X72.620 Y68.903 E4.09424
G1 X72.854 Y68.669 E4.09869
G1 X73.014 Y68.761 E4.10116
G1 X72.779 Y68.995 E4.10562
G1 X72.938 Y69.087 E4.10809
G1 X73.173 Y68.853 E4.11254
G1 X73.332 Y68.945 E4.11501
G1 X73.098 Y69.179 E4.11947
G1 X73.257 Y69.271 E4.12194
G1 X73.491 Y69.037 E4.12639
G1 X73.650 Y69.129 E4.12887
G1 X72.918 Y69.861 E4.14278
G1 X72.575 Y70.455 E4.15201
G1 X73.810 Y69.220 E4.17547
G1 X73.969 Y69.312 E4.17794
G1 X72.232 Y71.049 E4.21096
G1 X71.889 Y71.644 E4.22018
G1 X74.128 Y69.404 E4.26274
G1 X74.287 Y69.496 E4.26521
G1 X71.546 Y72.238 E4.31732
G1 X71.203 Y72.832 E4.32654
G1 X74.447 Y69.588 E4.38819
G1 X74.606 Y69.680 E4.39066
G1 X70.859 Y73.427 E4.46186
G1 X70.516 Y74.021 E4.47109
G1 X74.765 Y69.772 E4.55183
G1 X74.924 Y69.864 E4.55430
G1 X70.173 Y74.615 E4.64460
G1 X69.830 Y75.209 E4.65382
G1 X75.084 Y69.956 E4.75366
G1 X75.243 Y70.048 E4.75614
G1 X69.487 Y75.804 E4.86552
G1 X69.144 Y76.398 E4.87475
G1 X75.402 Y70.140 E4.99368
G1 X75.561 Y70.232 E4.99615
G1 X69.104 Y76.689 E5.11887
G1 X69.264 Y76.780 E5.12134
G1 X75.721 Y70.324 E5.24405
G1 X75.880 Y70.416 E5.24652
G1 X69.423 Y76.872 E5.36924
G1 X69.582 Y76.964 E5.37171
G1 X76.039 Y70.508 E5.49442
G1 X76.198 Y70.599 E5.49689
G1 X69.741 Y77.056 E5.61961
G1 X69.901 Y77.148 E5.62208
G1 X76.357 Y70.691 E5.74479
G1 X76.517 Y70.783 E5.74726
G1 X70.060 Y77.240 E5.86997
G1 X70.219 Y77.332 E5.87245
G1 X76.676 Y70.875 E5.99516
G1 X76.835 Y70.967 E5.99763
G1 X70.378 Y77.424 E6.12034
G1 X70.538 Y77.516 E6.12281
G1 X76.994 Y71.059 E6.24553
G1 X77.154 Y71.151 E6.24800
G1 X70.697 Y77.608 E6.37071
G1 X70.856 Y77.700 E6.37318
G1 X77.313 Y71.243 E6.49590
G1 X77.472 Y71.335 E6.49837
G1 X71.015 Y77.792 E6.62108
G1 X71.175 Y77.884 E6.62355
G1 X77.631 Y71.427 E6.74627
G1 X77.791 Y71.519 E6.74874
G1 X71.334 Y77.976 E6.87145
G1 X71.493 Y78.068 E6.87392
G1 X77.950 Y71.611 E6.99664
G1 X78.109 Y71.703 E6.99911
G1 X71.652 Y78.160 E7.12182
G1 X71.811 Y78.251 E7.12429
G1 X78.268 Y71.795 E7.24700
G1 X78.428 Y71.887 E7.24948
G1 X71.971 Y78.343 E7.37219
G1 X72.130 Y78.435 E7.37466
G1 X78.587 Y71.978 E7.49737
G1 X78.746 Y72.070 E7.49984
G1 X72.289 Y78.527 E7.62256
G1 X72.448 Y78.619 E7.62503
G1 X78.905 Y72.162 E7.74774
G1 X79.064 Y72.254 E7.75021
G1 X72.608 Y78.711 E7.87293
G1 X72.767 Y78.803 E7.87540
G1 X79.224 Y72.346 E7.99811
G1 X79.383 Y72.438 E8.00058
G1 X72.926 Y78.895 E8.12330
G1 X73.085 Y78.987 E8.12577
G1 X79.542 Y72.530 E8.24848
G1 X79.701 Y72.622 E8.25095
G1 X73.245 Y79.079 E8.37366
G1 X73.404 Y79.171 E8.37614
G1 X79.861 Y72.714 E8.49885
G1 X80.020 Y72.806 E8.50132
G1 X73.563 Y79.263 E8.62403
G1 X73.722 Y79.355 E8.62650
G1 X80.179 Y72.898 E8.74922
G1 X80.338 Y72.990 E8.75169
G1 X73.882 Y79.447 E8.87440
G1 X74.041 Y79.539 E8.87687
G1 X80.498 Y73.082 E8.99959
G1 X80.657 Y73.174 E9.00206
G1 X74.200 Y79.630 E9.12477
G1 X74.359 Y79.722 E9.12724
G1 X80.816 Y73.266 E9.24996
G1 X80.975 Y73.358 E9.25243
G1 X74.518 Y79.814 E9.37514
G1 X74.678 Y79.906 E9.37761
G1 X81.135 Y73.449 E9.50032
G1 X81.294 Y73.541 E9.50280
G1 X74.837 Y79.998 E9.62551
G1 X74.996 Y80.090 E9.62798
G1 X81.453 Y73.633 E9.75069
G1 X81.612 Y73.725 E9.75316
G1 X75.155 Y80.182 E9.87588
G1 X75.315 Y80.274 E9.87835
G1 X81.771 Y73.817 E10.00106
G1 X81.931 Y73.909 E10.00353
G1 X75.474 Y80.366 E10.12625
G1 X75.633 Y80.458 E10.12872
G1 X82.090 Y74.001 E10.25143
G1 X82.249 Y74.093 E10.25390
G1 X75.792 Y80.550 E10.37662
G1 X75.952 Y80.642 E10.37909
G1 X82.408 Y74.185 E10.50180
G1 X82.568 Y74.277 E10.50427
G1 X76.111 Y80.734 E10.62698
G1 X76.270 Y80.826 E10.62945
G1 X82.727 Y74.369 E10.75217
G1 X82.886 Y74.461 E10.75464
G1 X76.429 Y80.918 E10.87735
G1 X76.589 Y81.009 E10.87982
G1 X83.045 Y74.553 E11.00254
G1 X83.205 Y74.645 E11.00501
G1 X76.748 Y81.101 E11.12772
G1 X76.907 Y81.193 E11.13019
G1 X83.364 Y74.737 E11.25291
G1 X83.523 Y74.828 E11.25538
G1 X77.066 Y81.285 E11.37809
G1 X77.225 Y81.377 E11.38056
G1 X83.682 Y74.920 E11.50327
G1 X83.842 Y75.012 E11.50575
G1 X77.385 Y81.469 E11.62846
G1 X77.544 Y81.561 E11.63093
G1 X84.001 Y75.104 E11.75364
G1 X84.160 Y75.196 E11.75611
G1 X77.703 Y81.653 E11.87883
G1 X77.862 Y81.745 E11.88130
G1 X84.319 Y75.288 E12.00401
G1 X84.478 Y75.380 E12.00648
G1 X78.022 Y81.837 E12.12920
G1 X78.181 Y81.929 E12.13167
G1 X84.638 Y75.472 E12.25438
G1 X84.797 Y75.564 E12.25685
G1 X78.340 Y82.021 E12.37956
G1 X78.499 Y82.113 E12.38204
G1 X84.956 Y75.656 E12.50475
G1 X85.115 Y75.748 E12.50722
G1 X78.659 Y82.205 E12.62993
G1 X78.818 Y82.297 E12.63240
G1 X85.275 Y75.840 E12.75512
G1 X85.322 Y75.867 E12.75585
G1 X85.081 Y76.285 E12.76234
G1 X78.977 Y82.388 E12.87833
G1 X79.136 Y82.480 E12.88081
G1 X84.737 Y76.879 E12.98726
G1 X84.394 Y77.474 E12.99648
G1 X79.296 Y82.572 E13.09338
G1 X79.455 Y82.664 E13.09585
G1 X84.051 Y78.068 E13.18321
G1 X83.708 Y78.662 E13.19243
G1 X79.614 Y82.756 E13.27024
G1 X79.773 Y82.848 E13.27272
G1 X83.365 Y79.256 E13.34098
G1 X83.022 Y79.851 E13.35020
G1 X79.932 Y82.940 E13.40892
G1 X80.092 Y83.032 E13.41139
G1 X82.679 Y80.445 E13.46056
G1 X82.336 Y81.039 E13.46978
G1 X80.251 Y83.124 E13.50940
G1 X80.410 Y83.216 E13.51187
G1 X81.993 Y81.633 E13.54195
G1 X81.650 Y82.228 E13.55117
G1 X80.569 Y83.308 E13.57169
G1 X80.729 Y83.400 E13.57417
G1 X81.306 Y82.822 E13.58515
G1 X80.963 Y83.416 E13.59437
G1 X80.888 Y83.492 E13.59580
G1 E11.59580 F2400.00000
G92 E0
G1 X68.945 Y76.597 F7800.000
G1 E2.00000 F2400.00000
G1 F1800.000
G1 X69.180 Y76.362 E2.00445
G1 X69.020 Y76.270 E2.00693
G1 X68.786 Y76.505 E2.01138
G1 X68.627 Y76.413 E2.01385
G1 X68.861 Y76.178 E2.01831
G1 X68.702 Y76.086 E2.02078
G1 X68.468 Y76.321 E2.02523
G1 X68.308 Y76.229 E2.02770
G1 X68.543 Y75.994 E2.03216
G1 X68.383 Y75.903 E2.03463
G1 X68.149 Y76.137 E2.03908
G1 X68.102 Y76.110 E2.03982
G1 X68.211 Y75.921 E2.04274
G1 X68.308 Y75.978 E2.04426
M106 S255
G1 Z0.400 F7800.000
G1 E0.04426 F2400.00000
G92 E0
G1 X73.607 Y69.801 F7800.000
G1 E2.00000 F2400.00000
G1 F1800.000
G1 X84.529 Y76.107 E2.49344
G1 X80.723 Y82.699 E2.79125
G1 X69.801 Y76.393 E3.28469
G1 X73.577 Y69.853 E3.58016
G1 X73.418 Y69.095 F7800.000
G1 F2400.000
G1 X85.235 Y75.918 E4.11406
G1 X80.912 Y83.405 E4.45234
G1 X69.095 Y76.582 E4.98624
G1 X73.388 Y69.147 E5.32217
G1 X72.720 Y69.388 F7800.000
G1 F2160.000
G1 X71.733 Y68.818 E5.35642
G1 X72.263 Y67.900 E5.38827
G1 X85.860 Y75.750 E5.85998
G1 X81.080 Y84.030 E6.14722
G1 X67.483 Y76.180 E6.61893
G1 X68.013 Y75.262 E6.65078
G1 X69.000 Y75.832 E6.68503
G1 X72.690 Y69.440 E6.90677
G1 X72.938 Y69.053 F7800.000
G1 E4.90677 F2400.00000
G92 E0
G1 X70.398 Y76.094 F7800.000
G1 E2.00000 F2400.00000
G1 F1800.000
G1 X70.618 Y76.314 E2.01221
G1 X72.356 Y77.317 E2.09109
G1 X70.667 Y75.628 E2.18496
G1 X70.936 Y75.163 E2.20610
G1 X74.094 Y78.321 E2.38163
G1 X75.832 Y79.324 E2.46051
G1 X71.204 Y74.697 E2.71771
G1 X71.473 Y74.231 E2.73884
G1 X77.570 Y80.328 E3.07770
G1 X79.308 Y81.331 E3.15658
G1 X71.742 Y73.765 E3.57709
G1 X72.011 Y73.300 E3.59823
G1 X80.706 Y81.994 E4.08151
G1 X80.975 Y81.529 E4.10265
G1 X72.280 Y72.834 E4.58593
G1 X72.549 Y72.368 E4.60707
G1 X81.244 Y81.063 E5.09035
G1 X81.512 Y80.597 E5.11149
G1 X72.818 Y71.903 E5.59477
G1 X73.087 Y71.437 E5.61591
G1 X81.781 Y80.132 E6.09919
G1 X82.050 Y79.666 E6.12033
G1 X73.355 Y70.971 E6.60361
G1 X73.624 Y70.506 E6.62475
G1 X82.319 Y79.200 E7.10803
G1 X82.588 Y78.735 E7.12917
G1 X75.022 Y71.169 E7.54969
G1 X76.760 Y72.173 E7.62857
G1 X82.857 Y78.269 E7.96742
G1 X83.126 Y77.803 E7.98856
G1 X78.499 Y73.176 E8.24575
G1 X80.237 Y74.179 E8.32463
G1 X83.395 Y77.337 E8.50017
G1 X83.663 Y76.872 E8.52130
G1 X81.975 Y75.183 E8.61517
G1 X83.713 Y76.186 E8.69405
G1 X83.932 Y76.406 E8.70626
G1 Z0.600 F7800.000
G1 E6.70626 F2400.00000
G92 E0
G1 X73.607 Y69.801 F7800.000
G1 E2.00000 F2400.00000
G1 F1800.000
G1 X84.529 Y76.107 E2.49344
G1 X80.723 Y82.699 E2.79125
G1 X69.801 Y76.393 E3.28469
G1 X73.577 Y69.853 E3.58016
G1 X73.418 Y69.095 F7800.000
G1 F2400.000
G1 X85.235 Y75.918 E4.11406
G1 X80.912 Y83.405 E4.45234
G1 X69.095 Y76.582 E4.98624
G1 X73.388 Y69.147 E5.32217
G1 X72.720 Y69.388 F7800.000
G1 F2160.000
G1 X71.652 Y68.772 E5.35922
G1 X72.182 Y67.854 E5.39107
G1 X85.860 Y75.750 E5.86559
G1 X81.080 Y84.030 E6.15282
G1 X67.402 Y76.133 E6.62734
G1 X67.932 Y75.215 E6.65919
G1 X69.000 Y75.832 E6.69624
G1 X72.690 Y69.440 E6.91798
G1 X72.939 Y69.053 F7800.000
G1 X73.183 Y69.044 F7800.000
G1 F1200.000
G1 X72.115 Y68.427 E6.97023
G1 E4.97023 F2400.00000
G92 E0
G1 X73.906 Y70.398 F7800.000
G1 E2.00000 F2400.00000
G1 F1800.000
G1 X73.686 Y70.618 E2.01262
G1 X72.649 Y72.414 E2.09689
G1 X74.387 Y70.676 E2.19676
G1 X74.869 Y70.954 E2.21934
G1 X71.612 Y74.210 E2.40644
G1 X70.575 Y76.007 E2.49071
G1 X75.350 Y71.232 E2.76506
G1 X75.831 Y71.509 E2.78764
G1 X70.797 Y76.544 E3.07688
G1 X71.278 Y76.822 E3.09946
G1 X76.313 Y71.787 E3.38870
G1 X76.794 Y72.065 E3.41128
G1 X71.760 Y77.100 E3.70052
G1 X72.241 Y77.378 E3.72310
G1 X77.276 Y72.343 E4.01234
G1 X77.757 Y72.621 E4.03492
G1 X72.722 Y77.656 E4.32416
G1 X73.204 Y77.934 E4.34674
G1 X78.238 Y72.899 E4.63598
G1 X78.720 Y73.177 E4.65856
G1 X73.685 Y78.211 E4.94780
G1 X74.166 Y78.489 E4.97038
G1 X79.201 Y73.455 E5.25961
G1 X79.682 Y73.733 E5.28219
G1 X74.648 Y78.767 E5.57143
G1 X75.129 Y79.045 E5.59401
G1 X80.164 Y74.011 E5.88325
G1 X80.645 Y74.289 E5.90583
G1 X75.611 Y79.323 E6.19507
G1 X76.092 Y79.601 E6.21765
G1 X81.126 Y74.566 E6.50689
G1 X81.608 Y74.844 E6.52947
G1 X76.573 Y79.879 E6.81871
G1 X77.055 Y80.157 E6.84129
G1 X82.089 Y75.122 E7.13053
G1 X82.570 Y75.400 E7.15311
G1 X77.536 Y80.435 E7.44235
G1 X78.017 Y80.713 E7.46493
G1 X83.052 Y75.678 E7.75417
G1 X83.533 Y75.956 E7.77675
G1 X78.499 Y80.991 E8.06598
G1 X78.980 Y81.268 E8.08856
G1 X83.755 Y76.493 E8.36291
G1 X82.718 Y78.290 E8.44718
G1 X79.461 Y81.546 E8.63429
G1 X79.943 Y81.824 E8.65687
G1 X81.681 Y80.086 E8.75673
G1 X80.644 Y81.883 E8.84100
G1 X80.424 Y82.102 E8.85362
G1 E6.85362 F2400.00000
G92 E0
G1 X68.933 Y76.405 F7800.000
G1 E2.00000 F2400.00000
G1 F1200.000
G1 X67.865 Y75.788 E2.05225
G1 Z0.800 F7800.000
G1 E0.05225 F2400.00000
G92 E0
G1 X73.607 Y69.801 F7800.000
G1 E2.00000 F2400.00000
G1 F1800.000
G1 X84.529 Y76.107 E2.49344
G1 X80.723 Y82.699 E2.79125
G1 X69.801 Y76.393 E3.28469
G1 X73.577 Y69.853 E3.58016
G1 X73.418 Y69.095 F7800.000
G1 F2400.000
G1 X85.235 Y75.918 E4.11406
G1 X80.912 Y83.405 E4.45234
G1 X69.095 Y76.582 E4.98624
G1 X73.388 Y69.147 E5.32217
G1 X72.720 Y69.388 F7800.000
G1 F2160.000
G1 X71.572 Y68.725 E5.36202
G1 X72.102 Y67.807 E5.39387
G1 X85.860 Y75.750 E5.87119
G1 X81.080 Y84.030 E6.15843
G1 X67.322 Y76.086 E6.63575
G1 X67.852 Y75.168 E6.66759
G1 X69.000 Y75.832 E6.70745
G1 X72.690 Y69.440 E6.92919
G1 X72.940 Y69.054 F7800.000
G1 X73.183 Y69.044 F7800.000
G1 F1200.000
G1 X72.035 Y68.380 E6.98539
G1 E4.98539 F2400.00000
G92 E0
G1 X70.398 Y76.094 F7800.000
G1 E2.00000 F2400.00000
G1 F1800.000
G1 X70.617 Y76.314 E2.01221
G1 X72.356 Y77.317 E2.09109
G1 X70.667 Y75.628 E2.18496
G1 X70.936 Y75.163 E2.20610
G1 X74.094 Y78.321 E2.38163
G1 X75.832 Y79.324 E2.46051
G1 X71.204 Y74.697 E2.71771
G1 X71.473 Y74.231 E2.73884
G1 X77.570 Y80.328 E3.07770
G1 X79.308 Y81.331 E3.15658
G1 X71.742 Y73.765 E3.57709
G1 X72.011 Y73.300 E3.59823
G1 X80.706 Y81.994 E4.08151
G1 X80.975 Y81.529 E4.10265
G1 X72.280 Y72.834 E4.58593
G1 X72.549 Y72.368 E4.60707
G1 X81.244 Y81.063 E5.09035
G1 X81.512 Y80.597 E5.11149
G1 X72.818 Y71.903 E5.59477
G1 X73.087 Y71.437 E5.61591
G1 X81.781 Y80.132 E6.09919
G1 X82.050 Y79.666 E6.12033
G1 X73.355 Y70.971 E6.60361
G1 X73.624 Y70.506 E6.62475
G1 X82.319 Y79.200 E7.10803
G1 X82.588 Y78.735 E7.12917
G1 X75.022 Y71.169 E7.54969
G1 X76.760 Y72.173 E7.62857
G1 X82.857 Y78.269 E7.96742
G1 X83.126 Y77.803 E7.98856
G1 X78.499 Y73.176 E8.24575
G1 X80.237 Y74.179 E8.32463
G1 X83.395 Y77.337 E8.50016
G1 X83.663 Y76.872 E8.52130
G1 X81.975 Y75.183 E8.61517
G1 X83.713 Y76.186 E8.69405
G1 X83.932 Y76.406 E8.70626
G1 E6.70626 F2400.00000
G92 E0
G1 X68.933 Y76.405 F7800.000
G1 E2.00000 F2400.00000
G1 F1200.000
G1 X67.785 Y75.742 E2.05620
G1 Z1.000 F7800.000
G1 E0.05620 F2400.00000
G92 E0
G1 X73.607 Y69.801 F7800.000
G1 E2.00000 F2400.00000
G1 F1800.000
G1 X84.529 Y76.107 E2.49344
G1 X80.723 Y82.699 E2.79125
G1 X69.801 Y76.393 E3.28469
G1 X73.577 Y69.853 E3.58016
G1 X73.418 Y69.095 F7800.000
G1 F2400.000
G1 X85.235 Y75.918 E4.11406
G1 X80.912 Y83.405 E4.45234
G1 X69.095 Y76.582 E4.98624
G1 X73.388 Y69.147 E5.32217
G1 X72.720 Y69.388 F7800.000
G1 F2160.000
G1 X71.491 Y68.679 E5.36483
G1 X72.021 Y67.761 E5.39667
G1 X85.860 Y75.750 E5.87680
G1 X81.080 Y84.030 E6.16403
G1 X67.241 Y76.040 E6.64415
G1 X67.771 Y75.122 E6.67600
G1 X69.000 Y75.832 E6.71866
G1 X72.690 Y69.440 E6.94039
G1 X72.942 Y69.055 F7800.000
G1 X73.183 Y69.044 F7800.000
G1 F1200.000
G1 X71.954 Y68.334 E7.00055
G1 E5.00055 F2400.00000
G92 E0
G1 X73.906 Y70.398 F7800.000
G1 E2.00000 F2400.00000
G1 F1800.000
G1 X73.686 Y70.618 E2.01262
G1 X72.649 Y72.414 E2.09689
G1 X74.387 Y70.676 E2.19676
G1 X74.869 Y70.954 E2.21934
G1 X71.612 Y74.210 E2.40644
G1 X70.575 Y76.007 E2.49071
G1 X75.350 Y71.232 E2.76506
G1 X75.831 Y71.509 E2.78764
G1 X70.797 Y76.544 E3.07688
G1 X71.278 Y76.822 E3.09946
G1 X76.313 Y71.787 E3.38870
G1 X76.794 Y72.065 E3.41128
G1 X71.760 Y77.100 E3.70052
G1 X72.241 Y77.378 E3.72310
G1 X77.276 Y72.343 E4.01234
G1 X77.757 Y72.621 E4.03492
G1 X72.722 Y77.656 E4.32416
G1 X73.204 Y77.934 E4.34674
G1 X78.238 Y72.899 E4.63598
G1 X78.720 Y73.177 E4.65856
G1 X73.685 Y78.211 E4.94779
G1 X74.166 Y78.489 E4.97037
G1 X79.201 Y73.455 E5.25961
G1 X79.682 Y73.733 E5.28219
G1 X74.648 Y78.767 E5.57143
G1 X75.129 Y79.045 E5.59401
G1 X80.164 Y74.011 E5.88325
G1 X80.645 Y74.289 E5.90583
G1 X75.611 Y79.323 E6.19507
G1 X76.092 Y79.601 E6.21765
G1 X81.126 Y74.566 E6.50689
G1 X81.608 Y74.844 E6.52947
G1 X76.573 Y79.879 E6.81871
G1 X77.055 Y80.157 E6.84129
G1 X82.089 Y75.122 E7.13053
G1 X82.570 Y75.400 E7.15311
G1 X77.536 Y80.435 E7.44235
G1 X78.017 Y80.713 E7.46493
G1 X83.052 Y75.678 E7.75416
G1 X83.533 Y75.956 E7.77674
G1 X78.499 Y80.991 E8.06598
G1 X78.980 Y81.268 E8.08856
G1 X83.755 Y76.493 E8.36291
G1 X82.718 Y78.290 E8.44718
G1 X79.461 Y81.546 E8.63429
G1 X79.943 Y81.824 E8.65687
G1 X81.681 Y80.086 E8.75673
G1 X80.644 Y81.883 E8.84100
G1 X80.424 Y82.102 E8.85362
G1 E6.85362 F2400.00000
G92 E0
G1 X68.933 Y76.405 F7800.000
G1 E2.00000 F2400.00000
G1 F1200.000
G1 X67.704 Y75.695 E2.06016
G1 Z1.200 F7800.000
G1 E0.06016 F2400.00000
G92 E0
