; generated by Slic3r 1.3.1-dev (Build (Unknown revision)) on 2020-02-20 at 13:48:03

; external perimeters extrusion width = 0.55mm (3.65mm^3/s)
; perimeters extrusion width = 0.70mm (5.26mm^3/s)
; infill extrusion width = 0.62mm (4.66mm^3/s)
; solid infill extrusion width = 0.70mm (3.94mm^3/s)
; top infill extrusion width = 0.70mm (3.94mm^3/s)

M107
G92 E0
M104 S200 ; set temperature
G28 ; home all axes
G1 Z5 F5000 ; lift nozzle

; Filament gcode

M109 S200 ; set temperature and wait for it to be reached
G21 ; set units to millimeters
G90 ; use absolute coordinates
M82 ; use absolute distances for extrusion
G92 E0
G1 Z0.200 F7800.000
G1 E-2.00000 F2400.00000
G92 E0
G1 X93.207 Y87.752 F7800.000
G1 E2.00000 F2400.00000
G1 F1800.000
G1 X95.163 Y86.647 E2.02269
G1 X97.381 Y86.291 E2.04539
G1 X100.442 Y87.141 E2.07749
G1 X114.339 Y95.164 E2.23961
G1 X116.055 Y96.614 E2.26231
G1 X117.160 Y98.569 E2.28500
G1 X117.516 Y100.787 E2.30770
G1 X116.666 Y103.848 E2.33980
G1 X111.666 Y112.509 E2.44083
G1 X110.216 Y114.225 E2.46353
G1 X108.261 Y115.330 E2.48622
G1 X106.043 Y115.686 E2.50892
G1 X102.982 Y114.836 E2.54102
G1 X89.085 Y106.812 E2.70314
G1 X87.369 Y105.363 E2.72583
G1 X86.263 Y103.407 E2.74853
G1 X85.907 Y101.190 E2.77122
G1 X86.758 Y98.128 E2.80333
G1 X91.758 Y89.468 E2.90436
G1 X93.159 Y87.809 E2.92630
G1 E0.92630 F2400.00000
G92 E0
G1 X105.826 Y108.081 F7800.000
G1 E2.00000 F2400.00000
G1 F1800.000
G1 X94.419 Y101.496 E2.13308
G1 X98.504 Y94.419 E2.21564
G1 X109.911 Y101.004 E2.34872
G1 X105.863 Y108.016 E2.43052
G1 E0.43052 F2400.00000
G92 E0
G1 X94.124 Y101.292 F7800.000
G1 E2.00000 F2400.00000
G1 F1800.000
G1 X98.181 Y94.265 E2.08198
G1 X97.274 Y93.742 E2.09255
G1 X97.467 Y93.408 E2.09645
G1 X110.399 Y100.874 E2.24732
G1 X105.956 Y108.569 E2.33710
G1 X93.024 Y101.103 E2.48796
G1 X93.217 Y100.769 E2.49186
G1 X94.059 Y101.255 E2.50168
G1 X93.993 Y100.804 F7800.000
G1 F1800.000
G1 X97.693 Y94.396 E2.57644
G1 X96.787 Y93.872 E2.58702
G1 X97.337 Y92.920 E2.59813
G1 X110.887 Y100.743 E2.75621
G1 X106.087 Y109.057 E2.85320
G1 X92.537 Y101.234 E3.01129
G1 X93.087 Y100.281 E3.02240
G1 X93.928 Y100.767 E3.03222
G1 X94.477 Y100.930 F7800.000
G1 E1.03222 F2400.00000
G92 E0
G1 X98.560 Y94.982 F7800.000
G1 E2.00000 F2400.00000
G1 F1800.000
G1 X98.711 Y94.831 E2.00217
G1 X99.032 Y95.016 E2.00593
G1 X97.868 Y96.181 E2.02261
G1 X97.176 Y97.378 E2.03662
G1 X99.353 Y95.201 E2.06781
G1 X99.674 Y95.387 E2.07157
G1 X96.484 Y98.576 E2.11726
G1 X95.793 Y99.774 E2.13128
G1 X99.995 Y95.572 E2.19148
G1 X100.316 Y95.757 E2.19523
G1 X95.101 Y100.972 E2.26995
G1 X94.831 Y101.441 E2.27542
G1 X95.026 Y101.553 E2.27771
G1 X100.637 Y95.943 E2.35809
G1 X100.958 Y96.128 E2.36184
G1 X95.347 Y101.739 E2.44223
G1 X95.668 Y101.924 E2.44598
G1 X101.279 Y96.313 E2.52636
G1 X101.600 Y96.499 E2.53012
G1 X95.989 Y102.109 E2.61050
G1 X96.310 Y102.295 E2.61425
G1 X101.921 Y96.684 E2.69463
G1 X102.242 Y96.869 E2.69839
G1 X96.631 Y102.480 E2.77877
G1 X96.952 Y102.665 E2.78252
G1 X102.563 Y97.055 E2.86290
G1 X102.884 Y97.240 E2.86666
G1 X97.273 Y102.851 E2.94704
G1 X97.594 Y103.036 E2.95079
G1 X103.205 Y97.425 E3.03118
G1 X103.526 Y97.611 E3.03493
G1 X97.915 Y103.221 E3.11531
G1 X98.236 Y103.407 E3.11907
G1 X103.847 Y97.796 E3.19945
G1 X104.168 Y97.981 E3.20320
G1 X98.557 Y103.592 E3.28358
G1 X98.878 Y103.777 E3.28734
G1 X104.489 Y98.167 E3.36772
G1 X104.810 Y98.352 E3.37147
G1 X99.199 Y103.963 E3.45185
G1 X99.520 Y104.148 E3.45561
G1 X105.131 Y98.537 E3.53599
G1 X105.452 Y98.723 E3.53974
G1 X99.841 Y104.333 E3.62013
G1 X100.162 Y104.519 E3.62388
G1 X105.773 Y98.908 E3.70426
G1 X106.094 Y99.093 E3.70802
G1 X100.483 Y104.704 E3.78840
G1 X100.804 Y104.889 E3.79215
G1 X106.415 Y99.279 E3.87253
G1 X106.736 Y99.464 E3.87629
G1 X101.125 Y105.075 E3.95667
G1 X101.446 Y105.260 E3.96042
G1 X107.057 Y99.649 E4.04080
G1 X107.378 Y99.835 E4.04456
G1 X101.767 Y105.445 E4.12494
G1 X102.088 Y105.631 E4.12869
G1 X107.699 Y100.020 E4.20907
G1 X108.020 Y100.205 E4.21283
G1 X102.409 Y105.816 E4.29321
G1 X102.730 Y106.001 E4.29696
G1 X108.341 Y100.391 E4.37735
G1 X108.662 Y100.576 E4.38110
G1 X103.051 Y106.187 E4.46148
G1 X103.372 Y106.372 E4.46524
G1 X108.983 Y100.761 E4.54562
G1 X109.304 Y100.947 E4.54937
G1 X103.693 Y106.557 E4.62975
G1 X104.014 Y106.743 E4.63351
G1 X109.229 Y101.528 E4.70822
G1 X108.538 Y102.726 E4.72223
G1 X104.335 Y106.928 E4.78243
G1 X104.656 Y107.113 E4.78619
G1 X107.846 Y103.924 E4.83189
G1 X107.154 Y105.122 E4.84590
G1 X104.977 Y107.299 E4.87709
G1 X105.298 Y107.484 E4.88084
G1 X106.463 Y106.320 E4.89752
G1 X105.771 Y107.518 E4.91154
G1 X105.619 Y107.669 E4.91371
G1 Z0.400 F7800.000
G1 X95.238 Y101.276 F7800.000
G1 F1800.000
G1 X98.724 Y95.238 E5.04333
G1 X109.092 Y101.224 E5.26590
G1 X105.606 Y107.262 E5.39551
G1 X95.303 Y101.313 E5.61669
G1 X94.341 Y101.516 F7800.000
G1 F2400.000
G1 X98.484 Y94.341 E5.77074
G1 X109.989 Y100.984 E6.01774
G1 X105.847 Y108.159 E6.17179
G1 X94.406 Y101.554 E6.41740
G1 X94.021 Y100.907 F7800.000
G1 F2160.000
G1 X97.796 Y94.368 E6.52572
G1 X96.808 Y93.798 E6.54207
G1 X97.283 Y92.976 E6.55570
G1 X110.785 Y100.771 E6.77938
G1 X106.060 Y108.954 E6.91496
G1 X92.558 Y101.160 E7.13864
G1 X93.033 Y100.337 E7.15227
G1 X93.956 Y100.869 E7.16755
G1 X94.499 Y101.051 F7800.000
G1 X94.035 Y101.464 F7800.000
G1 F1200.000
G1 X93.048 Y100.894 E7.17803
G1 X95.996 Y100.896 F7800.000
G1 F1800.000
G1 X96.276 Y101.175 E7.18568
G1 X98.568 Y102.499 E7.23701
G1 X96.351 Y100.282 E7.29781
G1 X96.706 Y99.667 E7.31156
G1 X100.861 Y103.823 E7.42550
G1 X103.154 Y105.146 E7.47683
G1 X97.061 Y99.053 E7.64391
G1 X97.415 Y98.438 E7.65767
G1 X105.447 Y106.470 E7.87789
G1 X105.505 Y106.504 E7.87919
G1 X105.851 Y105.905 E7.89260
G1 X97.770 Y97.824 E8.11417
G1 X98.125 Y97.210 E8.12792
G1 X106.205 Y105.290 E8.34949
G1 X106.560 Y104.676 E8.36324
G1 X98.479 Y96.595 E8.58481
G1 X98.825 Y95.996 E8.59822
G1 X98.883 Y96.030 E8.59951
G1 X106.915 Y104.062 E8.81974
G1 X107.270 Y103.447 E8.83349
G1 X101.176 Y97.354 E9.00058
G1 X103.469 Y98.677 E9.05191
G1 X107.624 Y102.833 E9.16585
G1 X107.979 Y102.218 E9.17960
G1 X105.762 Y100.001 E9.24040
G1 X108.055 Y101.325 E9.29173
G1 X108.334 Y101.604 E9.29938
G1 X98.285 Y94.102 F7800.000
G1 F1200.000
G1 X97.298 Y93.532 E9.30986
G1 Z0.600 F7800.000
G1 E7.30986 F2400.00000
G92 E0
G1 X95.238 Y101.276 F7800.000
G1 E2.00000 F2400.00000
G1 F1800.000
G1 X98.724 Y95.238 E2.12961
G1 X109.092 Y101.224 E2.35219
G1 X105.606 Y107.262 E2.48180
G1 X95.303 Y101.313 E2.70298
G1 X94.341 Y101.516 F7800.000
G1 F2400.000
G1 X98.484 Y94.341 E2.85702
G1 X109.989 Y100.984 E3.10403
G1 X105.847 Y108.159 E3.25808
G1 X94.406 Y101.554 E3.50368
G1 X94.021 Y100.907 F7800.000
G1 F2160.000
G1 X97.796 Y94.368 E3.61201
G1 X96.728 Y93.752 E3.62970
G1 X97.203 Y92.929 E3.64333
G1 X110.785 Y100.771 E3.86834
G1 X106.060 Y108.954 E4.00393
G1 X92.478 Y101.113 E4.22894
G1 X92.953 Y100.290 E4.24257
G1 X93.956 Y100.869 E4.25919
G1 X94.497 Y101.057 F7800.000
G1 X94.035 Y101.464 F7800.000
G1 F1200.000
G1 X92.967 Y100.847 E4.27052
G1 E2.27052 F2400.00000
G92 E0
G1 X98.825 Y96.275 F7800.000
G1 E2.00000 F2400.00000
G1 F1800.000
G1 X99.104 Y95.996 E2.00772
G1 X99.724 Y96.355 E2.02173
G1 X97.489 Y98.590 E2.08360
G1 X96.153 Y100.904 E2.13590
G1 X100.344 Y96.713 E2.25191
G1 X100.964 Y97.071 E2.26593
G1 X96.544 Y101.491 E2.38827
G1 X97.164 Y101.849 E2.40228
G1 X101.585 Y97.429 E2.52463
G1 X102.205 Y97.787 E2.53864
G1 X97.784 Y102.207 E2.66098
G1 X98.405 Y102.565 E2.67500
G1 X102.825 Y98.145 E2.79734
G1 X103.445 Y98.503 E2.81135
G1 X99.025 Y102.923 E2.93369
G1 X99.645 Y103.281 E2.94771
G1 X104.065 Y98.861 E3.07005
G1 X104.685 Y99.219 E3.08406
G1 X100.265 Y103.639 E3.20641
G1 X100.885 Y103.997 E3.22042
G1 X105.305 Y99.577 E3.34276
G1 X105.926 Y99.935 E3.35678
G1 X101.505 Y104.355 E3.47912
G1 X102.125 Y104.713 E3.49313
G1 X106.546 Y100.293 E3.61547
G1 X107.166 Y100.651 E3.62949
G1 X102.745 Y105.071 E3.75183
G1 X103.366 Y105.429 E3.76584
G1 X107.786 Y101.009 E3.88819
G1 X108.334 Y101.325 E3.90056
G1 X108.178 Y101.596 E3.90667
G1 X103.986 Y105.787 E4.02269
G1 X104.606 Y106.145 E4.03670
G1 X106.841 Y103.910 E4.09857
G1 X105.505 Y106.224 E4.15087
G1 X105.226 Y106.504 E4.15859
G1 X98.285 Y94.102 F7800.000
G1 F1200.000
G1 X97.217 Y93.486 E4.16993
M106 S244.8
G1 Z0.800 F7800.000
G1 E2.16993 F2400.00000
G92 E0
G1 X95.238 Y101.276 F7800.000
G1 E2.00000 F2400.00000
G1 F1800.000
G1 X98.724 Y95.238 E2.12961
G1 X109.092 Y101.224 E2.35219
G1 X105.606 Y107.262 E2.48180
G1 X95.303 Y101.313 E2.70298
G1 X94.341 Y101.516 F7800.000
G1 F2400.000
G1 X98.484 Y94.341 E2.85702
G1 X109.989 Y100.984 E3.10403
G1 X105.847 Y108.159 E3.25808
G1 X94.406 Y101.554 E3.50368
G1 X94.021 Y100.907 F7800.000
G1 F2160.000
G1 X97.796 Y94.368 E3.61201
G1 X96.647 Y93.705 E3.63104
G1 X97.122 Y92.882 E3.64467
G1 X110.785 Y100.771 E3.87102
G1 X106.060 Y108.954 E4.00660
G1 X92.397 Y101.066 E4.23295
G1 X92.872 Y100.244 E4.24658
G1 X93.956 Y100.869 E4.26454
G1 X94.496 Y101.062 F7800.000
G1 X94.035 Y101.464 F7800.000
G1 F1200.000
G1 X92.886 Y100.800 E4.27673
G1 X95.996 Y100.896 F7800.000
G1 F1800.000
G1 X96.276 Y101.175 E4.28439
G1 X98.568 Y102.499 E4.33572
G1 X96.351 Y100.282 E4.39651
G1 X96.706 Y99.667 E4.41027
G1 X100.861 Y103.823 E4.52421
G1 X103.154 Y105.146 E4.57554
G1 X97.061 Y99.053 E4.74262
G1 X97.415 Y98.438 E4.75638
G1 X105.447 Y106.470 E4.97660
G1 X105.505 Y106.504 E4.97790
G1 X105.851 Y105.905 E4.99131
G1 X97.770 Y97.824 E5.21287
G1 X98.125 Y97.210 E5.22663
G1 X106.205 Y105.290 E5.44819
G1 X106.560 Y104.676 E5.46195
G1 X98.479 Y96.595 E5.68352
G1 X98.825 Y95.996 E5.69692
G1 X98.883 Y96.030 E5.69822
G1 X106.915 Y104.062 E5.91845
G1 X107.270 Y103.447 E5.93220
G1 X101.176 Y97.354 E6.09928
G1 X103.469 Y98.677 E6.15062
G1 X107.624 Y102.833 E6.26456
G1 X107.979 Y102.218 E6.27831
G1 X105.762 Y100.001 E6.33911
G1 X108.055 Y101.325 E6.39044
G1 X108.334 Y101.604 E6.39809
G1 X98.285 Y94.102 F7800.000
G1 F1200.000
G1 X97.136 Y93.439 E6.41029
G1 Z1.000 F7800.000
G1 E4.41029 F2400.00000
G92 E0
G1 X95.238 Y101.276 F7800.000
G1 E2.00000 F2400.00000
G1 F1800.000
G1 X98.724 Y95.238 E2.12961
G1 X109.092 Y101.224 E2.35219
G1 X105.606 Y107.262 E2.48180
G1 X95.303 Y101.313 E2.70298
G1 X94.341 Y101.516 F7800.000
G1 F2400.000
G1 X98.484 Y94.341 E2.85702
G1 X109.989 Y100.984 E3.10403
G1 X105.847 Y108.159 E3.25808
G1 X94.406 Y101.554 E3.50368
G1 X94.021 Y100.907 F7800.000
G1 F2160.000
G1 X97.796 Y94.368 E3.61201
G1 X96.566 Y93.658 E3.63238
G1 X97.041 Y92.836 E3.64601
G1 X110.785 Y100.771 E3.87370
G1 X106.060 Y108.954 E4.00928
G1 X92.316 Y101.020 E4.23697
G1 X92.791 Y100.197 E4.25060
G1 X93.956 Y100.869 E4.26989
G1 X94.494 Y101.067 F7800.000
G1 X94.035 Y101.464 F7800.000
G1 F1200.000
G1 X92.806 Y100.754 E4.28294
G1 E2.28294 F2400.00000
G92 E0
G1 X98.825 Y96.275 F7800.000
G1 E2.00000 F2400.00000
G1 F1800.000
G1 X99.104 Y95.996 E2.00772
G1 X99.724 Y96.355 E2.02173
G1 X97.489 Y98.590 E2.08360
G1 X96.153 Y100.904 E2.13590
G1 X100.344 Y96.713 E2.25191
G1 X100.964 Y97.071 E2.26593
G1 X96.544 Y101.491 E2.38827
G1 X97.164 Y101.849 E2.40228
G1 X101.585 Y97.429 E2.52463
G1 X102.205 Y97.787 E2.53864
G1 X97.784 Y102.207 E2.66098
G1 X98.405 Y102.565 E2.67500
G1 X102.825 Y98.145 E2.79734
G1 X103.445 Y98.503 E2.81135
G1 X99.025 Y102.923 E2.93369
G1 X99.645 Y103.281 E2.94771
G1 X104.065 Y98.861 E3.07005
G1 X104.685 Y99.219 E3.08406
G1 X100.265 Y103.639 E3.20641
G1 X100.885 Y103.997 E3.22042
G1 X105.305 Y99.577 E3.34276
G1 X105.926 Y99.935 E3.35678
G1 X101.505 Y104.355 E3.47912
G1 X102.125 Y104.713 E3.49313
G1 X106.546 Y100.293 E3.61547
G1 X107.166 Y100.651 E3.62949
G1 X102.745 Y105.071 E3.75183
G1 X103.366 Y105.429 E3.76584
G1 X107.786 Y101.009 E3.88819
G1 X108.334 Y101.325 E3.90056
G1 X108.178 Y101.596 E3.90667
G1 X103.986 Y105.787 E4.02269
G1 X104.606 Y106.145 E4.03670
G1 X106.841 Y103.910 E4.09857
G1 X105.505 Y106.224 E4.15087
G1 X105.226 Y106.504 E4.15859
G1 X98.285 Y94.102 F7800.000
G1 F1200.000
G1 X97.056 Y93.393 E4.17165
M106 S252.45
G1 Z1.200 F7800.000
G1 E2.17165 F2400.00000
G92 E0
G1 X95.238 Y101.276 F7800.000
G1 E2.00000 F2400.00000
G1 F1800.000
G1 X98.724 Y95.238 E2.12961
G1 X109.092 Y101.224 E2.35219
G1 X105.606 Y107.262 E2.48180
G1 X95.303 Y101.313 E2.70298
G1 X94.341 Y101.516 F7800.000
G1 F2400.000
G1 X98.484 Y94.341 E2.85702
G1 X109.989 Y100.984 E3.10403
G1 X105.847 Y108.159 E3.25808
G1 X94.406 Y101.554 E3.50368
G1 X94.021 Y100.907 F7800.000
G1 F2160.000
G1 X97.796 Y94.368 E3.61201
G1 X96.485 Y93.612 E3.63371
G1 X96.960 Y92.789 E3.64734
G1 X110.785 Y100.771 E3.87637
G1 X106.060 Y108.954 E4.01195
G1 X92.235 Y100.973 E4.24098
G1 X92.710 Y100.150 E4.25461
G1 X93.956 Y100.869 E4.27524
G1 X94.492 Y101.072 F7800.000
G1 X94.035 Y101.464 F7800.000
G1 F1200.000
G1 X92.725 Y100.707 E4.28915
G1 E2.28915 F2400.00000
G92 E0
G1 X96.975 Y93.346 F7800.000
G1 E2.00000 F2400.00000
G1 F1200.000
G1 X98.285 Y94.102 E2.01391
G1 X98.126 Y97.251 F7800.000
G1 F2400.000
G1 X100.249 Y96.682 E2.05012
G1 X97.736 Y98.093 F7800.000
G1 F2400.000
G1 X96.781 Y101.658 E2.11091
G1 X96.408 Y100.849 F7800.000
G1 F2400.000
G1 X96.216 Y101.181 E2.11722
G1 X97.455 Y101.896 E2.14078
G1 X96.145 Y100.586 E2.17129
G1 X98.819 Y95.953 E2.25939
G1 X101.007 Y97.216 E2.30099
G1 X107.277 Y103.487 E2.44704
G1 X107.378 Y100.798 F7800.000
G1 F2400.000
G1 X99.188 Y102.993 E2.58668
G1 X101.999 Y104.671 F7800.000
G1 F2400.000
G1 X103.632 Y98.580 E2.69055
G1 Z1.400 F7800.000
G1 X95.238 Y101.276 F7800.000
G1 F1800.000
G1 X98.724 Y95.238 E2.82016
G1 X109.092 Y101.224 E3.04273
G1 X105.606 Y107.262 E3.17235
G1 X95.303 Y101.313 E3.39352
G1 X94.341 Y101.516 F7800.000
G1 F2400.000
G1 X98.484 Y94.341 E3.54757
G1 X109.989 Y100.984 E3.79458
G1 X105.847 Y108.159 E3.94862
G1 X94.406 Y101.554 E4.19423
G1 X94.021 Y100.907 F7800.000
G1 F2160.000
G1 X97.796 Y94.368 E4.30255
G1 X96.405 Y93.565 E4.32560
G1 X96.880 Y92.742 E4.33923
G1 X110.785 Y100.771 E4.56959
G1 X106.060 Y108.954 E4.70518
G1 X92.155 Y100.926 E4.93554
G1 X92.630 Y100.104 E4.94917
G1 X93.956 Y100.869 E4.97114
G1 X94.491 Y101.076 F7800.000
G1 X94.035 Y101.464 F7800.000
G1 F1200.000
G1 X92.644 Y100.661 E4.98591
G1 X96.304 Y101.028 F7800.000
G1 F2400.000
G1 X96.216 Y101.181 E4.98881
G1 X96.786 Y101.509 E4.99964
G1 X96.041 Y100.765 E5.01698
G1 X98.819 Y95.953 E5.10849
G1 X100.338 Y96.830 E5.13736
G1 X107.174 Y103.666 E5.29659
G1 X107.133 Y100.657 F7800.000
G1 F2400.000
G1 X98.943 Y102.851 E5.43623
G1 X96.960 Y101.762 F7800.000
G1 F2400.000
G1 X98.122 Y97.423 E5.51020
G1 X98.267 Y97.006 F7800.000
G1 F2400.000
G1 X100.004 Y96.541 E5.53981
G1 X103.811 Y98.683 F7800.000
G1 F2400.000
G1 X102.179 Y104.775 E5.64368
G1 X98.285 Y94.102 F7800.000
G1 F1200.000
G1 X96.894 Y93.299 E5.65845
G1 Z1.600 F7800.000
G1 E3.65845 F2400.00000
G92 E0
G1 X95.238 Y101.276 F7800.000
G1 E2.00000 F2400.00000
G1 F1800.000
G1 X98.724 Y95.238 E2.12961
G1 X109.092 Y101.224 E2.35219
G1 X105.606 Y107.262 E2.48180
G1 X95.303 Y101.313 E2.70298
G1 X94.341 Y101.516 F7800.000
G1 F2400.000
G1 X98.484 Y94.341 E2.85702
G1 X109.989 Y100.984 E3.10403
G1 X105.847 Y108.159 E3.25807
G1 X94.406 Y101.554 E3.50368
G1 X94.021 Y100.907 F7800.000
G1 F2160.000
G1 X97.796 Y94.368 E3.61201
G1 X96.324 Y93.519 E3.63639
G1 X96.799 Y92.696 E3.65002
G1 X110.785 Y100.771 E3.88172
G1 X106.060 Y108.954 E4.01731
G1 X92.074 Y100.880 E4.24901
G1 X92.549 Y100.057 E4.26264
G1 X93.956 Y100.869 E4.28595
G1 X94.490 Y101.080 F7800.000
G1 X94.035 Y101.464 F7800.000
G1 F1200.000
G1 X92.563 Y100.614 E4.30157
G1 X97.139 Y101.865 F7800.000
G1 F2400.000
G1 X98.509 Y96.754 E4.38872
G1 X98.408 Y96.761 F7800.000
G1 F2400.000
G1 X99.759 Y96.399 E4.41175
G1 X103.990 Y98.787 F7800.000
G1 F2400.000
G1 X102.358 Y104.878 E4.51561
G1 X98.698 Y102.710 F7800.000
G1 F2400.000
G1 X106.888 Y100.515 E4.65526
G1 X106.808 Y103.582 F7800.000
G1 F2400.000
G1 X108.114 Y101.319 E4.69829
G1 X99.669 Y96.443 E4.85890
G1 X107.070 Y103.845 E5.03130
G1 X98.285 Y94.102 F7800.000
G1 F1200.000
G1 X96.813 Y93.253 E5.04693
G1 Z1.800 F7800.000
G1 E3.04693 F2400.00000
G92 E0
G1 X95.238 Y101.276 F7800.000
G1 E2.00000 F2400.00000
G1 F1800.000
