; generated by Slic3r 1.2.9 on 2020-02-14 at 15:57:46

; external perimeters extrusion width = 0.42mm
; perimeters extrusion width = 0.42mm
; infill extrusion width = 0.42mm
; solid infill extrusion width = 0.42mm
; top infill extrusion width = 0.42mm

; external perimeters extrusion width = 0.42mm
; perimeters extrusion width = 0.42mm
; infill extrusion width = 0.42mm
; solid infill extrusion width = 0.42mm
; top infill extrusion width = 0.42mm

; external perimeters extrusion width = 0.42mm
; perimeters extrusion width = 0.42mm
; infill extrusion width = 0.42mm
; solid infill extrusion width = 0.42mm
; top infill extrusion width = 0.42mm

;D3D:START:START
T0
M104 S215 T0

G21
G90
M107
T0
G28
G29
M109 T0 S215 T0
G0 F3000
M107
T0
G92 E0
G0 X0 Y149 Z0.1 F3600
G1 Y49 E6.5 F1200
G0 Z1
G92 E0
G21 ; set units to millimeters
G90 ; use absolute coordinates
M82 ; use absolute distances for extrusion
G92 E0
G1 Z0.200 F9000.000
G1 E-1.00000 F2400.00000
G92 E0
G1 X44.546 Y8.826 F9000.000
G1 E1.00000 F2400.00000
G1 X44.706 Y8.045 E1.01061 F1800.000
G1 X44.885 Y7.509 E1.01815
G1 X45.759 Y6.145 E1.03973
G1 X46.294 Y5.641 E1.04952
G1 X47.025 Y5.121 E1.06147
G1 X47.908 Y4.659 E1.07475
G1 X48.380 Y4.456 E1.08159
G1 X49.597 Y4.043 E1.09871
G1 X49.915 Y3.952 E1.10312
G1 X51.446 Y3.598 E1.12406
G1 X53.679 Y3.243 E1.15418
G1 X55.907 Y3.020 E1.18400
G1 X58.218 Y2.886 E1.21485
G1 X61.255 Y2.829 E1.25532
G1 X63.675 Y2.848 E1.28756 F1800.000
G1 X66.509 Y2.940 E1.32533
G1 X69.344 Y3.088 E1.36315
G1 X72.301 Y3.292 E1.40264
G1 X75.135 Y3.526 E1.44053
G1 X77.974 Y3.795 E1.47851
G1 X80.659 Y4.076 E1.51449
G1 X85.501 Y4.645 E1.57943
G1 X89.451 Y5.168 E1.63252
G1 X91.835 Y5.512 E1.66460
G1 X93.327 Y6.132 E1.68613
G1 X94.001 Y6.803 E1.69880
G1 X110.321 Y28.572 E2.06127
G1 X110.813 Y29.509 E2.07536
G1 X110.992 Y30.045 E2.08290
G1 X111.159 Y31.268 E2.09934
G1 X105.461 Y141.075 E3.56421
G1 X105.294 Y141.955 E3.57613
G1 X105.115 Y142.491 E3.58367
G1 X104.241 Y143.856 E3.60525
G1 X103.705 Y144.359 E3.61505
G1 X102.975 Y144.879 E3.62699
G1 X102.092 Y145.341 E3.64027
G1 X101.620 Y145.544 E3.64711
G1 X100.404 Y145.957 E3.66423
G1 X100.085 Y146.048 E3.66864
G1 X98.553 Y146.402 E3.68959
G1 X96.320 Y146.757 E3.71971
G1 X94.093 Y146.981 E3.74953
G1 X91.664 Y147.118 E3.78195
G1 X89.062 Y147.174 E3.81661
G1 X86.325 Y147.152 E3.85308
G1 X83.491 Y147.060 E3.89085
G1 X80.602 Y146.909 E3.92940
G1 X77.699 Y146.708 E3.96816
G1 X74.865 Y146.473 E4.00605
G1 X72.067 Y146.209 E4.04349
G1 X69.341 Y145.924 E4.08001
G1 X64.499 Y145.355 E4.14496
G1 X60.548 Y144.832 E4.19805
G1 X58.166 Y144.488 E4.23012
G1 X56.673 Y143.868 E4.25165
G1 X55.999 Y143.197 E4.26432
G1 X39.679 Y121.428 E4.62679
G1 X39.187 Y120.491 E4.64089
G1 X39.008 Y119.955 E4.64842
G1 X38.839 Y118.777 E4.66427
G1 X41.736 Y43.142 E5.67265
G1 X44.541 Y8.885 E6.13056
G1 X44.697 Y8.898 F9000.000
G1 X44.855 Y8.095 E6.14147 F1800.000
G1 X45.034 Y7.558 E6.14901
G1 X45.866 Y6.259 E6.16956
G1 X46.402 Y5.756 E6.17935
G1 X47.098 Y5.261 E6.19074
G1 X47.981 Y4.798 E6.20402
G1 X48.431 Y4.605 E6.21053
G1 X49.647 Y4.192 E6.22765
G1 X49.951 Y4.105 E6.23185
G1 X51.482 Y3.751 E6.25279
G1 X53.695 Y3.399 E6.28265
G1 X55.916 Y3.176 E6.31238
G1 X58.227 Y3.043 E6.34322
G1 X61.254 Y2.986 E6.38356
G1 X63.670 Y3.005 E6.41574 F1800.000
G1 X66.501 Y3.097 E6.45348
G1 X69.335 Y3.245 E6.49129
G1 X72.288 Y3.448 E6.53072
G1 X75.122 Y3.683 E6.56861
G1 X77.957 Y3.951 E6.60655
G1 X80.642 Y4.232 E6.64251
G1 X85.482 Y4.801 E6.70743
G1 X89.430 Y5.324 E6.76050
G1 X91.812 Y5.668 E6.79255
G1 X93.264 Y6.281 E6.81355
G1 X93.875 Y6.897 E6.82511
G1 X110.195 Y28.666 E7.18758
G1 X110.664 Y29.559 E7.20101
G1 X110.843 Y30.095 E7.20855
G1 X111.002 Y31.260 E7.22421
G1 X105.304 Y141.067 E8.68908
G1 X105.145 Y141.905 E8.70044
G1 X104.966 Y142.441 E8.70797
G1 X104.133 Y143.741 E8.72854
G1 X103.598 Y144.244 E8.73833
G1 X102.902 Y144.740 E8.74971
G1 X102.019 Y145.202 E8.76299
G1 X101.569 Y145.395 E8.76950
G1 X100.353 Y145.808 E8.78662
G1 X100.049 Y145.895 E8.79082
G1 X98.518 Y146.249 E8.81177
G1 X96.305 Y146.601 E8.84162
G1 X94.084 Y146.824 E8.87135
G1 X91.660 Y146.961 E8.90370
G1 X89.063 Y147.017 E8.93830
G1 X86.330 Y146.995 E8.97472
G1 X83.499 Y146.903 E9.01245
G1 X80.612 Y146.752 E9.05096
G1 X77.712 Y146.552 E9.08969
G1 X74.878 Y146.317 E9.12759
G1 X72.082 Y146.053 E9.16499
G1 X69.358 Y145.768 E9.20148
G1 X64.518 Y145.199 E9.26641
G1 X60.570 Y144.676 E9.31947
G1 X58.189 Y144.332 E9.35152
G1 X56.736 Y143.719 E9.37253
G1 X56.125 Y143.103 E9.38408
G1 X39.805 Y121.334 E9.74656
G1 X39.336 Y120.441 E9.75998
G1 X39.157 Y119.905 E9.76752
G1 X38.996 Y118.783 E9.78262
G1 X41.893 Y43.148 E10.79100
G1 X44.693 Y8.958 E11.24802
G1 E10.24802 F2400.00000
G92 E0
G1 X50.740 Y113.834 F9000.000
G1 E1.00000 F2400.00000
G1 X52.641 Y113.726 E1.02537 F1800.000
G1 X55.550 Y113.672 E1.06412
G1 X57.315 Y113.686 E1.08764 F1800.000
G1 X57.348 Y113.672 E1.08813
G1 X60.746 Y113.782 E1.13341
G1 X63.620 Y113.932 E1.17175
G1 X66.510 Y114.131 E1.21034
G1 X69.372 Y114.368 E1.24860
G1 X72.163 Y114.632 E1.28595
G1 X77.362 Y115.199 E1.35563
G1 X81.789 Y115.754 E1.41507
G1 X86.823 Y116.469 E1.48280
G1 X87.929 Y117.751 E1.50536
G1 X87.929 Y120.056 E1.53607
G1 X86.822 Y121.338 E1.55863
G1 X81.789 Y122.053 E1.62636
G1 X77.362 Y122.608 E1.68580
G1 X74.840 Y122.895 E1.71962
G1 X72.153 Y123.176 E1.75560
G1 X69.359 Y123.440 E1.79300
G1 X66.494 Y123.677 E1.83129
G1 X63.601 Y123.876 E1.86993
G1 X60.746 Y124.026 E1.90802
G1 X57.902 Y124.117 E1.94592
G1 X55.215 Y124.137 E1.98172
G1 X52.641 Y124.082 E2.01602
G1 X50.244 Y123.944 E2.04801
G1 X48.056 Y123.723 E2.07731
G1 X46.102 Y123.417 E2.10366
G1 X44.286 Y122.994 E2.12849
G1 X42.770 Y122.464 E2.14989
G1 X41.672 Y121.889 E2.16641
G1 X41.419 Y121.709 E2.17054
G1 X40.565 Y120.906 E2.18616
G1 X40.260 Y120.430 E2.19369
G1 X39.873 Y119.274 E2.20993
G1 X39.873 Y118.533 E2.21980
G1 X40.260 Y117.377 E2.23605
G1 X40.565 Y116.901 E2.24358
G1 X41.419 Y116.098 E2.25919
G1 X41.672 Y115.919 E2.26332
G1 X42.932 Y115.274 E2.28218
G1 X44.396 Y114.782 E2.30275
G1 X46.022 Y114.406 E2.32499
G1 X48.056 Y114.084 E2.35242
G1 X50.194 Y113.867 E2.38106
G1 X50.680 Y113.838 E2.38754
G1 X50.689 Y113.995 F9000.000
G1 X52.646 Y113.883 E2.41365 F1800.000
G1 X55.215 Y113.827 E2.44789
G1 X57.408 Y113.831 E2.47710 F1800.000
G1 X60.738 Y113.939 E2.52149
G1 X63.610 Y114.089 E2.55980
G1 X66.483 Y114.287 E2.59817
G1 X69.345 Y114.524 E2.63644
G1 X72.147 Y114.789 E2.67392
G1 X77.343 Y115.355 E2.74356
G1 X81.768 Y115.910 E2.80297
G1 X86.742 Y116.616 E2.86990
G1 X87.772 Y117.810 E2.89091
G1 X87.772 Y119.998 E2.92005
G1 X86.742 Y121.191 E2.94106
G1 X81.761 Y121.899 E3.00808
G1 X77.343 Y122.452 E3.06740
G1 X74.822 Y122.739 E3.10120
G1 X72.138 Y123.020 E3.13715
G1 X69.345 Y123.283 E3.17453
G1 X66.483 Y123.520 E3.21279
G1 X63.592 Y123.720 E3.25139
G1 X60.738 Y123.869 E3.28947
G1 X57.900 Y123.960 E3.32730
G1 X55.215 Y123.980 E3.36307
G1 X52.646 Y123.925 E3.39731
G1 X50.255 Y123.788 E3.42922
G1 X48.074 Y123.567 E3.45842
G1 X46.129 Y123.262 E3.48464
G1 X44.333 Y122.844 E3.50921
G1 X42.837 Y122.322 E3.53031
G1 X41.754 Y121.755 E3.54661
G1 X41.519 Y121.587 E3.55045
G1 X40.687 Y120.805 E3.56566
G1 X40.403 Y120.362 E3.57268
G1 X40.031 Y119.249 E3.58832
G1 X40.031 Y118.559 E3.59751
G1 X40.403 Y117.445 E3.61315
G1 X40.687 Y117.002 E3.62016
G1 X41.519 Y116.220 E3.63538
G1 X41.754 Y116.053 E3.63922
G1 X42.989 Y115.420 E3.65770
G1 X44.435 Y114.934 E3.67803
G1 X46.055 Y114.559 E3.70018
G1 X48.074 Y114.241 E3.72741
G1 X50.208 Y114.023 E3.75599
G1 X50.629 Y113.998 E3.76161
G1 X50.638 Y114.155 F9000.000
G1 X52.651 Y114.040 E3.78847 F1800.000
G1 X55.547 Y113.987 E3.82706
G1 X57.467 Y113.991 E3.85264 F1800.000
G1 X60.731 Y114.095 E3.89614
G1 X63.600 Y114.246 E3.93441
G1 X66.485 Y114.445 E3.97295
G1 X69.343 Y114.681 E4.01115
G1 X72.131 Y114.945 E4.04846
G1 X77.325 Y115.511 E4.11806
G1 X81.747 Y116.065 E4.17744
G1 X86.661 Y116.763 E4.24356
G1 X87.615 Y117.868 E4.26301
G1 X87.615 Y119.939 E4.29060
G1 X86.661 Y121.045 E4.31005
G1 X81.747 Y121.742 E4.37618
G1 X77.325 Y122.296 E4.43555
G1 X72.123 Y122.863 E4.50527
G1 X69.343 Y123.126 E4.54246
G1 X66.471 Y123.364 E4.58085
G1 X63.583 Y123.563 E4.61942
G1 X60.711 Y123.713 E4.65773
G1 X57.922 Y123.802 E4.69491
G1 X55.215 Y123.823 E4.73097
G1 X52.651 Y123.768 E4.76515
G1 X50.265 Y123.631 E4.79698
G1 X48.092 Y123.411 E4.82608
G1 X46.156 Y123.108 E4.85218
G1 X44.474 Y122.721 E4.87518
G1 X43.045 Y122.240 E4.89527
G1 X41.836 Y121.620 E4.91336
G1 X41.619 Y121.466 E4.91692
G1 X40.808 Y120.704 E4.93173
G1 X40.546 Y120.294 E4.93822
G1 X40.188 Y119.223 E4.95326
G1 X40.188 Y118.584 E4.96178
G1 X40.546 Y117.513 E4.97682
G1 X40.809 Y117.103 E4.98331
G1 X41.619 Y116.342 E4.99812
G1 X41.836 Y116.187 E5.00168
G1 X43.045 Y115.567 E5.01978
G1 X44.474 Y115.086 E5.03987
G1 X46.156 Y114.700 E5.06286
G1 X48.038 Y114.403 E5.08824
G1 X50.222 Y114.180 E5.11749
G1 X50.578 Y114.158 E5.12224
G1 X50.587 Y114.315 F9000.000
G1 X52.655 Y114.197 E5.14984 F1800.000
G1 X55.215 Y114.141 E5.18395
G1 X57.527 Y114.150 E5.21474 F1800.000
G1 X60.723 Y114.252 E5.25735
G1 X63.589 Y114.402 E5.29559
G1 X66.460 Y114.600 E5.33392
G1 X69.318 Y114.837 E5.37213
G1 X72.115 Y115.101 E5.40955
G1 X77.306 Y115.667 E5.47912
G1 X81.726 Y116.221 E5.53847
G1 X86.580 Y116.910 E5.60379
G1 X87.458 Y117.927 E5.62168
G1 X87.458 Y119.881 E5.64772
G1 X86.580 Y120.898 E5.66561
G1 X81.726 Y121.586 E5.73093
G1 X77.299 Y122.141 E5.79037
G1 X72.107 Y122.707 E5.85994
G1 X69.329 Y122.970 E5.89712
G1 X66.460 Y123.207 E5.93547
G1 X63.589 Y123.405 E5.97381
G1 X60.705 Y123.556 E6.01228
G1 X57.918 Y123.645 E6.04944
G1 X55.215 Y123.666 E6.08544
G1 X52.655 Y123.611 E6.11955
G1 X50.276 Y123.474 E6.15131
G1 X48.110 Y123.255 E6.18032
G1 X46.183 Y122.953 E6.20629
G1 X44.514 Y122.569 E6.22912
G1 X43.101 Y122.094 E6.24897
G1 X41.919 Y121.486 E6.26668
G1 X41.719 Y121.344 E6.26995
G1 X40.930 Y120.603 E6.28437
G1 X40.688 Y120.226 E6.29034
G1 X40.345 Y119.198 E6.30478
G1 X40.345 Y118.610 E6.31261
G1 X40.688 Y117.582 E6.32705
G1 X40.930 Y117.204 E6.33302
G1 X41.719 Y116.464 E6.34743
G1 X41.919 Y116.321 E6.35071
G1 X43.101 Y115.714 E6.36842
G1 X44.514 Y115.239 E6.38827
G1 X46.183 Y114.854 E6.41110
G1 X48.061 Y114.559 E6.43642
G1 X50.527 Y114.319 E6.46943
G1 X50.537 Y114.476 F9000.000
G1 X52.660 Y114.354 E6.49777 F1800.000
G1 X55.545 Y114.301 E6.53621
G1 X57.586 Y114.309 E6.56340 F1800.000
G1 X60.716 Y114.409 E6.60512
G1 X63.579 Y114.559 E6.64332
G1 X66.460 Y114.758 E6.68179
G1 X69.315 Y114.994 E6.71995
G1 X72.099 Y115.257 E6.75721
G1 X77.287 Y115.823 E6.82674
G1 X81.705 Y116.377 E6.88606
G1 X86.499 Y117.056 E6.95057
G1 X87.300 Y117.985 E6.96691
G1 X87.300 Y119.822 E6.99139
G1 X86.499 Y120.751 E7.00773
G1 X81.705 Y121.431 E7.07223
G1 X77.281 Y121.985 E7.13164
G1 X72.092 Y122.551 E7.20117
G1 X69.305 Y122.814 E7.23847
G1 X66.449 Y123.050 E7.27665
G1 X63.566 Y123.249 E7.31515
G1 X60.699 Y123.399 E7.35339
G1 X57.914 Y123.488 E7.39052
G1 X55.215 Y123.509 E7.42647
G1 X52.660 Y123.454 E7.46052
G1 X50.287 Y123.317 E7.49219
G1 X48.128 Y123.099 E7.52110
G1 X46.211 Y122.798 E7.54696
G1 X44.553 Y122.417 E7.56962
G1 X43.158 Y121.947 E7.58923
G1 X42.001 Y121.352 E7.60656
G1 X41.818 Y121.222 E7.60955
G1 X41.052 Y120.502 E7.62356
G1 X40.831 Y120.157 E7.62901
G1 X40.502 Y119.172 E7.64285
G1 X40.502 Y118.635 E7.65000
G1 X40.831 Y117.650 E7.66384
G1 X41.052 Y117.305 E7.66929
G1 X41.818 Y116.585 E7.68330
G1 X42.001 Y116.455 E7.68629
G1 X43.157 Y115.861 E7.70361
G1 X44.553 Y115.391 E7.72323
G1 X46.211 Y115.009 E7.74589
G1 X48.083 Y114.714 E7.77114
G1 X50.477 Y114.479 E7.80319
G1 X50.486 Y114.636 F9000.000
G1 X52.665 Y114.511 E7.83227 F1800.000
G1 X55.215 Y114.455 E7.86625
G1 X57.645 Y114.468 E7.89863 F1800.000
G1 X60.709 Y114.566 E7.93946
G1 X63.569 Y114.716 E7.97762
G1 X66.448 Y114.914 E8.01606
G1 X69.292 Y115.150 E8.05408
G1 X72.083 Y115.414 E8.09143
G1 X77.269 Y115.979 E8.16093
G1 X81.684 Y116.532 E8.22021
G1 X86.419 Y117.203 E8.28392
G1 X87.143 Y118.043 E8.29870
G1 X87.143 Y119.764 E8.32162
G1 X86.418 Y120.604 E8.33640
G1 X81.679 Y121.276 E8.40018
G1 X77.269 Y121.829 E8.45940
G1 X74.753 Y122.114 E8.49313
G1 X72.077 Y122.394 E8.52897
G1 X69.292 Y122.657 E8.56624
G1 X66.448 Y122.893 E8.60426
G1 X63.569 Y123.091 E8.64270
G1 X60.709 Y123.241 E8.68086
G1 X57.910 Y123.331 E8.71817
G1 X55.215 Y123.352 E8.75407
G1 X52.665 Y123.297 E8.78805
G1 X50.298 Y123.161 E8.81964
G1 X48.146 Y122.943 E8.84846
G1 X46.185 Y122.633 E8.87490
G1 X44.520 Y122.244 E8.89768
G1 X43.107 Y121.754 E8.91760
G1 X42.083 Y121.218 E8.93300
G1 X41.918 Y121.100 E8.93571
G1 X41.174 Y120.401 E8.94931
G1 X40.974 Y120.089 E8.95425
G1 X40.659 Y119.147 E8.96748
G1 X40.659 Y118.661 E8.97396
G1 X40.974 Y117.718 E8.98720
G1 X41.174 Y117.406 E8.99213
G1 X41.918 Y116.707 E9.00573
G1 X42.083 Y116.590 E9.00844
G1 X43.214 Y116.007 E9.02538
G1 X44.592 Y115.543 E9.04476
G1 X46.238 Y115.164 E9.06725
G1 X48.105 Y114.870 E9.09244
G1 X50.426 Y114.639 E9.12351
G1 X50.435 Y114.796 F9000.000
G1 X52.670 Y114.668 E9.15333 F1800.000
G1 X55.542 Y114.615 E9.19161
G1 X57.705 Y114.627 E9.22041 F1800.000
G1 X60.701 Y114.723 E9.26036
G1 X63.559 Y114.873 E9.29848
G1 X66.435 Y115.071 E9.33689
G1 X69.286 Y115.307 E9.37500
G1 X72.067 Y115.570 E9.41221
G1 X77.250 Y116.135 E9.48167
G1 X81.663 Y116.688 E9.54093
G1 X86.338 Y117.350 E9.60383
G1 X86.986 Y118.102 E9.61705
G1 X86.986 Y119.706 E9.63842
G1 X86.338 Y120.457 E9.65165
G1 X81.659 Y121.120 E9.71461
G1 X77.250 Y121.673 E9.77380
G1 X74.735 Y121.958 E9.80751
G1 X72.061 Y122.238 E9.84333
G1 X69.278 Y122.501 E9.88058
G1 X66.435 Y122.736 E9.91858
G1 X63.559 Y122.935 E9.95699
G1 X60.701 Y123.084 E9.99512
G1 X57.906 Y123.174 E10.03238
G1 X55.215 Y123.195 E10.06823
G1 X52.670 Y123.140 E10.10214
G1 X50.308 Y123.004 E10.13366
G1 X48.164 Y122.786 E10.16237
G1 X46.218 Y122.480 E10.18861
G1 X44.567 Y122.094 E10.21120
G1 X43.175 Y121.612 E10.23083
G1 X42.166 Y121.084 E10.24601
G1 X42.018 Y120.978 E10.24842
G1 X41.296 Y120.300 E10.26163
G1 X41.117 Y120.021 E10.26604
G1 X40.816 Y119.121 E10.27868
G1 X40.816 Y118.686 E10.28447
G1 X41.117 Y117.787 E10.29711
G1 X41.296 Y117.508 E10.30153
G1 X42.018 Y116.829 E10.31473
G1 X42.166 Y116.724 E10.31715
G1 X43.270 Y116.154 E10.33370
G1 X44.631 Y115.695 E10.35284
G1 X46.265 Y115.319 E10.37517
G1 X48.128 Y115.025 E10.40030
G1 X50.375 Y114.800 E10.43039
G1 X50.384 Y114.956 F9000.000
G1 X52.675 Y114.825 E10.46096 F1800.000
G1 X55.215 Y114.769 E10.49481
G1 X57.764 Y114.786 E10.52876 F1800.000
G1 X60.694 Y114.880 E10.56782
G1 X63.549 Y115.029 E10.60590
G1 X66.415 Y115.227 E10.64418
G1 X69.265 Y115.463 E10.68228
G1 X72.051 Y115.726 E10.71956
G1 X77.231 Y116.291 E10.78898
G1 X81.642 Y116.844 E10.84821
G1 X86.257 Y117.497 E10.91030
G1 X86.829 Y118.160 E10.92197
G1 X86.829 Y119.647 E10.94178
G1 X86.257 Y120.310 E10.95345
G1 X83.467 Y120.715 E10.99101
G1 X79.551 Y121.234 E11.04363
G1 X74.713 Y121.803 E11.10854
G1 X72.046 Y122.082 E11.14426
G1 X69.265 Y122.344 E11.18148
G1 X66.415 Y122.580 E11.21958
G1 X63.549 Y122.778 E11.25785
G1 X60.694 Y122.927 E11.29594
G1 X57.902 Y123.017 E11.33316
G1 X55.215 Y123.038 E11.36895
G1 X52.675 Y122.983 E11.40280
G1 X50.319 Y122.847 E11.43423
G1 X48.182 Y122.630 E11.46285
G1 X46.251 Y122.326 E11.48890
G1 X44.671 Y121.960 E11.51050
G1 X43.242 Y121.470 E11.53062
G1 X42.248 Y120.949 E11.54557
G1 X42.118 Y120.857 E11.54771
G1 X41.417 Y120.199 E11.56051
G1 X41.260 Y119.952 E11.56441
G1 X40.973 Y119.095 E11.57644
G1 X40.973 Y118.712 E11.58155
G1 X41.260 Y117.855 E11.59359
G1 X41.417 Y117.609 E11.59749
G1 X42.118 Y116.951 E11.61029
G1 X42.248 Y116.858 E11.61242
G1 X43.326 Y116.301 E11.62859
G1 X44.671 Y115.847 E11.64749
G1 X46.292 Y115.473 E11.66966
G1 X48.150 Y115.181 E11.69472
G1 X50.324 Y114.960 E11.72383
G1 X50.333 Y115.117 F9000.000
G1 X52.680 Y114.982 E11.75514 F1800.000
G1 X55.540 Y114.929 E11.79326
G1 X57.823 Y114.945 E11.82368 F1800.000
G1 X60.686 Y115.037 E11.86184
G1 X63.539 Y115.186 E11.89989
G1 X66.403 Y115.384 E11.93815
G1 X69.251 Y115.619 E11.97622
G1 X72.035 Y115.882 E12.01347
G1 X77.213 Y116.447 E12.08285
G1 X81.621 Y116.999 E12.14205
