; generated by Slic3r 1.3.1-dev (Build (Unknown revision)) on 2020-02-28 at 13:01:27

; external perimeters extrusion width = 0.44mm (1.51mm^3/s)
; perimeters extrusion width = 0.56mm (2.15mm^3/s)
; infill extrusion width = 0.50mm (1.91mm^3/s)
; solid infill extrusion width = 0.56mm (1.62mm^3/s)
; top infill extrusion width = 0.56mm (1.62mm^3/s)

M107
G92 E0
;D3D:START:START
T0
M104 S215 T0

G21
G90
M107
T0
G28
G29
M109 T0 S215 T0
G0 F3000
M107
T0
G92 E0
G0 X0 Y149 Z0.1 F3600
G1 Y49 E6.5 F1200
G0 Z1
G92 E0
; Filament gcode

G21 ; set units to millimeters
G90 ; use absolute coordinates
M82 ; use absolute distances for extrusion
G92 E0
G1 Z0.300 F7800.000
G1 E-2.00000 F2400.00000
G92 E0
G1 X88.535 Y97.395 F7800.000
G1 E2.00000 F2400.00000
G1 F1800.000
G1 X88.769 Y97.225 E2.00870
G1 X89.022 Y97.086 E2.01740
G1 X89.290 Y96.980 E2.02609
G1 X89.570 Y96.908 E2.03480
G1 X89.856 Y96.872 E2.04350
G1 X90.144 Y96.872 E2.05219
G1 X90.430 Y96.908 E2.06089
G1 X90.710 Y96.980 E2.06959
G1 X90.978 Y97.086 E2.07829
G1 X91.231 Y97.225 E2.08699
G1 X91.465 Y97.395 E2.09569
G1 X91.675 Y97.592 E2.10438
G1 X91.859 Y97.814 E2.11308
G1 X92.013 Y98.058 E2.12178
G1 X92.136 Y98.319 E2.13048
G1 X92.225 Y98.594 E2.13918
G1 X92.280 Y98.877 E2.14788
G1 X92.298 Y99.165 E2.15658
G1 X92.280 Y99.453 E2.16528
G1 X92.225 Y99.736 E2.17398
G1 X92.136 Y100.011 E2.18267
G1 X92.013 Y100.272 E2.19137
G1 X91.859 Y100.516 E2.20007
G1 X91.675 Y100.738 E2.20877
G1 X91.465 Y100.935 E2.21747
G1 X91.231 Y101.105 E2.22617
G1 X90.978 Y101.244 E2.23487
G1 X90.710 Y101.350 E2.24356
G1 X90.430 Y101.422 E2.25227
G1 X90.144 Y101.458 E2.26096
G1 X89.856 Y101.458 E2.26966
G1 X89.570 Y101.422 E2.27836
G1 X89.290 Y101.350 E2.28706
G1 X89.022 Y101.244 E2.29576
G1 X88.769 Y101.105 E2.30445
G1 X88.535 Y100.935 E2.31315
G1 X88.325 Y100.738 E2.32185
G1 X88.141 Y100.516 E2.33055
G1 X87.987 Y100.272 E2.33925
G1 X87.864 Y100.011 E2.34795
G1 X87.775 Y99.736 E2.35664
G1 X87.720 Y99.453 E2.36535
G1 X87.702 Y99.165 E2.37405
G1 X87.720 Y98.877 E2.38274
G1 X87.775 Y98.594 E2.39145
G1 X87.864 Y98.319 E2.40014
G1 X87.987 Y98.058 E2.40884
G1 X88.141 Y97.814 E2.41754
G1 X88.325 Y97.592 E2.42624
G1 X88.492 Y97.436 E2.43313
G1 X88.705 Y97.600 F7800.000
G1 F1800.000
G1 X88.912 Y97.450 E2.44082
G1 X89.135 Y97.327 E2.44851
G1 X89.372 Y97.233 E2.45620
G1 X89.619 Y97.169 E2.46389
G1 X89.872 Y97.138 E2.47158
G1 X90.128 Y97.138 E2.47927
G1 X90.381 Y97.169 E2.48696
G1 X90.628 Y97.233 E2.49466
G1 X90.865 Y97.327 E2.50235
G1 X91.088 Y97.450 E2.51004
G1 X91.295 Y97.600 E2.51773
G1 X91.481 Y97.774 E2.52542
G1 X91.643 Y97.971 E2.53311
G1 X91.780 Y98.186 E2.54080
G1 X91.889 Y98.417 E2.54849
G1 X91.968 Y98.660 E2.55618
G1 X92.015 Y98.910 E2.56388
G1 X92.031 Y99.165 E2.57157
G1 X92.015 Y99.420 E2.57926
G1 X91.968 Y99.670 E2.58695
G1 X91.889 Y99.913 E2.59464
G1 X91.780 Y100.144 E2.60233
G1 X91.643 Y100.359 E2.61003
G1 X91.481 Y100.556 E2.61772
G1 X91.295 Y100.730 E2.62540
G1 X91.088 Y100.880 E2.63310
G1 X90.865 Y101.003 E2.64079
G1 X90.628 Y101.097 E2.64848
G1 X90.381 Y101.161 E2.65617
G1 X90.128 Y101.192 E2.66386
G1 X89.872 Y101.192 E2.67155
G1 X89.619 Y101.161 E2.67924
G1 X89.372 Y101.097 E2.68694
G1 X89.135 Y101.003 E2.69463
G1 X88.912 Y100.880 E2.70231
G1 X88.705 Y100.730 E2.71001
G1 X88.519 Y100.556 E2.71770
G1 X88.357 Y100.359 E2.72539
G1 X88.220 Y100.144 E2.73308
G1 X88.111 Y99.913 E2.74077
G1 X88.032 Y99.670 E2.74846
G1 X87.985 Y99.420 E2.75615
G1 X87.969 Y99.165 E2.76384
G1 X87.985 Y98.910 E2.77154
G1 X88.032 Y98.660 E2.77923
G1 X88.111 Y98.417 E2.78692
G1 X88.220 Y98.186 E2.79461
G1 X88.357 Y97.971 E2.80230
G1 X88.519 Y97.774 E2.80999
G1 X88.661 Y97.641 E2.81587
G1 X88.875 Y97.805 F7800.000
G1 F1800.000
G1 X89.054 Y97.675 E2.82256
G1 X89.248 Y97.568 E2.82924
G1 X89.454 Y97.486 E2.83592
G1 X89.669 Y97.431 E2.84261
G1 X89.889 Y97.403 E2.84929
G1 X90.111 Y97.403 E2.85598
G1 X90.331 Y97.431 E2.86266
G1 X90.546 Y97.486 E2.86934
G1 X90.752 Y97.568 E2.87602
G1 X90.946 Y97.675 E2.88271
G1 X91.125 Y97.805 E2.88939
G1 X91.287 Y97.957 E2.89607
G1 X91.428 Y98.127 E2.90276
G1 X91.547 Y98.315 E2.90944
G1 X91.641 Y98.515 E2.91613
G1 X91.710 Y98.726 E2.92281
G1 X91.751 Y98.944 E2.92949
G1 X91.765 Y99.165 E2.93618
G1 X91.751 Y99.386 E2.94286
G1 X91.710 Y99.604 E2.94954
G1 X91.641 Y99.815 E2.95623
G1 X91.547 Y100.015 E2.96291
G1 X91.428 Y100.203 E2.96960
G1 X91.287 Y100.373 E2.97628
G1 X91.125 Y100.525 E2.98296
G1 X90.946 Y100.655 E2.98965
G1 X90.752 Y100.762 E2.99633
G1 X90.546 Y100.844 E3.00301
G1 X90.331 Y100.899 E3.00970
G1 X90.111 Y100.927 E3.01638
G1 X89.889 Y100.927 E3.02306
G1 X89.669 Y100.899 E3.02974
G1 X89.454 Y100.844 E3.03643
G1 X89.248 Y100.762 E3.04311
G1 X89.054 Y100.655 E3.04980
G1 X88.875 Y100.525 E3.05648
G1 X88.713 Y100.373 E3.06316
G1 X88.572 Y100.203 E3.06984
G1 X88.453 Y100.015 E3.07653
G1 X88.359 Y99.815 E3.08321
G1 X88.290 Y99.604 E3.08990
G1 X88.249 Y99.386 E3.09658
G1 X88.235 Y99.165 E3.10326
G1 X88.249 Y98.944 E3.10995
G1 X88.290 Y98.726 E3.11663
G1 X88.359 Y98.515 E3.12331
G1 X88.453 Y98.315 E3.13000
G1 X88.572 Y98.127 E3.13668
G1 X88.831 Y97.846 E3.14822
G1 X88.838 Y97.586 F7800.000
G1 E1.14822 F2400.00000
G92 E0
G1 X89.856 Y87.293 F7800.000
G1 E2.00000 F2400.00000
G1 F1800.000
G1 X89.570 Y87.257 E2.00870
G1 X89.290 Y87.185 E2.01740
G1 X89.022 Y87.079 E2.02610
G1 X88.769 Y86.940 E2.03480
G1 X88.535 Y86.770 E2.04350
G1 X88.325 Y86.573 E2.05219
G1 X88.141 Y86.351 E2.06089
G1 X87.987 Y86.107 E2.06960
G1 X87.864 Y85.846 E2.07829
G1 X87.775 Y85.571 E2.08699
G1 X87.720 Y85.288 E2.09569
G1 X87.702 Y85.000 E2.10439
G1 X87.720 Y84.712 E2.11309
G1 X87.775 Y84.429 E2.12179
G1 X87.864 Y84.154 E2.13048
G1 X87.987 Y83.893 E2.13918
G1 X88.141 Y83.649 E2.14788
G1 X88.325 Y83.427 E2.15658
G1 X88.535 Y83.230 E2.16528
G1 X88.769 Y83.060 E2.17398
G1 X89.022 Y82.921 E2.18268
G1 X89.290 Y82.815 E2.19137
G1 X89.569 Y82.743 E2.20007
G1 X89.856 Y82.707 E2.20877
G1 X90.144 Y82.707 E2.21747
G1 X90.431 Y82.743 E2.22617
G1 X90.710 Y82.815 E2.23487
G1 X90.978 Y82.921 E2.24357
G1 X91.231 Y83.060 E2.25226
G1 X91.465 Y83.230 E2.26097
G1 X91.675 Y83.427 E2.26966
G1 X91.859 Y83.649 E2.27836
G1 X92.013 Y83.893 E2.28706
G1 X92.136 Y84.154 E2.29576
G1 X92.225 Y84.429 E2.30445
G1 X92.280 Y84.712 E2.31315
G1 X92.298 Y85.000 E2.32186
G1 X92.280 Y85.288 E2.33055
G1 X92.225 Y85.571 E2.33926
G1 X92.136 Y85.846 E2.34795
G1 X92.013 Y86.107 E2.35665
G1 X91.859 Y86.351 E2.36535
G1 X91.675 Y86.573 E2.37405
G1 X91.465 Y86.770 E2.38275
G1 X91.231 Y86.940 E2.39145
G1 X90.978 Y87.079 E2.40014
G1 X90.710 Y87.185 E2.40884
G1 X90.430 Y87.257 E2.41754
G1 X90.144 Y87.293 E2.42624
G1 X89.916 Y87.293 E2.43313
G1 X89.872 Y87.027 F7800.000
G1 F1800.000
G1 X89.619 Y86.996 E2.44082
G1 X89.372 Y86.932 E2.44851
G1 X89.135 Y86.838 E2.45620
G1 X88.912 Y86.715 E2.46389
G1 X88.705 Y86.565 E2.47158
G1 X88.519 Y86.391 E2.47927
G1 X88.357 Y86.194 E2.48696
G1 X88.220 Y85.979 E2.49466
G1 X88.111 Y85.748 E2.50235
G1 X88.032 Y85.505 E2.51004
G1 X87.985 Y85.255 E2.51773
G1 X87.969 Y85.000 E2.52542
G1 X87.985 Y84.745 E2.53311
G1 X88.032 Y84.495 E2.54081
G1 X88.111 Y84.252 E2.54849
G1 X88.220 Y84.021 E2.55619
G1 X88.357 Y83.806 E2.56388
G1 X88.519 Y83.609 E2.57157
G1 X88.705 Y83.435 E2.57926
G1 X88.912 Y83.285 E2.58695
G1 X89.135 Y83.162 E2.59464
G1 X89.372 Y83.068 E2.60233
G1 X89.619 Y83.005 E2.61002
G1 X89.872 Y82.973 E2.61771
G1 X90.128 Y82.973 E2.62541
G1 X90.381 Y83.005 E2.63310
G1 X90.628 Y83.068 E2.64079
G1 X90.865 Y83.162 E2.64848
G1 X91.088 Y83.285 E2.65617
G1 X91.295 Y83.435 E2.66386
G1 X91.481 Y83.609 E2.67155
G1 X91.643 Y83.806 E2.67924
G1 X91.780 Y84.021 E2.68694
G1 X91.889 Y84.252 E2.69463
G1 X91.968 Y84.495 E2.70232
G1 X92.015 Y84.745 E2.71001
G1 X92.031 Y85.000 E2.71770
G1 X92.015 Y85.255 E2.72539
G1 X91.968 Y85.505 E2.73308
G1 X91.889 Y85.748 E2.74077
G1 X91.780 Y85.979 E2.74846
G1 X91.643 Y86.194 E2.75616
G1 X91.481 Y86.391 E2.76385
G1 X91.295 Y86.565 E2.77154
G1 X91.088 Y86.715 E2.77923
G1 X90.865 Y86.838 E2.78692
G1 X90.628 Y86.932 E2.79461
G1 X90.381 Y86.996 E2.80230
G1 X90.128 Y87.027 E2.80999
G1 X89.932 Y87.027 E2.81587
G1 X89.889 Y86.762 F7800.000
G1 F1800.000
G1 X89.669 Y86.734 E2.82256
G1 X89.454 Y86.679 E2.82924
G1 X89.248 Y86.597 E2.83592
G1 X89.054 Y86.490 E2.84261
G1 X88.875 Y86.360 E2.84929
G1 X88.713 Y86.208 E2.85597
G1 X88.572 Y86.038 E2.86266
G1 X88.453 Y85.850 E2.86934
G1 X88.359 Y85.650 E2.87602
G1 X88.290 Y85.439 E2.88271
G1 X88.249 Y85.221 E2.88939
G1 X88.235 Y85.000 E2.89608
G1 X88.249 Y84.779 E2.90276
G1 X88.290 Y84.561 E2.90944
G1 X88.359 Y84.350 E2.91613
G1 X88.453 Y84.150 E2.92281
G1 X88.572 Y83.962 E2.92949
G1 X88.713 Y83.792 E2.93618
G1 X88.875 Y83.640 E2.94286
G1 X89.054 Y83.509 E2.94954
G1 X89.248 Y83.403 E2.95623
G1 X89.455 Y83.321 E2.96291
G1 X89.669 Y83.266 E2.96959
G1 X89.889 Y83.238 E2.97628
G1 X90.111 Y83.238 E2.98296
G1 X90.331 Y83.266 E2.98964
G1 X90.545 Y83.321 E2.99633
G1 X90.752 Y83.403 E3.00301
G1 X90.946 Y83.509 E3.00969
G1 X91.125 Y83.640 E3.01638
G1 X91.287 Y83.792 E3.02306
G1 X91.428 Y83.962 E3.02974
G1 X91.547 Y84.150 E3.03643
G1 X91.641 Y84.350 E3.04311
G1 X91.710 Y84.561 E3.04979
G1 X91.751 Y84.779 E3.05648
G1 X91.765 Y85.000 E3.06316
G1 X91.751 Y85.221 E3.06985
G1 X91.710 Y85.439 E3.07653
G1 X91.641 Y85.650 E3.08321
G1 X91.547 Y85.850 E3.08990
G1 X91.428 Y86.038 E3.09658
G1 X91.287 Y86.208 E3.10327
G1 X91.125 Y86.360 E3.10995
G1 X90.946 Y86.490 E3.11663
G1 X90.752 Y86.597 E3.12331
G1 X90.546 Y86.679 E3.13000
G1 X90.331 Y86.734 E3.13668
G1 X89.949 Y86.762 E3.14822
G1 X89.767 Y86.946 F7800.000
G1 E1.14822 F2400.00000
G92 E0
G1 X97.804 Y96.451 F7800.000
G1 E2.00000 F2400.00000
G1 F1800.000
G1 X123.964 Y108.178 E2.86428
G1 X123.937 Y108.304 E2.86817
G1 X78.252 Y108.304 E4.24547
G1 X79.196 Y96.027 E4.61669
G1 X79.196 Y80.696 E5.07887
G1 X97.804 Y80.696 E5.63985
G1 X97.804 Y96.391 E6.11301
G1 X98.069 Y96.279 F7800.000
G1 F1800.000
G1 X125.069 Y108.382 E7.00505
G1 X125.069 Y108.569 E7.01069
G1 X77.965 Y108.569 E8.43079
G1 X78.931 Y96.017 E8.81034
G1 X78.931 Y80.431 E9.28023
G1 X98.069 Y80.431 E9.85722
G1 X98.069 Y96.219 E10.33320
G1 X98.335 Y96.107 F7800.000
G1 F1800.000
G1 X125.335 Y108.210 E11.22524
G1 X125.335 Y108.835 E11.24407
G1 X77.678 Y108.835 E12.68082
G1 X78.665 Y96.006 E13.06872
G1 X78.665 Y80.165 E13.54631
G1 X98.335 Y80.165 E14.13932
G1 X98.335 Y96.047 E14.61812
G1 X98.341 Y96.507 F7800.000
G1 E12.61812 F2400.00000
G92 E0
G1 X92.253 Y100.269 F7800.000
G1 E2.00000 F2400.00000
G1 F1800.000
G1 X97.641 Y94.881 E2.23094
G1 X97.641 Y94.504 E2.24238
G1 X92.413 Y99.732 E2.46648
G1 X92.458 Y99.310 E2.47935
G1 X97.641 Y94.126 E2.70153
G1 X97.641 Y93.748 E2.71297
G1 X92.440 Y98.949 E2.93590
G1 X92.380 Y98.632 E2.94569
G1 X97.641 Y93.371 E3.17120
G1 X97.641 Y92.993 E3.18264
G1 X92.288 Y98.347 E3.41212
G1 X92.169 Y98.088 E3.42075
G1 X97.641 Y92.615 E3.65531
G1 X97.641 Y92.238 E3.66675
G1 X92.028 Y97.851 E3.90735
G1 X91.866 Y97.635 E3.91553
G1 X97.641 Y91.860 E4.16306
G1 X97.641 Y91.483 E4.17450
G1 X91.686 Y97.438 E4.42977
G1 X91.486 Y97.260 E4.43788
G1 X97.641 Y91.105 E4.70171
G1 X97.641 Y90.727 E4.71316
G1 X91.267 Y97.102 E4.98638
G1 X91.023 Y96.968 E4.99480
G1 X97.641 Y90.350 E5.27847
G1 X97.641 Y89.972 E5.28991
G1 X90.757 Y96.857 E5.58501
G1 X90.464 Y96.772 E5.59425
G1 X97.641 Y89.594 E5.90190
G1 X97.641 Y89.217 E5.91334
G1 X90.138 Y96.720 E6.23493
G1 X89.771 Y96.710 E6.24608
G1 X97.641 Y88.839 E6.58342
G1 X97.641 Y88.461 E6.59486
G1 X89.331 Y96.772 E6.95105
G1 X89.104 Y96.830 E6.95815
G1 X88.742 Y96.983 E6.97007
G1 X97.641 Y88.084 E7.35151
G1 X97.641 Y87.706 E7.36296
G1 X78.538 Y106.810 E8.18177
G1 X78.569 Y106.401 E8.19420
G1 X97.641 Y87.329 E9.01166
G1 X97.641 Y86.951 E9.02311
G1 X78.601 Y105.992 E9.83922
G1 X78.632 Y105.583 E9.85165
G1 X97.641 Y86.573 E10.66641
G1 X97.641 Y86.196 E10.67786
G1 X78.664 Y105.173 E11.49127
G1 X78.695 Y104.764 E11.50371
G1 X97.641 Y85.818 E12.31577
G1 X97.641 Y85.440 E12.32722
G1 X78.727 Y104.355 E13.13793
G1 X78.758 Y103.946 E13.15037
G1 X97.641 Y85.063 E13.95973
G1 X97.641 Y84.685 E13.97118
G1 X78.790 Y103.537 E14.77920
G1 X78.821 Y103.128 E14.79163
G1 X97.641 Y84.308 E15.59830
G1 X97.641 Y83.930 E15.60974
G1 X78.852 Y102.719 E16.41506
G1 X78.884 Y102.310 E16.42750
G1 X97.641 Y83.552 E17.23147
G1 X97.641 Y83.175 E17.24292
G1 X78.915 Y101.901 E18.04554
G1 X78.947 Y101.492 E18.05797
G1 X97.641 Y82.797 E18.85925
G1 X97.641 Y82.419 E18.87069
G1 X78.978 Y101.082 E19.67062
G1 X79.010 Y100.673 E19.68305
G1 X97.641 Y82.042 E20.48163
G1 X97.641 Y81.664 E20.49307
G1 X79.041 Y100.264 E21.29030
G1 X79.073 Y99.855 E21.30274
G1 X97.641 Y81.286 E22.09861
G1 X97.641 Y80.909 E22.11006
G1 X92.024 Y86.526 E22.35082
G1 X92.143 Y86.338 E22.35757
G1 X92.280 Y86.047 E22.36732
G1 X92.355 Y85.818 E22.37463
G1 X97.314 Y80.859 E22.58719
G1 X96.937 Y80.859 E22.59863
G1 X92.445 Y85.350 E22.79115
G1 X92.452 Y84.966 E22.80280
G1 X96.559 Y80.859 E22.97884
G1 X96.181 Y80.859 E22.99028
G1 X92.411 Y84.629 E23.15188
G1 X92.335 Y84.327 E23.16131
G1 X95.804 Y80.859 E23.30998
G1 X95.426 Y80.859 E23.32143
G1 X92.231 Y84.054 E23.45838
G1 X92.103 Y83.804 E23.46689
G1 X95.048 Y80.859 E23.59314
G1 X94.671 Y80.859 E23.60459
G1 X91.954 Y83.576 E23.72105
G1 X91.783 Y83.369 E23.72917
G1 X94.293 Y80.859 E23.83678
G1 X93.915 Y80.859 E23.84822
G1 X91.590 Y83.184 E23.94788
G1 X91.379 Y83.017 E23.95603
G1 X93.538 Y80.859 E24.04857
G1 X93.160 Y80.859 E24.06001
G1 X91.148 Y82.871 E24.14627
G1 X90.895 Y82.746 E24.15482
G1 X92.783 Y80.859 E24.23574
G1 X92.405 Y80.859 E24.24719
G1 X90.617 Y82.647 E24.32382
G1 X90.309 Y82.576 E24.33338
G1 X92.027 Y80.859 E24.40701
G1 X91.650 Y80.859 E24.41846
G1 X89.964 Y82.545 E24.49073
G1 X89.564 Y82.566 E24.50285
G1 X91.272 Y80.859 E24.57604
G1 X90.894 Y80.859 E24.58749
G1 X89.077 Y82.676 E24.66538
G1 X88.805 Y82.784 E24.67424
G1 X88.523 Y82.939 E24.68400
G1 X88.262 Y83.128 E24.69376
G1 X88.028 Y83.348 E24.70352
G1 X87.823 Y83.596 E24.71327
G1 X87.650 Y83.868 E24.72303
G1 X87.474 Y84.279 E24.73656
G1 X79.359 Y92.394 E25.08442
G1 X79.359 Y92.017 E25.09586
G1 X90.517 Y80.859 E25.57412
G1 X90.139 Y80.859 E25.58556
G1 X79.359 Y91.639 E26.04764
G1 X79.359 Y91.262 E26.05908
G1 X89.762 Y80.859 E26.50497
G1 X89.384 Y80.859 E26.51641
G1 X79.359 Y90.884 E26.94611
G1 X79.359 Y90.506 E26.95755
G1 X89.006 Y80.859 E27.37107
G1 X88.629 Y80.859 E27.38251
G1 X79.359 Y90.129 E27.77984
G1 X79.359 Y89.751 E27.79129
G1 X88.251 Y80.859 E28.17243
G1 X87.873 Y80.859 E28.18387
G1 X79.359 Y89.373 E28.54883
G1 X79.359 Y88.996 E28.56027
G1 X87.496 Y80.859 E28.90904
G1 X87.118 Y80.859 E28.92049
G1 X79.359 Y88.618 E29.25307
G1 X79.359 Y88.240 E29.26452
G1 X86.740 Y80.859 E29.58092
G1 X86.363 Y80.859 E29.59236
G1 X79.359 Y87.863 E29.89258
G1 X79.359 Y87.485 E29.90402
G1 X85.985 Y80.859 E30.18805
G1 X85.608 Y80.859 E30.19949
G1 X79.359 Y87.108 E30.46733
G1 X79.359 Y86.730 E30.47878
G1 X85.230 Y80.859 E30.73044
G1 X84.852 Y80.859 E30.74188
G1 X79.359 Y86.352 E30.97735
G1 X79.359 Y85.975 E30.98880
G1 X84.475 Y80.859 E31.20808
G1 X84.097 Y80.859 E31.21952
G1 X79.359 Y85.597 E31.42262
G1 X79.359 Y85.219 E31.43407
G1 X83.719 Y80.859 E31.62098
G1 X83.342 Y80.859 E31.63243
G1 X79.359 Y84.842 E31.80315
G1 X79.359 Y84.464 E31.81460
G1 X82.964 Y80.859 E31.96914
G1 X82.587 Y80.859 E31.98058
G1 X79.359 Y84.087 E32.11894
G1 X79.359 Y83.709 E32.13038
G1 X82.209 Y80.859 E32.25255
G1 X81.831 Y80.859 E32.26400
G1 X79.359 Y83.331 E32.36998
G1 X79.359 Y82.954 E32.38143
G1 X81.454 Y80.859 E32.47122
G1 X81.076 Y80.859 E32.48267
G1 X79.359 Y82.576 E32.55628
G1 X79.359 Y82.198 E32.56773
G1 X80.698 Y80.859 E32.62515
G1 X80.321 Y80.859 E32.63660
G1 X79.359 Y81.821 E32.67784
G1 X79.359 Y81.443 E32.68928
G1 X79.943 Y80.859 E32.71434
G1 X79.565 Y80.859 E32.72578
G1 X79.359 Y81.065 E32.73464
G1 E30.73464 F2400.00000
G92 E0
G1 X79.359 Y92.394 F7800.000
G1 E2.00000 F2400.00000
G1 F1800.000
G1 X79.359 Y92.772 E2.01145
G1 X87.561 Y84.570 E2.36301
G1 X87.544 Y84.964 E2.37498
G1 X79.359 Y93.150 E2.72581
G1 X79.359 Y93.527 E2.73725
G1 X87.577 Y85.309 E3.08951
G1 X87.647 Y85.617 E3.09908
G1 X79.359 Y93.905 E3.45433
