; generated by Slic3r 1.3.1-dev (Build adea0d9) on 2020-03-04 at 16:31:16

; external perimeters extrusion width = 0.44mm (2.86mm^3/s)
; perimeters extrusion width = 0.56mm (4.14mm^3/s)
; infill extrusion width = 0.50mm (3.66mm^3/s)
; solid infill extrusion width = 0.56mm (3.10mm^3/s)
; top infill extrusion width = 0.56mm (3.10mm^3/s)

M107
G92 E0
;D3D:START:START
T0
M104 S215 T0

G21
G90
M107
T0
G28
G29
M109 T0 S215 T0
G0 F3000
M107
T0
G92 E0
G0 X0 Y149 Z0.1 F3600
G1 Y49 E6.5 F1200
G0 Z1
G92 E0
; Filament gcode

G21 ; set units to millimeters
G90 ; use absolute coordinates
M82 ; use absolute distances for extrusion
G92 E0
G1 Z0.300 F7800.000
G1 E-2.00000 F2400.00000
G92 E0
G1 X53.073 Y115.032 F7800.000
G1 E2.00000 F2400.00000
G1 F1800.000
G1 X53.688 Y114.867 E2.01920
G1 X54.324 Y114.901 E2.03841
G1 X54.919 Y115.129 E2.05761
G1 X55.414 Y115.530 E2.07681
G1 X55.761 Y116.064 E2.09602
G1 X55.926 Y116.679 E2.11522
G1 X55.893 Y117.315 E2.13443
G1 X55.664 Y117.910 E2.15363
G1 X55.264 Y118.405 E2.17283
G1 X54.729 Y118.752 E2.19204
G1 X54.114 Y118.917 E2.21124
G1 X53.478 Y118.883 E2.23045
G1 X52.883 Y118.655 E2.24965
G1 X52.388 Y118.254 E2.26886
G1 X52.041 Y117.720 E2.28806
G1 X51.876 Y117.105 E2.30726
G1 X51.910 Y116.469 E2.32647
G1 X52.138 Y115.874 E2.34567
G1 X52.539 Y115.379 E2.36487
G1 X53.023 Y115.065 E2.38227
G1 X53.182 Y115.278 F7800.000
G1 F1800.000
G1 X53.716 Y115.135 E2.39894
G1 X54.269 Y115.164 E2.41561
G1 X54.785 Y115.362 E2.43227
G1 X55.214 Y115.710 E2.44894
G1 X55.515 Y116.173 E2.46561
G1 X55.659 Y116.707 E2.48228
G1 X55.630 Y117.259 E2.49894
G1 X55.431 Y117.776 E2.51561
G1 X55.084 Y118.205 E2.53228
G1 X54.620 Y118.506 E2.54895
G1 X54.086 Y118.649 E2.56561
G1 X53.534 Y118.620 E2.58228
G1 X53.018 Y118.422 E2.59895
G1 X52.588 Y118.074 E2.61561
G1 X52.287 Y117.611 E2.63228
G1 X52.144 Y117.077 E2.64895
G1 X52.173 Y116.525 E2.66562
G1 X52.371 Y116.008 E2.68228
G1 X52.719 Y115.579 E2.69895
G1 X53.132 Y115.310 E2.71381
G1 X53.224 Y114.880 F7800.000
G1 E0.71381 F2400.00000
G92 E0
G1 X45.712 Y143.473 F7800.000
G1 E2.00000 F2400.00000
G1 F1800.000
G1 X46.355 Y143.800 E2.02174
G1 X46.865 Y144.310 E2.04348
G1 X47.192 Y144.953 E2.06522
G1 X47.305 Y145.665 E2.08696
G1 X47.192 Y146.377 E2.10870
G1 X46.865 Y147.020 E2.13045
G1 X46.355 Y147.530 E2.15218
G1 X45.712 Y147.857 E2.17393
G1 X45.000 Y147.970 E2.19567
G1 X44.288 Y147.857 E2.21741
G1 X43.645 Y147.530 E2.23915
G1 X43.135 Y147.020 E2.26089
G1 X42.808 Y146.377 E2.28263
G1 X42.695 Y145.665 E2.30437
G1 X42.808 Y144.953 E2.32611
G1 X43.135 Y144.310 E2.34785
G1 X43.645 Y143.800 E2.36959
G1 X44.288 Y143.473 E2.39133
G1 X45.000 Y143.360 E2.41307
G1 X45.653 Y143.464 E2.43301
G1 X45.629 Y143.729 F7800.000
G1 F1800.000
G1 X46.197 Y144.018 E2.45221
G1 X46.647 Y144.468 E2.47141
G1 X46.936 Y145.036 E2.49062
G1 X47.036 Y145.665 E2.50982
G1 X46.936 Y146.294 E2.52903
G1 X46.647 Y146.862 E2.54823
G1 X46.197 Y147.312 E2.56743
G1 X45.629 Y147.601 E2.58664
G1 X45.000 Y147.701 E2.60584
G1 X44.371 Y147.601 E2.62505
G1 X43.803 Y147.312 E2.64425
G1 X43.353 Y146.862 E2.66345
G1 X43.064 Y146.294 E2.68266
G1 X42.964 Y145.665 E2.70186
G1 X43.064 Y145.036 E2.72107
G1 X43.353 Y144.468 E2.74027
G1 X43.803 Y144.018 E2.75947
G1 X44.371 Y143.729 E2.77868
G1 X45.000 Y143.629 E2.79788
G1 X45.570 Y143.719 E2.81528
G1 X45.546 Y143.984 F7800.000
G1 F1800.000
G1 X46.039 Y144.235 E2.83195
G1 X46.430 Y144.626 E2.84861
G1 X46.681 Y145.119 E2.86528
G1 X46.767 Y145.665 E2.88195
G1 X46.681 Y146.211 E2.89862
G1 X46.430 Y146.704 E2.91529
G1 X46.039 Y147.095 E2.93195
G1 X45.546 Y147.346 E2.94862
G1 X45.000 Y147.432 E2.96529
G1 X44.454 Y147.346 E2.98195
G1 X43.961 Y147.095 E2.99862
G1 X43.570 Y146.704 E3.01529
G1 X43.319 Y146.211 E3.03196
G1 X43.233 Y145.665 E3.04862
G1 X43.319 Y145.119 E3.06529
G1 X43.570 Y144.626 E3.08196
G1 X43.961 Y144.235 E3.09862
G1 X44.454 Y143.984 E3.11529
G1 X45.000 Y143.898 E3.13196
G1 X45.487 Y143.975 E3.14682
G1 X45.843 Y143.717 F7800.000
G1 E1.14682 F2400.00000
G92 E0
G1 X45.000 Y133.805 F7800.000
G1 E2.00000 F2400.00000
G1 F1800.000
G1 X44.288 Y133.692 E2.02174
G1 X43.645 Y133.365 E2.04348
G1 X43.135 Y132.855 E2.06522
G1 X42.808 Y132.212 E2.08696
G1 X42.695 Y131.500 E2.10870
G1 X42.808 Y130.788 E2.13044
G1 X43.135 Y130.145 E2.15219
G1 X43.645 Y129.635 E2.17392
G1 X44.288 Y129.308 E2.19567
G1 X45.000 Y129.195 E2.21741
G1 X45.712 Y129.308 E2.23915
G1 X46.355 Y129.635 E2.26089
G1 X46.865 Y130.145 E2.28263
G1 X47.192 Y130.788 E2.30437
G1 X47.305 Y131.500 E2.32611
G1 X47.192 Y132.212 E2.34785
G1 X46.865 Y132.855 E2.36959
G1 X46.355 Y133.365 E2.39133
G1 X45.712 Y133.692 E2.41307
G1 X45.059 Y133.796 E2.43301
G1 X45.000 Y133.536 F7800.000
G1 F1800.000
G1 X44.371 Y133.436 E2.45221
G1 X43.803 Y133.147 E2.47142
G1 X43.353 Y132.697 E2.49062
G1 X43.064 Y132.129 E2.50982
G1 X42.964 Y131.500 E2.52903
G1 X43.064 Y130.871 E2.54823
G1 X43.353 Y130.303 E2.56744
G1 X43.803 Y129.853 E2.58664
G1 X44.371 Y129.564 E2.60584
G1 X45.000 Y129.464 E2.62505
G1 X45.629 Y129.564 E2.64425
G1 X46.197 Y129.853 E2.66346
G1 X46.647 Y130.303 E2.68266
G1 X46.936 Y130.871 E2.70186
G1 X47.036 Y131.500 E2.72107
G1 X46.936 Y132.129 E2.74027
G1 X46.647 Y132.697 E2.75948
G1 X46.197 Y133.147 E2.77868
G1 X45.629 Y133.436 E2.79788
G1 X45.059 Y133.527 E2.81528
G1 X45.000 Y133.267 F7800.000
G1 F1800.000
G1 X44.454 Y133.181 E2.83195
G1 X43.961 Y132.930 E2.84862
G1 X43.570 Y132.539 E2.86528
G1 X43.319 Y132.046 E2.88195
G1 X43.233 Y131.500 E2.89862
G1 X43.319 Y130.954 E2.91528
G1 X43.570 Y130.461 E2.93195
G1 X43.961 Y130.070 E2.94862
G1 X44.454 Y129.819 E2.96529
G1 X45.000 Y129.733 E2.98195
G1 X45.546 Y129.819 E2.99862
G1 X46.039 Y130.070 E3.01529
G1 X46.430 Y130.461 E3.03195
G1 X46.681 Y130.954 E3.04862
G1 X46.767 Y131.500 E3.06529
G1 X46.681 Y132.046 E3.08196
G1 X46.430 Y132.539 E3.09863
G1 X46.039 Y132.930 E3.11529
G1 X45.546 Y133.181 E3.13196
G1 X45.059 Y133.258 E3.14682
G1 X44.800 Y133.613 F7800.000
G1 E1.14682 F2400.00000
G92 E0
G1 X45.000 Y117.305 F7800.000
G1 E2.00000 F2400.00000
G1 F1800.000
G1 X44.288 Y117.192 E2.02174
G1 X43.645 Y116.865 E2.04348
G1 X43.135 Y116.355 E2.06522
G1 X42.808 Y115.712 E2.08696
G1 X42.695 Y115.000 E2.10870
G1 X42.808 Y114.288 E2.13044
G1 X43.135 Y113.645 E2.15219
G1 X43.645 Y113.135 E2.17392
G1 X44.288 Y112.808 E2.19567
G1 X45.000 Y112.695 E2.21741
G1 X45.712 Y112.808 E2.23915
G1 X46.355 Y113.135 E2.26089
G1 X46.865 Y113.645 E2.28263
G1 X47.192 Y114.288 E2.30437
G1 X47.305 Y115.000 E2.32611
G1 X47.192 Y115.712 E2.34785
G1 X46.865 Y116.355 E2.36959
G1 X46.355 Y116.865 E2.39133
G1 X45.712 Y117.192 E2.41307
G1 X45.059 Y117.296 E2.43301
G1 X45.000 Y117.036 F7800.000
G1 F1800.000
G1 X44.371 Y116.936 E2.45221
G1 X43.803 Y116.647 E2.47142
G1 X43.353 Y116.197 E2.49062
G1 X43.064 Y115.629 E2.50982
G1 X42.964 Y115.000 E2.52903
G1 X43.064 Y114.371 E2.54823
G1 X43.353 Y113.803 E2.56744
G1 X43.803 Y113.353 E2.58664
G1 X44.371 Y113.064 E2.60584
G1 X45.000 Y112.964 E2.62505
G1 X45.629 Y113.064 E2.64425
G1 X46.197 Y113.353 E2.66346
G1 X46.647 Y113.803 E2.68266
G1 X46.936 Y114.371 E2.70186
G1 X47.036 Y115.000 E2.72107
G1 X46.936 Y115.629 E2.74027
G1 X46.647 Y116.197 E2.75948
G1 X46.197 Y116.647 E2.77868
G1 X45.629 Y116.936 E2.79788
G1 X45.059 Y117.027 E2.81528
G1 X45.000 Y116.767 F7800.000
G1 F1800.000
G1 X44.454 Y116.681 E2.83195
G1 X43.961 Y116.430 E2.84862
G1 X43.570 Y116.039 E2.86528
G1 X43.319 Y115.546 E2.88195
G1 X43.233 Y115.000 E2.89862
G1 X43.319 Y114.454 E2.91528
G1 X43.570 Y113.961 E2.93195
G1 X43.961 Y113.570 E2.94862
G1 X44.454 Y113.319 E2.96529
G1 X45.000 Y113.233 E2.98195
G1 X45.546 Y113.319 E2.99862
G1 X46.039 Y113.570 E3.01529
G1 X46.430 Y113.961 E3.03195
G1 X46.681 Y114.454 E3.04862
G1 X46.767 Y115.000 E3.06529
G1 X46.681 Y115.546 E3.08196
G1 X46.430 Y116.039 E3.09863
G1 X46.039 Y116.430 E3.11529
G1 X45.546 Y116.681 E3.13196
G1 X45.059 Y116.758 E3.14682
G1 X44.800 Y117.113 F7800.000
G1 E1.14682 F2400.00000
G92 E0
G1 X45.000 Y100.805 F7800.000
G1 E2.00000 F2400.00000
G1 F1800.000
G1 X44.288 Y100.692 E2.02174
G1 X43.645 Y100.365 E2.04348
G1 X43.135 Y99.855 E2.06522
G1 X42.808 Y99.212 E2.08696
G1 X42.695 Y98.500 E2.10870
G1 X42.808 Y97.788 E2.13044
G1 X43.135 Y97.145 E2.15219
G1 X43.645 Y96.635 E2.17392
G1 X44.288 Y96.308 E2.19567
G1 X45.000 Y96.195 E2.21741
G1 X45.712 Y96.308 E2.23915
G1 X46.355 Y96.635 E2.26089
G1 X46.865 Y97.145 E2.28263
G1 X47.192 Y97.788 E2.30437
G1 X47.305 Y98.500 E2.32611
G1 X47.192 Y99.212 E2.34785
G1 X46.865 Y99.855 E2.36959
G1 X46.355 Y100.365 E2.39133
G1 X45.712 Y100.692 E2.41307
G1 X45.059 Y100.796 E2.43301
G1 X45.000 Y100.536 F7800.000
G1 F1800.000
G1 X44.371 Y100.436 E2.45221
G1 X43.803 Y100.147 E2.47142
G1 X43.353 Y99.697 E2.49062
G1 X43.064 Y99.129 E2.50982
G1 X42.964 Y98.500 E2.52903
G1 X43.064 Y97.871 E2.54823
G1 X43.353 Y97.303 E2.56744
G1 X43.803 Y96.853 E2.58664
G1 X44.371 Y96.564 E2.60584
G1 X45.000 Y96.464 E2.62505
G1 X45.629 Y96.564 E2.64425
G1 X46.197 Y96.853 E2.66346
G1 X46.647 Y97.303 E2.68266
G1 X46.936 Y97.871 E2.70186
G1 X47.036 Y98.500 E2.72107
G1 X46.936 Y99.129 E2.74027
G1 X46.647 Y99.697 E2.75948
G1 X46.197 Y100.147 E2.77868
G1 X45.629 Y100.436 E2.79788
G1 X45.059 Y100.527 E2.81528
G1 X45.000 Y100.267 F7800.000
G1 F1800.000
G1 X44.454 Y100.181 E2.83195
G1 X43.961 Y99.930 E2.84862
G1 X43.570 Y99.539 E2.86528
G1 X43.319 Y99.046 E2.88195
G1 X43.233 Y98.500 E2.89862
G1 X43.319 Y97.954 E2.91528
G1 X43.570 Y97.461 E2.93195
G1 X43.961 Y97.070 E2.94862
G1 X44.454 Y96.819 E2.96529
G1 X45.000 Y96.733 E2.98195
G1 X45.546 Y96.819 E2.99862
G1 X46.039 Y97.070 E3.01529
G1 X46.430 Y97.461 E3.03195
G1 X46.681 Y97.954 E3.04862
G1 X46.767 Y98.500 E3.06529
G1 X46.681 Y99.046 E3.08196
G1 X46.430 Y99.539 E3.09863
G1 X46.039 Y99.930 E3.11529
G1 X45.546 Y100.181 E3.13196
G1 X45.059 Y100.258 E3.14682
G1 X44.800 Y100.613 F7800.000
G1 E1.14682 F2400.00000
G92 E0
G1 X45.000 Y86.640 F7800.000
G1 E2.00000 F2400.00000
G1 F1800.000
G1 X44.288 Y86.527 E2.02174
G1 X43.645 Y86.200 E2.04348
G1 X43.135 Y85.690 E2.06522
G1 X42.808 Y85.047 E2.08696
G1 X42.695 Y84.335 E2.10870
G1 X42.808 Y83.623 E2.13045
G1 X43.135 Y82.980 E2.15219
G1 X43.645 Y82.470 E2.17392
G1 X44.288 Y82.143 E2.19567
G1 X45.000 Y82.030 E2.21741
G1 X45.712 Y82.143 E2.23915
G1 X46.355 Y82.470 E2.26089
G1 X46.865 Y82.980 E2.28263
G1 X47.192 Y83.623 E2.30437
G1 X47.305 Y84.335 E2.32611
G1 X47.192 Y85.047 E2.34785
G1 X46.865 Y85.690 E2.36959
G1 X46.355 Y86.200 E2.39133
G1 X45.712 Y86.527 E2.41308
G1 X45.059 Y86.631 E2.43301
G1 X45.000 Y86.371 F7800.000
G1 F1800.000
G1 X44.371 Y86.271 E2.45221
G1 X43.803 Y85.982 E2.47142
G1 X43.353 Y85.532 E2.49062
G1 X43.064 Y84.964 E2.50982
G1 X42.964 Y84.335 E2.52903
G1 X43.064 Y83.706 E2.54823
G1 X43.353 Y83.138 E2.56744
G1 X43.803 Y82.688 E2.58664
G1 X44.371 Y82.399 E2.60584
G1 X45.000 Y82.299 E2.62505
G1 X45.629 Y82.399 E2.64425
G1 X46.197 Y82.688 E2.66346
G1 X46.647 Y83.138 E2.68266
G1 X46.936 Y83.706 E2.70186
G1 X47.036 Y84.335 E2.72107
G1 X46.936 Y84.964 E2.74027
G1 X46.647 Y85.532 E2.75948
G1 X46.197 Y85.982 E2.77868
G1 X45.629 Y86.271 E2.79789
G1 X45.059 Y86.362 E2.81528
G1 X45.000 Y86.102 F7800.000
G1 F1800.000
G1 X44.454 Y86.016 E2.83195
G1 X43.961 Y85.765 E2.84862
G1 X43.570 Y85.374 E2.86528
G1 X43.319 Y84.881 E2.88195
G1 X43.233 Y84.335 E2.89862
G1 X43.319 Y83.789 E2.91528
G1 X43.570 Y83.296 E2.93195
G1 X43.961 Y82.905 E2.94862
G1 X44.454 Y82.654 E2.96529
G1 X45.000 Y82.568 E2.98195
G1 X45.546 Y82.654 E2.99862
G1 X46.039 Y82.905 E3.01529
G1 X46.430 Y83.296 E3.03196
G1 X46.681 Y83.789 E3.04862
G1 X46.767 Y84.335 E3.06529
G1 X46.681 Y84.881 E3.08196
G1 X46.430 Y85.374 E3.09863
G1 X46.039 Y85.765 E3.11529
G1 X45.546 Y86.016 E3.13196
G1 X45.059 Y86.093 E3.14682
G1 X44.800 Y86.448 F7800.000
G1 E1.14682 F2400.00000
G92 E0
G1 X51.304 Y80.696 F7800.000
G1 E2.00000 F2400.00000
G1 F1800.000
G1 X51.304 Y102.436 E2.65539
G1 X50.897 Y102.412 E2.66767
G1 X50.498 Y102.466 E2.67983
G1 X50.105 Y102.599 E2.69231
G1 X49.745 Y102.802 E2.70479
G1 X49.429 Y103.069 E2.71726
G1 X49.175 Y103.382 E2.72941
G1 X49.026 Y103.640 E2.73840
G1 X48.882 Y104.016 E2.75054
G1 X48.808 Y104.424 E2.76302
G1 X48.813 Y104.826 E2.77517
G1 X48.862 Y105.120 E2.78415
G1 X48.991 Y105.502 E2.79630
G1 X49.189 Y105.853 E2.80845
G1 X49.381 Y106.095 E2.81776
G1 X49.782 Y106.442 E2.83373
G1 X50.276 Y106.687 E2.85038
G1 X50.816 Y106.802 E2.86701
G1 X51.367 Y106.779 E2.88365
G1 X51.896 Y106.619 E2.90029
G1 X52.300 Y106.374 E2.91454
G1 X52.738 Y106.760 E2.93214
G1 X53.240 Y107.262 E2.95355
G1 X53.709 Y107.795 E2.97496
G1 X54.145 Y108.356 E2.99636
G1 X54.544 Y108.943 E3.01777
G1 X54.905 Y109.555 E3.03918
G1 X55.228 Y110.187 E3.06059
G1 X55.510 Y110.839 E3.08200
G1 X55.750 Y111.507 E3.10340
G1 X55.948 Y112.189 E3.12481
G1 X56.103 Y112.882 E3.14622
G1 X56.214 Y113.583 E3.16763
G1 X56.281 Y114.290 E3.18903
G1 X56.303 Y115.000 E3.21044
G1 X56.281 Y115.710 E3.23185
G1 X56.228 Y116.273 E3.24891
G1 X56.095 Y116.284 E3.25292
G1 X56.007 Y115.954 E3.26321
G1 X55.614 Y115.350 E3.28495
G1 X55.054 Y114.896 E3.30669
G1 X54.380 Y114.637 E3.32843
G1 X53.660 Y114.600 E3.35017
G1 X52.964 Y114.786 E3.37191
G1 X52.359 Y115.179 E3.39366
G1 X51.905 Y115.740 E3.41539
G1 X51.647 Y116.413 E3.43713
G1 X51.609 Y117.133 E3.45888
G1 X51.796 Y117.830 E3.48062
G1 X52.188 Y118.434 E3.50236
G1 X52.749 Y118.888 E3.52410
G1 X53.422 Y119.147 E3.54584
G1 X54.142 Y119.184 E3.56758
G1 X54.839 Y118.998 E3.58932
G1 X55.443 Y118.605 E3.61106
G1 X55.663 Y118.333 E3.62160
G1 X55.779 Y118.394 E3.62553
G1 X55.750 Y118.493 E3.62865
G1 X55.510 Y119.161 E3.65006
G1 X55.228 Y119.813 E3.67147
G1 X54.905 Y120.445 E3.69287
G1 X54.544 Y121.057 E3.71428
G1 X54.145 Y121.644 E3.73569
G1 X53.709 Y122.205 E3.75710
G1 X53.240 Y122.738 E3.77851
G1 X52.738 Y123.240 E3.79992
G1 X52.300 Y123.626 E3.81751
G1 X52.028 Y123.449 E3.82728
G1 X51.746 Y123.324 E3.83659
G1 X51.252 Y123.208 E3.85190
G1 X50.943 Y123.195 E3.86122
G1 X50.554 Y123.240 E3.87303
G1 X50.267 Y123.320 E3.88201
G1 X49.910 Y123.483 E3.89383
G1 X49.662 Y123.648 E3.90281
G1 X49.374 Y123.913 E3.91463
G1 X49.189 Y124.147 E3.92361
G1 X48.985 Y124.507 E3.93609
G1 X48.832 Y125.015 E3.95206
G1 X48.802 Y125.427 E3.96454
G1 X48.827 Y125.724 E3.97352
G1 X48.920 Y126.105 E3.98534
G1 X49.032 Y126.370 E3.99399
G1 X49.175 Y126.618 E4.00265
G1 X49.429 Y126.931 E4.01479
G1 X49.736 Y127.191 E4.02694
G1 X49.991 Y127.346 E4.03592
G1 X50.354 Y127.494 E4.04774
G1 X50.644 Y127.562 E4.05672
G1 X51.035 Y127.590 E4.06854
G1 X51.304 Y127.568 E4.07666
G1 X51.304 Y149.304 E4.73196
G1 X38.696 Y149.304 E5.11205
G1 X38.696 Y127.568 E5.76734
G1 X38.965 Y127.590 E5.77547
G1 X39.356 Y127.562 E5.78729
G1 X39.646 Y127.494 E5.79627
G1 X40.009 Y127.346 E5.80808
G1 X40.264 Y127.191 E5.81707
G1 X40.571 Y126.931 E5.82921
G1 X40.825 Y126.618 E5.84136
G1 X40.968 Y126.370 E5.85001
G1 X41.080 Y126.105 E5.85867
G1 X41.173 Y125.724 E5.87048
G1 X41.198 Y125.427 E5.87946
G1 X41.168 Y125.015 E5.89194
G1 X41.015 Y124.507 E5.90792
G1 X40.811 Y124.147 E5.92040
G1 X40.626 Y123.913 E5.92938
G1 X40.338 Y123.648 E5.94120
G1 X40.090 Y123.483 E5.95018
G1 X39.733 Y123.320 E5.96199
G1 X39.446 Y123.240 E5.97098
G1 X39.057 Y123.195 E5.98279
G1 X38.748 Y123.208 E5.99211
G1 X38.254 Y123.324 E6.00741
G1 X37.972 Y123.449 E6.01673
G1 X37.700 Y123.626 E6.02650
G1 X37.262 Y123.240 E6.04409
G1 X36.760 Y122.738 E6.06550
G1 X36.291 Y122.205 E6.08691
G1 X35.855 Y121.644 E6.10831
G1 X35.456 Y121.057 E6.12972
G1 X35.095 Y120.445 E6.15113
G1 X34.772 Y119.813 E6.17254
G1 X34.490 Y119.161 E6.19395
G1 X34.250 Y118.493 E6.21535
G1 X34.052 Y117.811 E6.23676
G1 X33.897 Y117.118 E6.25817
G1 X33.786 Y116.417 E6.27958
G1 X33.719 Y115.710 E6.30098
G1 X33.697 Y115.000 E6.32239
G1 X33.719 Y114.290 E6.34380
G1 X33.772 Y113.727 E6.36086
G1 X33.905 Y113.716 E6.36487
G1 X33.996 Y114.055 E6.37547
G1 X34.387 Y114.651 E6.39697
G1 X34.946 Y115.104 E6.41866
G1 X35.620 Y115.363 E6.44039
G1 X36.340 Y115.400 E6.46213
G1 X37.036 Y115.214 E6.48387
G1 X37.641 Y114.821 E6.50562
G1 X38.095 Y114.260 E6.52736
G1 X38.353 Y113.587 E6.54910
G1 X38.391 Y112.867 E6.57084
G1 X38.204 Y112.170 E6.59258
