; generated by Slic3r 1.3.1-dev (Build (Unknown revision)) on 2020-02-21 at 01:48:24

; external perimeters extrusion width = 0.44mm (1.51mm^3/s)
; perimeters extrusion width = 0.56mm (2.15mm^3/s)
; infill extrusion width = 0.50mm (1.91mm^3/s)
; solid infill extrusion width = 0.56mm (1.62mm^3/s)
; top infill extrusion width = 0.56mm (1.62mm^3/s)

M107
G92 E0
;D3D:START:START
T0
M104 S215 T0

G21
G90
M107
T0
G28
G29
M109 T0 S215 T0
G0 F3000
M107
T0
G92 E0
G0 X0 Y149 Z0.1 F3600
G1 Y49 E6.5 F1200
G0 Z1
G92 E0
; Filament gcode

G21 ; set units to millimeters
G90 ; use absolute coordinates
M82 ; use absolute distances for extrusion
G92 E0
G1 Z0.300 F7800.000
G1 E-2.00000 F2400.00000
G92 E0
G1 X66.610 Y122.041 F7800.000
G1 E2.00000 F2400.00000
G1 F1800.000
G1 X67.225 Y121.876 E2.01920
G1 X67.861 Y121.910 E2.03841
G1 X68.456 Y122.138 E2.05761
G1 X68.951 Y122.539 E2.07682
G1 X69.298 Y123.073 E2.09602
G1 X69.463 Y123.688 E2.11522
G1 X69.429 Y124.324 E2.13443
G1 X69.201 Y124.919 E2.15363
G1 X68.800 Y125.414 E2.17284
G1 X68.266 Y125.761 E2.19204
G1 X67.651 Y125.926 E2.21124
G1 X67.015 Y125.893 E2.23045
G1 X66.420 Y125.664 E2.24965
G1 X65.925 Y125.264 E2.26886
G1 X65.578 Y124.729 E2.28806
G1 X65.413 Y124.114 E2.30727
G1 X65.447 Y123.478 E2.32647
G1 X65.675 Y122.883 E2.34568
G1 X66.076 Y122.388 E2.36488
G1 X66.560 Y122.074 E2.38227
G1 X66.719 Y122.287 F7800.000
G1 F1800.000
G1 X67.253 Y122.144 E2.39894
G1 X67.805 Y122.173 E2.41561
G1 X68.322 Y122.371 E2.43228
G1 X68.751 Y122.719 E2.44894
G1 X69.052 Y123.182 E2.46561
G1 X69.195 Y123.716 E2.48228
G1 X69.166 Y124.269 E2.49895
G1 X68.968 Y124.785 E2.51561
G1 X68.620 Y125.214 E2.53228
G1 X68.157 Y125.515 E2.54895
G1 X67.623 Y125.659 E2.56562
G1 X67.071 Y125.630 E2.58228
G1 X66.554 Y125.431 E2.59895
G1 X66.125 Y125.084 E2.61562
G1 X65.824 Y124.620 E2.63229
G1 X65.681 Y124.086 E2.64895
G1 X65.710 Y123.534 E2.66562
G1 X65.908 Y123.018 E2.68229
G1 X66.256 Y122.588 E2.69896
G1 X66.669 Y122.320 E2.71381
G1 X66.761 Y121.889 F7800.000
G1 E0.71381 F2400.00000
G92 E0
G1 X70.799 Y108.090 F7800.000
G1 E2.00000 F2400.00000
G1 F1800.000
G1 X70.204 Y107.862 E2.01920
G1 X69.709 Y107.461 E2.03841
G1 X69.362 Y106.927 E2.05761
G1 X69.197 Y106.312 E2.07682
G1 X69.230 Y105.676 E2.09602
G1 X69.459 Y105.081 E2.11522
G1 X69.860 Y104.586 E2.13443
G1 X70.394 Y104.239 E2.15363
G1 X71.009 Y104.074 E2.17284
G1 X71.645 Y104.107 E2.19204
G1 X72.240 Y104.336 E2.21124
G1 X72.735 Y104.736 E2.23045
G1 X73.082 Y105.271 E2.24965
G1 X73.247 Y105.886 E2.26886
G1 X73.213 Y106.522 E2.28806
G1 X72.985 Y107.117 E2.30727
G1 X72.584 Y107.612 E2.32647
G1 X72.050 Y107.959 E2.34567
G1 X71.435 Y108.124 E2.36488
G1 X70.859 Y108.093 E2.38227
G1 X70.855 Y107.827 F7800.000
G1 F1800.000
G1 X70.338 Y107.629 E2.39894
G1 X69.909 Y107.281 E2.41561
G1 X69.608 Y106.818 E2.43228
G1 X69.465 Y106.284 E2.44894
G1 X69.494 Y105.731 E2.46561
G1 X69.692 Y105.215 E2.48228
G1 X70.040 Y104.786 E2.49895
G1 X70.503 Y104.485 E2.51561
G1 X71.037 Y104.341 E2.53228
G1 X71.589 Y104.370 E2.54895
G1 X72.106 Y104.569 E2.56562
G1 X72.535 Y104.916 E2.58228
G1 X72.836 Y105.380 E2.59895
G1 X72.979 Y105.914 E2.61562
G1 X72.950 Y106.466 E2.63229
G1 X72.752 Y106.982 E2.64896
G1 X72.404 Y107.412 E2.66562
G1 X71.941 Y107.713 E2.68229
G1 X71.407 Y107.856 E2.69896
G1 X70.915 Y107.830 E2.71382
G1 X70.587 Y108.125 F7800.000
G1 E0.71382 F2400.00000
G92 E0
G1 X83.638 Y114.288 F7800.000
G1 E2.00000 F2400.00000
G1 F1800.000
G1 X83.965 Y113.645 E2.02174
G1 X84.475 Y113.135 E2.04348
G1 X85.118 Y112.808 E2.06522
G1 X85.830 Y112.695 E2.08696
G1 X86.542 Y112.808 E2.10870
G1 X87.185 Y113.135 E2.13045
G1 X87.695 Y113.645 E2.15218
G1 X88.022 Y114.288 E2.17393
G1 X88.135 Y115.000 E2.19567
G1 X88.022 Y115.712 E2.21741
G1 X87.695 Y116.355 E2.23915
G1 X87.185 Y116.865 E2.26089
G1 X86.542 Y117.192 E2.28263
G1 X85.830 Y117.305 E2.30437
G1 X85.118 Y117.192 E2.32611
G1 X84.475 Y116.865 E2.34785
G1 X83.965 Y116.355 E2.36959
G1 X83.638 Y115.712 E2.39133
G1 X83.525 Y115.000 E2.41307
G1 X83.629 Y114.347 E2.43301
G1 X83.894 Y114.371 F7800.000
G1 F1800.000
G1 X84.183 Y113.803 E2.45221
G1 X84.633 Y113.353 E2.47141
G1 X85.201 Y113.064 E2.49062
G1 X85.830 Y112.964 E2.50982
G1 X86.459 Y113.064 E2.52903
G1 X87.027 Y113.353 E2.54823
G1 X87.477 Y113.803 E2.56743
G1 X87.766 Y114.371 E2.58664
G1 X87.866 Y115.000 E2.60584
G1 X87.766 Y115.629 E2.62505
G1 X87.477 Y116.197 E2.64425
G1 X87.027 Y116.647 E2.66345
G1 X86.459 Y116.936 E2.68266
G1 X85.830 Y117.036 E2.70186
G1 X85.201 Y116.936 E2.72107
G1 X84.633 Y116.647 E2.74027
G1 X84.183 Y116.197 E2.75947
G1 X83.894 Y115.629 E2.77868
G1 X83.794 Y115.000 E2.79788
G1 X83.884 Y114.430 E2.81528
G1 X84.149 Y114.454 F7800.000
G1 F1800.000
G1 X84.400 Y113.961 E2.83195
G1 X84.791 Y113.570 E2.84861
G1 X85.284 Y113.319 E2.86528
G1 X85.830 Y113.233 E2.88195
G1 X86.376 Y113.319 E2.89862
G1 X86.869 Y113.570 E2.91529
G1 X87.260 Y113.961 E2.93195
G1 X87.511 Y114.454 E2.94862
G1 X87.597 Y115.000 E2.96529
G1 X87.511 Y115.546 E2.98195
G1 X87.260 Y116.039 E2.99862
G1 X86.869 Y116.430 E3.01529
G1 X86.376 Y116.681 E3.03196
G1 X85.830 Y116.767 E3.04862
G1 X85.284 Y116.681 E3.06529
G1 X84.791 Y116.430 E3.08196
G1 X84.400 Y116.039 E3.09863
G1 X84.149 Y115.546 E3.11529
G1 X84.063 Y115.000 E3.13196
G1 X84.140 Y114.513 E3.14682
G1 X83.882 Y114.157 F7800.000
G1 E1.14682 F2400.00000
G92 E0
G1 X97.690 Y115.000 F7800.000
G1 E2.00000 F2400.00000
G1 F1800.000
G1 X97.803 Y114.288 E2.02174
G1 X98.130 Y113.645 E2.04348
G1 X98.640 Y113.135 E2.06522
G1 X99.283 Y112.808 E2.08696
G1 X99.995 Y112.695 E2.10870
G1 X100.707 Y112.808 E2.13044
G1 X101.350 Y113.135 E2.15219
G1 X101.860 Y113.645 E2.17392
G1 X102.187 Y114.288 E2.19567
G1 X102.300 Y115.000 E2.21741
G1 X102.187 Y115.712 E2.23915
G1 X101.860 Y116.355 E2.26089
G1 X101.350 Y116.865 E2.28263
G1 X100.707 Y117.192 E2.30437
G1 X99.995 Y117.305 E2.32611
G1 X99.283 Y117.192 E2.34785
G1 X98.640 Y116.865 E2.36959
G1 X98.130 Y116.355 E2.39133
G1 X97.803 Y115.712 E2.41308
G1 X97.699 Y115.059 E2.43301
G1 X97.959 Y115.000 F7800.000
G1 F1800.000
G1 X98.059 Y114.371 E2.45221
G1 X98.348 Y113.803 E2.47142
G1 X98.798 Y113.353 E2.49062
G1 X99.366 Y113.064 E2.50982
G1 X99.995 Y112.964 E2.52903
G1 X100.624 Y113.064 E2.54823
G1 X101.192 Y113.353 E2.56744
G1 X101.642 Y113.803 E2.58664
G1 X101.931 Y114.371 E2.60584
G1 X102.031 Y115.000 E2.62505
G1 X101.931 Y115.629 E2.64425
G1 X101.642 Y116.197 E2.66346
G1 X101.192 Y116.647 E2.68266
G1 X100.624 Y116.936 E2.70186
G1 X99.995 Y117.036 E2.72107
G1 X99.366 Y116.936 E2.74027
G1 X98.798 Y116.647 E2.75948
G1 X98.348 Y116.197 E2.77868
G1 X98.059 Y115.629 E2.79788
G1 X97.968 Y115.059 E2.81528
G1 X98.228 Y115.000 F7800.000
G1 F1800.000
G1 X98.314 Y114.454 E2.83195
G1 X98.565 Y113.961 E2.84862
G1 X98.956 Y113.570 E2.86528
G1 X99.449 Y113.319 E2.88195
G1 X99.995 Y113.233 E2.89862
G1 X100.541 Y113.319 E2.91528
G1 X101.034 Y113.570 E2.93195
G1 X101.425 Y113.961 E2.94862
G1 X101.676 Y114.454 E2.96529
G1 X101.762 Y115.000 E2.98195
G1 X101.676 Y115.546 E2.99862
G1 X101.425 Y116.039 E3.01529
G1 X101.034 Y116.430 E3.03195
G1 X100.541 Y116.681 E3.04862
G1 X99.995 Y116.767 E3.06529
G1 X99.449 Y116.681 E3.08196
G1 X98.956 Y116.430 E3.09863
G1 X98.565 Y116.039 E3.11529
G1 X98.314 Y115.546 E3.13196
G1 X98.237 Y115.059 E3.14682
G1 X97.882 Y114.800 F7800.000
G1 E1.14682 F2400.00000
G92 E0
G1 X71.635 Y115.000 F7800.000
G1 E2.00000 F2400.00000
G1 F1800.000
G1 X71.522 Y115.712 E2.02174
G1 X71.195 Y116.355 E2.04348
G1 X70.685 Y116.865 E2.06522
G1 X70.042 Y117.192 E2.08696
G1 X69.330 Y117.305 E2.10870
G1 X68.618 Y117.192 E2.13044
G1 X67.975 Y116.865 E2.15219
G1 X67.465 Y116.355 E2.17392
G1 X67.138 Y115.712 E2.19567
G1 X67.025 Y115.000 E2.21741
G1 X67.138 Y114.288 E2.23915
G1 X67.465 Y113.645 E2.26089
G1 X67.975 Y113.135 E2.28263
G1 X68.618 Y112.808 E2.30437
G1 X69.330 Y112.695 E2.32611
G1 X70.042 Y112.808 E2.34785
G1 X70.685 Y113.135 E2.36959
G1 X71.195 Y113.645 E2.39133
G1 X71.522 Y114.288 E2.41308
G1 X71.626 Y114.941 E2.43301
G1 X71.366 Y115.000 F7800.000
G1 F1800.000
G1 X71.266 Y115.629 E2.45221
G1 X70.977 Y116.197 E2.47142
G1 X70.527 Y116.647 E2.49062
G1 X69.959 Y116.936 E2.50982
G1 X69.330 Y117.036 E2.52903
G1 X68.701 Y116.936 E2.54823
G1 X68.133 Y116.647 E2.56743
G1 X67.683 Y116.197 E2.58664
G1 X67.394 Y115.629 E2.60584
G1 X67.294 Y115.000 E2.62505
G1 X67.394 Y114.371 E2.64425
G1 X67.683 Y113.803 E2.66346
G1 X68.133 Y113.353 E2.68266
G1 X68.701 Y113.064 E2.70186
G1 X69.330 Y112.964 E2.72107
G1 X69.959 Y113.064 E2.74027
G1 X70.527 Y113.353 E2.75948
G1 X70.977 Y113.803 E2.77868
G1 X71.266 Y114.371 E2.79788
G1 X71.357 Y114.941 E2.81528
G1 X71.097 Y115.000 F7800.000
G1 F1800.000
G1 X71.011 Y115.546 E2.83195
G1 X70.760 Y116.039 E2.84861
G1 X70.369 Y116.430 E2.86528
G1 X69.876 Y116.681 E2.88195
G1 X69.330 Y116.767 E2.89862
G1 X68.784 Y116.681 E2.91528
G1 X68.291 Y116.430 E2.93195
G1 X67.900 Y116.039 E2.94862
G1 X67.649 Y115.546 E2.96529
G1 X67.563 Y115.000 E2.98195
G1 X67.649 Y114.454 E2.99862
G1 X67.900 Y113.961 E3.01529
G1 X68.291 Y113.570 E3.03196
G1 X68.784 Y113.319 E3.04862
G1 X69.330 Y113.233 E3.06529
G1 X69.876 Y113.319 E3.08196
G1 X70.369 Y113.570 E3.09863
G1 X70.760 Y113.961 E3.11529
G1 X71.011 Y114.454 E3.13196
G1 X71.088 Y114.941 E3.14682
G1 X71.443 Y115.200 F7800.000
G1 E1.14682 F2400.00000
G92 E0
G1 X55.135 Y115.000 F7800.000
G1 E2.00000 F2400.00000
G1 F1800.000
G1 X55.022 Y115.712 E2.02174
G1 X54.695 Y116.355 E2.04348
G1 X54.185 Y116.865 E2.06522
G1 X53.542 Y117.192 E2.08696
G1 X52.830 Y117.305 E2.10870
G1 X52.118 Y117.192 E2.13044
G1 X51.475 Y116.865 E2.15219
G1 X50.965 Y116.355 E2.17392
G1 X50.638 Y115.712 E2.19567
G1 X50.525 Y115.000 E2.21741
G1 X50.638 Y114.288 E2.23915
G1 X50.965 Y113.645 E2.26089
G1 X51.475 Y113.135 E2.28263
G1 X52.118 Y112.808 E2.30437
G1 X52.830 Y112.695 E2.32611
G1 X53.542 Y112.808 E2.34785
G1 X54.185 Y113.135 E2.36959
G1 X54.695 Y113.645 E2.39133
G1 X55.022 Y114.288 E2.41307
G1 X55.126 Y114.941 E2.43301
G1 X54.866 Y115.000 F7800.000
G1 F1800.000
G1 X54.766 Y115.629 E2.45221
G1 X54.477 Y116.197 E2.47142
G1 X54.027 Y116.647 E2.49062
G1 X53.459 Y116.936 E2.50982
G1 X52.830 Y117.036 E2.52903
G1 X52.201 Y116.936 E2.54823
G1 X51.633 Y116.647 E2.56744
G1 X51.183 Y116.197 E2.58664
G1 X50.894 Y115.629 E2.60584
G1 X50.794 Y115.000 E2.62505
G1 X50.894 Y114.371 E2.64425
G1 X51.183 Y113.803 E2.66346
G1 X51.633 Y113.353 E2.68266
G1 X52.201 Y113.064 E2.70186
G1 X52.830 Y112.964 E2.72107
G1 X53.459 Y113.064 E2.74027
G1 X54.027 Y113.353 E2.75948
G1 X54.477 Y113.803 E2.77868
G1 X54.766 Y114.371 E2.79788
G1 X54.857 Y114.941 E2.81528
G1 X54.597 Y115.000 F7800.000
G1 F1800.000
G1 X54.511 Y115.546 E2.83195
G1 X54.260 Y116.039 E2.84862
G1 X53.869 Y116.430 E2.86528
G1 X53.376 Y116.681 E2.88195
G1 X52.830 Y116.767 E2.89862
G1 X52.284 Y116.681 E2.91528
G1 X51.791 Y116.430 E2.93195
G1 X51.400 Y116.039 E2.94862
G1 X51.149 Y115.546 E2.96529
G1 X51.063 Y115.000 E2.98195
G1 X51.149 Y114.454 E2.99862
G1 X51.400 Y113.961 E3.01529
G1 X51.791 Y113.570 E3.03195
G1 X52.284 Y113.319 E3.04862
G1 X52.830 Y113.233 E3.06529
G1 X53.376 Y113.319 E3.08196
G1 X53.869 Y113.570 E3.09863
G1 X54.260 Y113.961 E3.11529
G1 X54.511 Y114.454 E3.13196
G1 X54.588 Y114.941 E3.14682
G1 X54.943 Y115.200 F7800.000
G1 E1.14682 F2400.00000
G92 E0
G1 X40.970 Y115.000 F7800.000
G1 E2.00000 F2400.00000
G1 F1800.000
G1 X40.857 Y115.712 E2.02174
G1 X40.530 Y116.355 E2.04348
G1 X40.020 Y116.865 E2.06522
G1 X39.377 Y117.192 E2.08696
G1 X38.665 Y117.305 E2.10870
G1 X37.953 Y117.192 E2.13044
G1 X37.310 Y116.865 E2.15219
G1 X36.800 Y116.355 E2.17392
G1 X36.473 Y115.712 E2.19567
G1 X36.360 Y115.000 E2.21741
G1 X36.473 Y114.288 E2.23915
G1 X36.800 Y113.645 E2.26089
G1 X37.310 Y113.135 E2.28263
G1 X37.953 Y112.808 E2.30437
G1 X38.665 Y112.695 E2.32611
G1 X39.377 Y112.808 E2.34785
G1 X40.020 Y113.135 E2.36959
G1 X40.530 Y113.645 E2.39133
G1 X40.857 Y114.288 E2.41307
G1 X40.961 Y114.941 E2.43301
G1 X40.701 Y115.000 F7800.000
G1 F1800.000
G1 X40.601 Y115.629 E2.45221
G1 X40.312 Y116.197 E2.47142
G1 X39.862 Y116.647 E2.49062
G1 X39.294 Y116.936 E2.50982
G1 X38.665 Y117.036 E2.52903
G1 X38.036 Y116.936 E2.54823
G1 X37.468 Y116.647 E2.56744
G1 X37.018 Y116.197 E2.58664
G1 X36.729 Y115.629 E2.60584
G1 X36.629 Y115.000 E2.62505
G1 X36.729 Y114.371 E2.64425
G1 X37.018 Y113.803 E2.66346
G1 X37.468 Y113.353 E2.68266
G1 X38.036 Y113.064 E2.70186
G1 X38.665 Y112.964 E2.72107
G1 X39.294 Y113.064 E2.74027
G1 X39.862 Y113.353 E2.75948
G1 X40.312 Y113.803 E2.77868
G1 X40.601 Y114.371 E2.79788
G1 X40.692 Y114.941 E2.81528
G1 X40.432 Y115.000 F7800.000
G1 F1800.000
G1 X40.346 Y115.546 E2.83195
G1 X40.095 Y116.039 E2.84862
G1 X39.704 Y116.430 E2.86528
G1 X39.211 Y116.681 E2.88195
G1 X38.665 Y116.767 E2.89862
G1 X38.119 Y116.681 E2.91528
G1 X37.626 Y116.430 E2.93195
G1 X37.235 Y116.039 E2.94862
G1 X36.984 Y115.546 E2.96529
G1 X36.898 Y115.000 E2.98195
G1 X36.984 Y114.454 E2.99862
G1 X37.235 Y113.961 E3.01529
G1 X37.626 Y113.570 E3.03195
G1 X38.119 Y113.319 E3.04862
G1 X38.665 Y113.233 E3.06529
G1 X39.211 Y113.319 E3.08196
G1 X39.704 Y113.570 E3.09863
G1 X40.095 Y113.961 E3.11529
G1 X40.346 Y114.454 E3.13196
G1 X40.423 Y114.941 E3.14682
G1 X40.778 Y115.200 F7800.000
G1 E1.14682 F2400.00000
G92 E0
G1 X35.026 Y108.696 F7800.000
G1 E2.00000 F2400.00000
G1 F1800.000
G1 X56.762 Y108.696 E2.65529
G1 X56.740 Y108.965 E2.66342
G1 X56.768 Y109.356 E2.67524
G1 X56.836 Y109.646 E2.68422
G1 X56.984 Y110.009 E2.69604
G1 X57.139 Y110.264 E2.70502
G1 X57.399 Y110.571 E2.71717
G1 X57.712 Y110.825 E2.72931
G1 X57.961 Y110.968 E2.73797
G1 X58.225 Y111.080 E2.74662
G1 X58.606 Y111.173 E2.75843
G1 X58.903 Y111.198 E2.76742
G1 X59.293 Y111.169 E2.77923
G1 X59.584 Y111.101 E2.78821
G1 X59.946 Y110.953 E2.80003
G1 X60.201 Y110.799 E2.80901
G1 X60.509 Y110.539 E2.82116
G1 X60.763 Y110.226 E2.83331
G1 X60.917 Y109.958 E2.84262
G1 X61.089 Y109.465 E2.85835
G1 X61.139 Y108.997 E2.87256
G1 X61.120 Y108.738 E2.88040
G1 X61.004 Y108.243 E2.89570
G1 X60.824 Y107.871 E2.90818
G1 X60.705 Y107.699 E2.91447
G1 X61.090 Y107.262 E2.93204
G1 X61.592 Y106.760 E2.95344
G1 X62.125 Y106.291 E2.97485
G1 X62.686 Y105.855 E2.99626
G1 X63.273 Y105.456 E3.01767
G1 X63.885 Y105.095 E3.03908
G1 X64.517 Y104.772 E3.06048
G1 X65.169 Y104.490 E3.08189
G1 X65.837 Y104.250 E3.10330
G1 X66.519 Y104.052 E3.12471
G1 X67.212 Y103.897 E3.14612
G1 X67.913 Y103.786 E3.16752
G1 X68.620 Y103.719 E3.18893
G1 X69.330 Y103.697 E3.21034
G1 X70.040 Y103.719 E3.23175
G1 X70.603 Y103.772 E3.24880
G1 X70.614 Y103.905 E3.25282
G1 X70.285 Y103.993 E3.26311
G1 X69.680 Y104.386 E3.28485
G1 X69.226 Y104.946 E3.30659
G1 X68.967 Y105.620 E3.32833
G1 X68.930 Y106.340 E3.35007
G1 X69.116 Y107.036 E3.37181
G1 X69.509 Y107.641 E3.39355
G1 X70.070 Y108.095 E3.41529
G1 X70.743 Y108.353 E3.43703
G1 X71.463 Y108.391 E3.45877
G1 X72.159 Y108.204 E3.48051
G1 X72.764 Y107.812 E3.50225
G1 X73.218 Y107.251 E3.52399
G1 X73.477 Y106.578 E3.54574
G1 X73.514 Y105.858 E3.56748
G1 X73.328 Y105.161 E3.58922
G1 X72.935 Y104.557 E3.61096
G1 X72.663 Y104.337 E3.62150
G1 X72.724 Y104.221 E3.62543
G1 X72.823 Y104.250 E3.62855
G1 X73.491 Y104.490 E3.64995
G1 X74.143 Y104.772 E3.67136
G1 X74.775 Y105.095 E3.69277
G1 X75.387 Y105.456 E3.71418
G1 X75.974 Y105.855 E3.73559
G1 X76.535 Y106.291 E3.75699
G1 X77.068 Y106.760 E3.77840
G1 X77.570 Y107.262 E3.79981
G1 X77.955 Y107.699 E3.81738
G1 X77.836 Y107.871 E3.82367
G1 X77.656 Y108.243 E3.83614
G1 X77.535 Y108.759 E3.85212
G1 X77.531 Y109.173 E3.86460
G1 X77.576 Y109.479 E3.87391
G1 X77.743 Y109.958 E3.88922
G1 X77.897 Y110.226 E3.89853
G1 X78.151 Y110.539 E3.91068
G1 X78.459 Y110.799 E3.92283
G1 X78.714 Y110.953 E3.93181
G1 X79.076 Y111.101 E3.94363
G1 X79.367 Y111.169 E3.95261
G1 X79.757 Y111.198 E3.96442
G1 X80.054 Y111.173 E3.97341
G1 X80.435 Y111.080 E3.98522
G1 X80.699 Y110.968 E3.99387
G1 X80.948 Y110.825 E4.00253
G1 X81.261 Y110.571 E4.01467
G1 X81.521 Y110.264 E4.02682
G1 X81.676 Y110.009 E4.03580
G1 X81.824 Y109.646 E4.04762
G1 X81.892 Y109.356 E4.05660
G1 X81.920 Y108.965 E4.06842
G1 X81.898 Y108.696 E4.07655
