; generated by Slic3r 1.2.9 on 2020-02-13 at 17:41:35

; external perimeters extrusion width = 0.42mm
; perimeters extrusion width = 0.42mm
; infill extrusion width = 0.42mm
; solid infill extrusion width = 0.42mm
; top infill extrusion width = 0.42mm

;D3D:START:START
T0
M104 S215 T0

G21
G90
M107
T0
G28
G29
M109 T0 S215 T0
G0 F3000
M107
T0
G92 E0
G0 X0 Y149 Z0.1 F3600
G1 Y49 E6.5 F1200
G0 Z1
G92 E0
G21 ; set units to millimeters
G90 ; use absolute coordinates
M82 ; use absolute distances for extrusion
G92 E0
G1 Z0.200 F9000.000
G1 E-1.00000 F2400.00000
G92 E0
G1 X49.042 Y71.573 F9000.000
G1 E1.00000 F2400.00000
G1 X49.655 Y71.281 E1.00904 F1800.000
G1 X50.460 Y70.956 E1.02060
G1 X51.283 Y70.682 E1.03217
G1 X52.122 Y70.461 E1.04372
G1 X52.974 Y70.293 E1.05529
G1 X53.834 Y70.179 E1.06685
G1 X54.700 Y70.119 E1.07841
G1 X55.568 Y70.114 E1.08997
G1 X56.434 Y70.163 E1.10153 F1800.000
G1 X57.194 Y70.251 E1.11173
G1 X154.281 Y82.122 E2.41480
G1 X155.348 Y82.644 E2.43063
G1 X155.844 Y84.259 E2.45313
G1 X153.204 Y98.259 E2.64293
G1 X152.614 Y99.290 E2.65876
G1 X151.959 Y99.655 E2.66875
G1 X55.498 Y129.578 E4.01425
G1 X54.258 Y129.849 E4.03116
G1 X53.881 Y129.889 E4.03621
G1 X52.777 Y129.889 E4.05092
G1 X52.400 Y129.849 E4.05597
G1 X51.320 Y129.620 E4.07068
G1 X50.960 Y129.503 E4.07573
G1 X49.951 Y129.054 E4.09043
G1 X49.623 Y128.864 E4.09549
G1 X48.730 Y128.215 E4.11020
G1 X48.448 Y127.962 E4.11524
G1 X47.709 Y127.141 E4.12995
G1 X44.458 Y122.569 E4.20470
G1 X44.125 Y121.521 E4.21935
G1 X44.125 Y91.520 E4.61903
G1 X44.164 Y91.143 E4.62408
G1 X48.057 Y72.829 E4.87352
G1 X49.005 Y71.620 E4.89399
G1 X49.111 Y71.714 F9000.000
G1 X49.714 Y71.426 E4.90290 F1800.000
G1 X50.510 Y71.105 E4.91434
G1 X51.324 Y70.834 E4.92577
G1 X52.153 Y70.615 E4.93719
G1 X52.995 Y70.449 E4.94862
G1 X53.846 Y70.336 E4.96005
G1 X54.701 Y70.276 E4.97148
G1 X55.559 Y70.270 E4.98291
G1 X56.416 Y70.319 E4.99434 F1800.000
G1 X57.175 Y70.406 E5.00453
G1 X154.262 Y82.278 E6.30760
G1 X155.273 Y82.792 E6.32270
G1 X155.690 Y84.230 E6.34264
G1 X153.050 Y98.230 E6.53245
G1 X152.471 Y99.205 E6.54755
G1 X151.912 Y99.505 E6.55600
G1 X55.452 Y129.428 E7.90150
G1 X54.226 Y129.696 E7.91822
G1 X53.881 Y129.732 E7.92284
G1 X52.777 Y129.732 E7.93754
G1 X52.433 Y129.696 E7.94216
G1 X51.353 Y129.466 E7.95687
G1 X51.024 Y129.359 E7.96148
G1 X50.015 Y128.910 E7.97618
G1 X49.715 Y128.737 E7.98080
G1 X48.822 Y128.088 E7.99551
G1 X48.565 Y127.856 E8.00012
G1 X47.826 Y127.036 E8.01483
G1 X44.586 Y122.478 E8.08933
G1 X44.282 Y121.521 E8.10272
G1 X44.282 Y91.520 E8.50239
G1 X44.318 Y91.176 E8.50700
G1 X48.211 Y72.861 E8.75645
G1 X49.074 Y71.761 E8.77508
G1 E7.77508 F2400.00000
G92 E0
G1 X53.095 Y120.822 F9000.000
G1 E1.00000 F2400.00000
G1 X53.747 Y120.848 E1.00869 F1800.000
G1 X54.339 Y121.075 E1.01715
G1 X54.830 Y121.473 E1.02556
G1 X55.174 Y122.002 E1.03398
G1 X55.337 Y122.613 E1.04240
G1 X55.304 Y123.244 E1.05081
G1 X55.078 Y123.833 E1.05923
G1 X54.680 Y124.324 E1.06765
G1 X54.151 Y124.668 E1.07606
G1 X53.540 Y124.832 E1.08448
G1 X52.909 Y124.799 E1.09290
G1 X52.320 Y124.573 E1.10131
G1 X51.829 Y124.175 E1.10973
G1 X51.484 Y123.645 E1.11815
G1 X51.321 Y123.035 E1.12657
G1 X51.354 Y122.404 E1.13498
G1 X51.581 Y121.814 E1.14340
G1 X51.978 Y121.323 E1.15182
G1 X52.508 Y120.979 E1.16023
G1 X53.037 Y120.837 E1.16752 F1800.000
G1 X53.077 Y120.989 F9000.000
G1 X53.714 Y121.003 E1.17602 F1800.000
G1 X54.259 Y121.213 E1.18379
G1 X54.712 Y121.579 E1.19155
G1 X55.029 Y122.067 E1.19930
G1 X55.179 Y122.629 E1.20705
G1 X55.149 Y123.211 E1.21481
G1 X54.940 Y123.754 E1.22256
G1 X54.574 Y124.206 E1.23032
G1 X54.086 Y124.523 E1.23807
G1 X53.524 Y124.674 E1.24582
G1 X52.942 Y124.643 E1.25358
G1 X52.399 Y124.435 E1.26133
G1 X51.947 Y124.069 E1.26909
G1 X51.630 Y123.580 E1.27684
G1 X51.479 Y123.018 E1.28459
G1 X51.510 Y122.437 E1.29235
G1 X51.718 Y121.894 E1.30010
G1 X52.084 Y121.441 E1.30786
G1 X52.573 Y121.124 E1.31561
G1 X53.019 Y121.005 E1.32177 F1800.000
G1 X53.060 Y121.156 F9000.000
G1 X53.130 Y121.138 E1.32273 F1800.000
G1 X53.682 Y121.159 E1.33010
G1 X54.180 Y121.350 E1.33720
G1 X54.593 Y121.685 E1.34429
G1 X54.883 Y122.132 E1.35138
G1 X55.021 Y122.646 E1.35847
G1 X54.993 Y123.177 E1.36557
G1 X54.803 Y123.674 E1.37266
G1 X54.468 Y124.088 E1.37975
G1 X54.021 Y124.378 E1.38684
G1 X53.507 Y124.516 E1.39393
G1 X52.975 Y124.488 E1.40102
G1 X52.479 Y124.297 E1.40811
G1 X52.065 Y123.962 E1.41520
G1 X51.775 Y123.516 E1.42229
G1 X51.637 Y123.002 E1.42939
G1 X51.665 Y122.470 E1.43648
G1 X51.856 Y121.973 E1.44357
G1 X52.191 Y121.559 E1.45066
G1 X52.637 Y121.270 E1.45775
G1 X53.002 Y121.172 E1.46278 F1800.000
G1 X53.079 Y121.086 F9000.000
G1 X54.801 Y115.898 F9000.000
G1 X54.212 Y115.671 E1.47120 F1800.000
G1 X53.721 Y115.274 E1.47961
G1 X53.376 Y114.744 E1.48803
G1 X53.213 Y114.134 E1.49645
G1 X53.246 Y113.503 E1.50486
G1 X53.473 Y112.913 E1.51328
G1 X53.870 Y112.422 E1.52170
G1 X54.400 Y112.078 E1.53011
G1 X54.991 Y111.920 E1.53826 F1800.000
G1 X55.639 Y111.947 E1.54691
G1 X56.231 Y112.174 E1.55535
G1 X56.722 Y112.571 E1.56377
G1 X57.066 Y113.101 E1.57219
G1 X57.229 Y113.712 E1.58060
G1 X57.196 Y114.342 E1.58902
G1 X56.970 Y114.932 E1.59744
G1 X56.572 Y115.423 E1.60585
G1 X56.043 Y115.767 E1.61427
G1 X55.432 Y115.931 E1.62269
G1 X54.861 Y115.901 E1.63031
G1 X54.869 Y115.744 F9000.000
G1 X54.291 Y115.534 E1.63850 F1800.000
G1 X53.839 Y115.167 E1.64626
G1 X53.522 Y114.679 E1.65401
G1 X53.371 Y114.117 E1.66177
G1 X53.402 Y113.536 E1.66952
G1 X53.610 Y112.992 E1.67727
G1 X53.976 Y112.540 E1.68503
G1 X54.465 Y112.223 E1.69278
G1 X55.008 Y112.078 E1.70028 F1800.000
G1 X55.607 Y112.102 E1.70826
G1 X56.151 Y112.312 E1.71603
G1 X56.604 Y112.678 E1.72379
G1 X56.921 Y113.166 E1.73154
G1 X57.071 Y113.728 E1.73930
G1 X57.041 Y114.309 E1.74705
G1 X56.832 Y114.853 E1.75480
G1 X56.466 Y115.305 E1.76256
G1 X55.978 Y115.622 E1.77031
G1 X55.416 Y115.773 E1.77806
G1 X54.929 Y115.747 E1.78455
G1 X54.938 Y115.590 F9000.000
G1 X54.867 Y115.587 E1.78549 F1800.000
G1 X54.371 Y115.396 E1.79258
G1 X53.957 Y115.061 E1.79967
G1 X53.667 Y114.615 E1.80676
G1 X53.529 Y114.100 E1.81385
G1 X53.557 Y113.569 E1.82094
G1 X53.748 Y113.072 E1.82803
G1 X54.083 Y112.658 E1.83512
G1 X54.529 Y112.368 E1.84221
G1 X55.026 Y112.235 E1.84906 F1800.000
G1 X55.574 Y112.258 E1.85638
G1 X56.072 Y112.449 E1.86348
G1 X56.485 Y112.784 E1.87057
G1 X56.775 Y113.231 E1.87766
G1 X56.913 Y113.745 E1.88475
G1 X56.885 Y114.276 E1.89184
G1 X56.695 Y114.773 E1.89893
G1 X56.360 Y115.187 E1.90602
G1 X55.913 Y115.477 E1.91311
G1 X55.399 Y115.614 E1.92021
G1 X54.998 Y115.593 E1.92556
G1 X54.899 Y115.649 F9000.000
G1 E0.92556 F2400.00000
G92 E0
G1 X56.691 Y106.997 F9000.000
G1 E1.00000 F2400.00000
G1 X56.085 Y106.755 E1.00869 F1800.000
G1 X55.613 Y106.373 E1.01678
G1 X55.268 Y105.843 E1.02520
G1 X55.105 Y105.232 E1.03362
G1 X55.138 Y104.602 E1.04203
G1 X55.365 Y104.012 E1.05045
G1 X55.762 Y103.521 E1.05887
G1 X56.292 Y103.177 E1.06728
G1 X56.879 Y103.020 E1.07538 F1800.000
G1 X57.531 Y103.045 E1.08407
G1 X58.123 Y103.273 E1.09252
G1 X58.614 Y103.670 E1.10094
G1 X58.956 Y104.197 E1.10930
G1 X59.123 Y104.775 E1.11733
G1 X59.088 Y105.441 E1.12621
G1 X58.862 Y106.031 E1.13463
G1 X58.464 Y106.522 E1.14304
G1 X57.935 Y106.866 E1.15146
G1 X57.324 Y107.030 E1.15988
G1 X56.751 Y107.000 E1.16753
G1 X56.759 Y106.843 F9000.000
G1 X56.165 Y106.618 E1.17599 F1800.000
G1 X55.731 Y106.266 E1.18343
G1 X55.414 Y105.778 E1.19119
G1 X55.263 Y105.216 E1.19894
G1 X55.294 Y104.635 E1.20670
G1 X55.502 Y104.091 E1.21445
G1 X55.868 Y103.639 E1.22220
G1 X56.357 Y103.322 E1.22996
G1 X56.896 Y103.177 E1.23740 F1800.000
G1 X57.498 Y103.201 E1.24543
G1 X58.043 Y103.410 E1.25321
G1 X58.496 Y103.777 E1.26096
G1 X58.811 Y104.263 E1.26868
G1 X58.965 Y104.794 E1.27604
G1 X58.933 Y105.408 E1.28424
G1 X58.724 Y105.952 E1.29200
G1 X58.358 Y106.404 E1.29975
G1 X57.870 Y106.721 E1.30751
G1 X57.308 Y106.872 E1.31526
G1 X56.819 Y106.846 E1.32178
G1 X56.827 Y106.689 F9000.000
G1 X56.759 Y106.685 E1.32269 F1800.000
G1 X56.245 Y106.481 E1.33006
G1 X55.849 Y106.160 E1.33685
G1 X55.559 Y105.713 E1.34394
G1 X55.421 Y105.199 E1.35103
G1 X55.449 Y104.668 E1.35812
G1 X55.640 Y104.171 E1.36522
G1 X55.975 Y103.757 E1.37231
G1 X56.421 Y103.467 E1.37940
G1 X56.914 Y103.335 E1.38619 F1800.000
G1 X57.466 Y103.357 E1.39356
G1 X57.964 Y103.548 E1.40066
G1 X58.377 Y103.883 E1.40775
G1 X58.667 Y104.329 E1.41483
G1 X58.807 Y104.812 E1.42153
G1 X58.777 Y105.375 E1.42904
G1 X58.587 Y105.872 E1.43613
G1 X58.252 Y106.286 E1.44323
G1 X57.805 Y106.576 E1.45032
G1 X57.291 Y106.713 E1.45741
G1 X56.887 Y106.692 E1.46280
G1 X56.790 Y106.746 F9000.000
G1 X61.090 Y120.395 F9000.000
G1 X60.248 Y124.355 E1.51673 F1800.000
G1 X59.934 Y124.507 E1.52139
G1 X59.260 Y124.782 E1.53108
G1 X58.572 Y125.013 E1.54074
G1 X57.492 Y125.287 E1.55559
G1 X57.264 Y125.682 E1.56167
G1 X56.584 Y126.438 E1.57522
G1 X55.761 Y127.036 E1.58877
G1 X54.832 Y127.449 E1.60231
G1 X53.838 Y127.661 E1.61586
G1 X52.821 Y127.661 E1.62940
G1 X51.826 Y127.449 E1.64295
G1 X50.897 Y127.036 E1.65649
G1 X50.075 Y126.438 E1.67004
G1 X49.395 Y125.682 E1.68359
G1 X48.886 Y124.802 E1.69713
G1 X48.572 Y123.835 E1.71068
G1 X48.524 Y123.381 E1.71676
G1 X47.649 Y122.691 E1.73161
G1 X47.115 Y122.200 E1.74127
G1 X46.611 Y121.675 E1.75096
G1 X46.386 Y121.408 E1.75562
G1 X50.194 Y103.491 E1.99965
G1 X50.509 Y103.339 E2.00431
G1 X51.183 Y103.064 E2.01400
G1 X51.870 Y102.832 E2.02366
G1 X52.950 Y102.558 E2.03851
G1 X53.179 Y102.163 E2.04459
G1 X53.859 Y101.407 E2.05814
G1 X54.681 Y100.809 E2.07169
G1 X55.610 Y100.396 E2.08523
G1 X56.605 Y100.185 E2.09878
G1 X57.622 Y100.185 E2.11232
G1 X58.595 Y100.392 E2.12559
G1 X59.546 Y100.810 E2.13942 F1800.000
G1 X60.368 Y101.407 E2.15295
G1 X61.048 Y102.163 E2.16650
G1 X61.556 Y103.043 E2.18005
G1 X61.871 Y104.010 E2.19359
G1 X61.918 Y104.464 E2.19967
G1 X62.794 Y105.154 E2.21452
G1 X63.327 Y105.645 E2.22418
G1 X63.831 Y106.170 E2.23388
G1 X64.056 Y106.437 E2.23853
G1 X61.102 Y120.336 E2.42784
G1 X61.256 Y120.369 F9000.000
G1 X60.386 Y124.463 E2.48359 F1800.000
G1 X59.997 Y124.650 E2.48934
G1 X59.314 Y124.929 E2.49917
G1 X58.617 Y125.164 E2.50897
G1 X57.595 Y125.423 E2.52302
G1 X57.392 Y125.775 E2.52843
G1 X56.689 Y126.555 E2.54242
G1 X55.840 Y127.173 E2.55641
G1 X54.881 Y127.599 E2.57039
G1 X53.854 Y127.818 E2.58438
G1 X52.804 Y127.818 E2.59836
G1 X51.778 Y127.599 E2.61235
G1 X50.819 Y127.173 E2.62633
G1 X49.969 Y126.555 E2.64032
G1 X49.267 Y125.775 E2.65431
G1 X48.742 Y124.866 E2.66829
G1 X48.418 Y123.868 E2.68228
G1 X48.375 Y123.463 E2.68770
G1 X47.547 Y122.811 E2.70174
G1 X47.005 Y122.313 E2.71155
G1 X46.495 Y121.780 E2.72137
G1 X46.216 Y121.451 E2.72712
G1 X50.057 Y103.383 E2.97321
G1 X50.445 Y103.195 E2.97895
G1 X51.128 Y102.916 E2.98878
G1 X51.826 Y102.682 E2.99858
G1 X52.847 Y102.422 E3.01263
G1 X53.051 Y102.070 E3.01805
G1 X53.753 Y101.290 E3.03203
G1 X54.602 Y100.673 E3.04602
G1 X55.562 Y100.246 E3.06001
G1 X56.588 Y100.027 E3.07399
G1 X57.638 Y100.027 E3.08798
G1 X58.644 Y100.241 E3.10168
G1 X59.624 Y100.673 E3.11595 F1800.000
G1 X60.473 Y101.290 E3.12993
G1 X61.176 Y102.070 E3.14391
G1 X61.701 Y102.979 E3.15790
G1 X62.025 Y103.977 E3.17188
G1 X62.068 Y104.382 E3.17730
G1 X62.895 Y105.035 E3.19135
G1 X63.437 Y105.533 E3.20115
G1 X63.948 Y106.065 E3.21098
G1 X64.226 Y106.394 E3.21673
G1 X61.268 Y120.310 E3.40626
G1 X61.422 Y120.343 F9000.000
G1 X60.523 Y124.570 E3.46384 F1800.000
G1 X60.061 Y124.794 E3.47067
G1 X59.369 Y125.076 E3.48063
G1 X58.661 Y125.314 E3.49058
G1 X57.698 Y125.559 E3.50382
G1 X57.520 Y125.868 E3.50858
G1 X56.795 Y126.673 E3.52301
G1 X55.919 Y127.309 E3.53743
G1 X54.930 Y127.750 E3.55186
G1 X53.871 Y127.975 E3.56628
G1 X52.788 Y127.975 E3.58071
G1 X51.729 Y127.750 E3.59513
G1 X50.740 Y127.309 E3.60956
G1 X49.864 Y126.673 E3.62399
G1 X49.139 Y125.868 E3.63841
G1 X48.598 Y124.930 E3.65284
G1 X48.263 Y123.901 E3.66726
G1 X48.226 Y123.545 E3.67202
G1 X47.445 Y122.930 E3.68526
G1 X46.895 Y122.425 E3.69521
G1 X46.378 Y121.885 E3.70517
G1 X46.047 Y121.493 E3.71200
G1 X49.919 Y103.275 E3.96014
G1 X50.381 Y103.051 E3.96698
G1 X51.073 Y102.769 E3.97694
G1 X51.781 Y102.531 E3.98689
G1 X52.744 Y102.286 E4.00013
G1 X52.923 Y101.977 E4.00489
G1 X53.648 Y101.172 E4.01931
G1 X54.524 Y100.536 E4.03374
G1 X55.513 Y100.096 E4.04816
G1 X56.572 Y99.870 E4.06259
G1 X57.655 Y99.870 E4.07701
G1 X58.692 Y100.091 E4.09115
G1 X59.703 Y100.536 E4.10586 F1800.000
G1 X60.579 Y101.172 E4.12028
G1 X61.304 Y101.977 E4.13471
G1 X61.845 Y102.915 E4.14914
G1 X62.179 Y103.945 E4.16356
G1 X62.217 Y104.300 E4.16832
G1 X62.997 Y104.915 E4.18156
G1 X63.547 Y105.420 E4.19151
G1 X64.065 Y105.960 E4.20147
G1 X64.396 Y106.352 E4.20830
G1 X61.434 Y120.284 E4.39806
G1 X61.042 Y120.466 F9000.000
G1 X57.490 Y125.188 F9000.000
G1 X55.413 Y123.112 E4.43718 F1800.000
G1 X55.425 Y122.901 E4.43999
G1 X57.667 Y125.143 E4.48224
G1 X57.844 Y125.098 E4.48468
G1 X55.436 Y122.690 E4.53005
G1 X55.409 Y122.441 E4.53339
G1 X58.021 Y125.053 E4.58260
G1 X58.198 Y125.008 E4.58504
G1 X55.328 Y122.138 E4.63912
G1 X55.161 Y121.749 F9000.000
G1 X58.375 Y124.963 E4.69969 F1800.000
G1 X58.553 Y124.918 E4.70212
G1 X47.986 Y114.351 E4.90122
G1 X48.025 Y114.168 E4.90371
G1 X58.720 Y124.863 E5.10522
G1 X58.886 Y124.807 E5.10756
G1 X48.064 Y113.985 E5.31147
G1 X48.103 Y113.802 E5.31396
G1 X59.052 Y124.751 E5.52027
G1 X59.218 Y124.695 E5.52261
G1 X48.141 Y113.618 E5.73131
G1 X48.180 Y113.435 E5.73381
G1 X59.378 Y124.632 E5.94478
G1 X59.535 Y124.568 E5.94705
G1 X48.219 Y113.252 E6.16026
G1 X48.258 Y113.069 E6.16275
G1 X59.693 Y124.504 E6.37820
G1 X59.851 Y124.439 E6.38047
G1 X48.297 Y112.886 E6.59815
G1 X48.336 Y112.702 E6.60065
G1 X60.004 Y124.370 E6.82048
G1 X60.140 Y124.284 E6.82262
G1 X48.375 Y112.519 E7.04429
G1 X48.414 Y112.336 E7.04678
G1 X60.198 Y124.120 E7.26881
G1 X60.237 Y123.937 E7.27130
G1 X48.453 Y112.153 E7.49333
G1 X48.492 Y111.970 E7.49583
G1 X60.276 Y123.754 E7.71786
G1 X60.315 Y123.570 E7.72035
G1 X48.531 Y111.786 E7.94238
G1 X48.570 Y111.603 E7.94487
G1 X60.354 Y123.387 E8.16690
G1 X60.393 Y123.204 E8.16940
G1 X48.609 Y111.420 E8.39143
G1 X48.648 Y111.237 E8.39392
G1 X60.432 Y123.021 E8.61595
G1 X60.471 Y122.838 E8.61844
G1 X48.687 Y111.054 E8.84047
G1 X48.726 Y110.870 E8.84297
G1 X60.510 Y122.654 E9.06500
G1 X60.549 Y122.471 E9.06749
G1 X48.765 Y110.687 E9.28952
G1 X48.803 Y110.504 E9.29201
G1 X53.561 Y115.261 E9.38164
G1 X53.840 Y115.541 F9000.000
G1 X60.588 Y122.288 E9.50878 F1800.000
G1 X60.627 Y122.105 E9.51127
G1 X54.386 Y115.865 E9.62884
G1 X54.744 Y116.000 F9000.000
G1 X60.665 Y121.922 E9.74040 F1800.000
G1 X60.704 Y121.738 E9.74290
G1 X54.979 Y116.013 E9.85078
G1 X55.213 Y116.025 E9.85391
G1 X60.743 Y121.555 E9.95810
G1 X60.782 Y121.372 E9.96060
G1 X55.439 Y116.029 E10.06127
G1 X55.614 Y115.982 E10.06369
G1 X60.821 Y121.189 E10.16180
G1 X60.860 Y121.006 E10.16429
G1 X55.789 Y115.935 E10.25983
G1 X55.965 Y115.888 E10.26225
G1 X60.899 Y120.822 E10.35522
G1 X60.938 Y120.639 E10.35771
G1 X56.123 Y115.824 E10.44844
G1 X56.257 Y115.736 E10.45058
G1 X60.977 Y120.456 E10.53950
G1 X61.016 Y120.273 E10.54200
G1 X56.392 Y115.649 E10.62912
G1 X56.527 Y115.561 E10.63126
G1 X61.055 Y120.089 E10.71657
G1 X61.094 Y119.906 E10.71907
G1 X56.654 Y115.466 E10.80273
G1 X56.753 Y115.343 E10.80483
G1 X61.133 Y119.723 E10.88735
G1 X61.172 Y119.540 E10.88985
G1 X56.852 Y115.221 E10.97122
G1 X56.952 Y115.098 E10.97333
G1 X61.211 Y119.357 E11.05357
G1 X61.250 Y119.173 E11.05606
G1 X57.051 Y114.975 E11.13517
G1 X57.115 Y114.817 E11.13744
G1 X61.289 Y118.990 E11.21608
G1 X61.327 Y118.807 E11.21857
G1 X57.177 Y114.656 E11.29678
G1 X57.238 Y114.496 E11.29907
G1 X61.366 Y118.624 E11.37685
G1 X61.405 Y118.441 E11.37934
G1 X57.299 Y114.334 E11.45671
G1 X57.310 Y114.123 E11.45953
G1 X61.444 Y118.257 E11.53742
G1 X61.483 Y118.074 E11.53992
G1 X57.321 Y113.912 E11.61834
G1 X57.332 Y113.701 E11.62115
G1 X61.522 Y117.891 E11.70010
G1 X61.561 Y117.708 E11.70259
G1 X57.267 Y113.414 E11.78349
G1 X57.186 Y113.111 E11.78768
G1 X61.600 Y117.525 E11.87085
G1 X61.639 Y117.341 E11.87334
