; generated by Slic3r 1.3.1-dev (Build adea0d9) on 2020-02-21 at 16:39:10

; external perimeters extrusion width = 0.44mm (2.86mm^3/s)
; perimeters extrusion width = 0.56mm (4.14mm^3/s)
; infill extrusion width = 0.50mm (3.66mm^3/s)
; solid infill extrusion width = 0.56mm (3.10mm^3/s)
; top infill extrusion width = 0.56mm (3.10mm^3/s)

M107
G92 E0
;D3D:START:START
T0
M104 S215 T0

G21
G90
M107
T0
G28
G29
M109 T0 S215 T0
G0 F3000
M107
T0
G92 E0
G0 X0 Y149 Z0.1 F3600
G1 Y49 E6.5 F1200
G0 Z1
G92 E0
; Filament gcode

G21 ; set units to millimeters
G90 ; use absolute coordinates
M82 ; use absolute distances for extrusion
G92 E0
G1 Z0.300 F7800.000
G1 E-2.00000 F2400.00000
G92 E0
G1 X82.539 Y115.379 F7800.000
G1 E2.00000 F2400.00000
G1 F1800.000
G1 X83.073 Y115.032 E2.01921
G1 X83.688 Y114.867 E2.03841
G1 X84.324 Y114.901 E2.05761
G1 X84.919 Y115.129 E2.07682
G1 X85.414 Y115.530 E2.09602
G1 X85.761 Y116.064 E2.11522
G1 X85.926 Y116.679 E2.13443
G1 X85.893 Y117.315 E2.15364
G1 X85.664 Y117.910 E2.17284
G1 X85.263 Y118.405 E2.19204
G1 X84.729 Y118.752 E2.21125
G1 X84.114 Y118.917 E2.23045
G1 X83.478 Y118.883 E2.24965
G1 X82.883 Y118.655 E2.26886
G1 X82.388 Y118.254 E2.28806
G1 X82.041 Y117.720 E2.30727
G1 X81.876 Y117.105 E2.32647
G1 X81.910 Y116.469 E2.34568
G1 X82.138 Y115.874 E2.36488
G1 X82.501 Y115.426 E2.38227
G1 X82.719 Y115.579 F7800.000
G1 F1800.000
G1 X83.182 Y115.278 E2.39894
G1 X83.716 Y115.135 E2.41561
G1 X84.269 Y115.164 E2.43228
G1 X84.785 Y115.362 E2.44894
G1 X85.214 Y115.710 E2.46561
G1 X85.515 Y116.173 E2.48228
G1 X85.659 Y116.707 E2.49895
G1 X85.630 Y117.259 E2.51561
G1 X85.431 Y117.776 E2.53228
G1 X85.084 Y118.205 E2.54895
G1 X84.620 Y118.506 E2.56562
G1 X84.086 Y118.649 E2.58228
G1 X83.534 Y118.620 E2.59895
G1 X83.018 Y118.422 E2.61562
G1 X82.588 Y118.074 E2.63228
G1 X82.287 Y117.611 E2.64895
G1 X82.144 Y117.077 E2.66562
G1 X82.173 Y116.525 E2.68229
G1 X82.371 Y116.008 E2.69895
G1 X82.681 Y115.625 E2.71381
G1 X82.636 Y115.188 F7800.000
G1 E0.71381 F2400.00000
G92 E0
G1 X75.712 Y143.473 F7800.000
G1 E2.00000 F2400.00000
G1 F1800.000
G1 X76.355 Y143.800 E2.02174
G1 X76.865 Y144.310 E2.04348
G1 X77.192 Y144.953 E2.06522
G1 X77.305 Y145.665 E2.08696
G1 X77.192 Y146.377 E2.10870
G1 X76.865 Y147.020 E2.13045
G1 X76.355 Y147.530 E2.15218
G1 X75.712 Y147.857 E2.17392
G1 X75.000 Y147.970 E2.19567
G1 X74.288 Y147.857 E2.21741
G1 X73.645 Y147.530 E2.23915
G1 X73.135 Y147.020 E2.26089
G1 X72.808 Y146.377 E2.28263
G1 X72.695 Y145.665 E2.30437
G1 X72.808 Y144.953 E2.32611
G1 X73.135 Y144.310 E2.34785
G1 X73.645 Y143.800 E2.36959
G1 X74.288 Y143.473 E2.39133
G1 X75.000 Y143.360 E2.41307
G1 X75.653 Y143.464 E2.43301
G1 X75.629 Y143.729 F7800.000
G1 F1800.000
G1 X76.197 Y144.018 E2.45221
G1 X76.647 Y144.468 E2.47141
G1 X76.936 Y145.036 E2.49062
G1 X77.036 Y145.665 E2.50982
G1 X76.936 Y146.294 E2.52902
G1 X76.647 Y146.862 E2.54823
G1 X76.197 Y147.312 E2.56743
G1 X75.629 Y147.601 E2.58664
G1 X75.000 Y147.701 E2.60584
G1 X74.371 Y147.601 E2.62505
G1 X73.803 Y147.312 E2.64425
G1 X73.353 Y146.862 E2.66345
G1 X73.064 Y146.294 E2.68266
G1 X72.964 Y145.665 E2.70186
G1 X73.064 Y145.036 E2.72107
G1 X73.353 Y144.468 E2.74027
G1 X73.803 Y144.018 E2.75947
G1 X74.371 Y143.729 E2.77868
G1 X75.000 Y143.629 E2.79788
G1 X75.570 Y143.719 E2.81528
G1 X75.546 Y143.984 F7800.000
G1 F1800.000
G1 X76.039 Y144.235 E2.83195
G1 X76.430 Y144.626 E2.84861
G1 X76.681 Y145.119 E2.86528
G1 X76.767 Y145.665 E2.88195
G1 X76.681 Y146.211 E2.89861
G1 X76.430 Y146.704 E2.91528
G1 X76.039 Y147.095 E2.93195
G1 X75.546 Y147.346 E2.94862
G1 X75.000 Y147.432 E2.96529
G1 X74.454 Y147.346 E2.98195
G1 X73.961 Y147.095 E2.99862
G1 X73.570 Y146.704 E3.01529
G1 X73.319 Y146.211 E3.03196
G1 X73.233 Y145.665 E3.04862
G1 X73.319 Y145.119 E3.06529
G1 X73.570 Y144.626 E3.08196
G1 X73.961 Y144.235 E3.09862
G1 X74.454 Y143.984 E3.11529
G1 X75.000 Y143.898 E3.13196
G1 X75.487 Y143.975 E3.14682
G1 X75.843 Y143.717 F7800.000
G1 E1.14682 F2400.00000
G92 E0
G1 X75.000 Y133.805 F7800.000
G1 E2.00000 F2400.00000
G1 F1800.000
G1 X74.288 Y133.692 E2.02174
G1 X73.645 Y133.365 E2.04348
G1 X73.135 Y132.855 E2.06522
G1 X72.808 Y132.212 E2.08696
G1 X72.695 Y131.500 E2.10870
G1 X72.808 Y130.788 E2.13044
G1 X73.135 Y130.145 E2.15219
G1 X73.645 Y129.635 E2.17393
G1 X74.288 Y129.308 E2.19567
G1 X75.000 Y129.195 E2.21741
G1 X75.712 Y129.308 E2.23915
G1 X76.355 Y129.635 E2.26089
G1 X76.865 Y130.145 E2.28263
G1 X77.192 Y130.788 E2.30437
G1 X77.305 Y131.500 E2.32611
G1 X77.192 Y132.212 E2.34785
G1 X76.865 Y132.855 E2.36959
G1 X76.355 Y133.365 E2.39133
G1 X75.712 Y133.692 E2.41307
G1 X75.059 Y133.796 E2.43301
G1 X75.000 Y133.536 F7800.000
G1 F1800.000
G1 X74.371 Y133.436 E2.45221
G1 X73.803 Y133.147 E2.47141
G1 X73.353 Y132.697 E2.49062
G1 X73.064 Y132.129 E2.50982
G1 X72.964 Y131.500 E2.52903
G1 X73.064 Y130.871 E2.54823
G1 X73.353 Y130.303 E2.56744
G1 X73.803 Y129.853 E2.58664
G1 X74.371 Y129.564 E2.60584
G1 X75.000 Y129.464 E2.62505
G1 X75.629 Y129.564 E2.64425
G1 X76.197 Y129.853 E2.66346
G1 X76.647 Y130.303 E2.68266
G1 X76.936 Y130.871 E2.70186
G1 X77.036 Y131.500 E2.72107
G1 X76.936 Y132.129 E2.74027
G1 X76.647 Y132.697 E2.75948
G1 X76.197 Y133.147 E2.77868
G1 X75.629 Y133.436 E2.79788
G1 X75.059 Y133.527 E2.81528
G1 X75.000 Y133.267 F7800.000
G1 F1800.000
G1 X74.454 Y133.181 E2.83195
G1 X73.961 Y132.930 E2.84861
G1 X73.570 Y132.539 E2.86528
G1 X73.319 Y132.046 E2.88195
G1 X73.233 Y131.500 E2.89862
G1 X73.319 Y130.954 E2.91528
G1 X73.570 Y130.461 E2.93195
G1 X73.961 Y130.070 E2.94862
G1 X74.454 Y129.819 E2.96529
G1 X75.000 Y129.733 E2.98195
G1 X75.546 Y129.819 E2.99862
G1 X76.039 Y130.070 E3.01529
G1 X76.430 Y130.461 E3.03196
G1 X76.681 Y130.954 E3.04862
G1 X76.767 Y131.500 E3.06529
G1 X76.681 Y132.046 E3.08196
G1 X76.430 Y132.539 E3.09863
G1 X76.039 Y132.930 E3.11529
G1 X75.546 Y133.181 E3.13196
G1 X75.059 Y133.258 E3.14682
G1 X74.800 Y133.613 F7800.000
G1 E1.14682 F2400.00000
G92 E0
G1 X75.000 Y117.305 F7800.000
G1 E2.00000 F2400.00000
G1 F1800.000
G1 X74.288 Y117.192 E2.02174
G1 X73.645 Y116.865 E2.04348
G1 X73.135 Y116.355 E2.06522
G1 X72.808 Y115.712 E2.08696
G1 X72.695 Y115.000 E2.10870
G1 X72.808 Y114.288 E2.13044
G1 X73.135 Y113.645 E2.15219
G1 X73.645 Y113.135 E2.17393
G1 X74.288 Y112.808 E2.19567
G1 X75.000 Y112.695 E2.21741
G1 X75.712 Y112.808 E2.23915
G1 X76.355 Y113.135 E2.26089
G1 X76.865 Y113.645 E2.28263
G1 X77.192 Y114.288 E2.30437
G1 X77.305 Y115.000 E2.32611
G1 X77.192 Y115.712 E2.34785
G1 X76.865 Y116.355 E2.36959
G1 X76.355 Y116.865 E2.39133
G1 X75.712 Y117.192 E2.41307
G1 X75.059 Y117.296 E2.43301
G1 X75.000 Y117.036 F7800.000
G1 F1800.000
G1 X74.371 Y116.936 E2.45221
G1 X73.803 Y116.647 E2.47141
G1 X73.353 Y116.197 E2.49062
G1 X73.064 Y115.629 E2.50982
G1 X72.964 Y115.000 E2.52903
G1 X73.064 Y114.371 E2.54823
G1 X73.353 Y113.803 E2.56744
G1 X73.803 Y113.353 E2.58664
G1 X74.371 Y113.064 E2.60584
G1 X75.000 Y112.964 E2.62505
G1 X75.629 Y113.064 E2.64425
G1 X76.197 Y113.353 E2.66346
G1 X76.647 Y113.803 E2.68266
G1 X76.936 Y114.371 E2.70186
G1 X77.036 Y115.000 E2.72107
G1 X76.936 Y115.629 E2.74027
G1 X76.647 Y116.197 E2.75948
G1 X76.197 Y116.647 E2.77868
G1 X75.629 Y116.936 E2.79788
G1 X75.059 Y117.027 E2.81528
G1 X75.000 Y116.767 F7800.000
G1 F1800.000
G1 X74.454 Y116.681 E2.83195
G1 X73.961 Y116.430 E2.84861
G1 X73.570 Y116.039 E2.86528
G1 X73.319 Y115.546 E2.88195
G1 X73.233 Y115.000 E2.89862
G1 X73.319 Y114.454 E2.91528
G1 X73.570 Y113.961 E2.93195
G1 X73.961 Y113.570 E2.94862
G1 X74.454 Y113.319 E2.96529
G1 X75.000 Y113.233 E2.98195
G1 X75.546 Y113.319 E2.99862
G1 X76.039 Y113.570 E3.01529
G1 X76.430 Y113.961 E3.03195
G1 X76.681 Y114.454 E3.04862
G1 X76.767 Y115.000 E3.06529
G1 X76.681 Y115.546 E3.08196
G1 X76.430 Y116.039 E3.09863
G1 X76.039 Y116.430 E3.11529
G1 X75.546 Y116.681 E3.13196
G1 X75.059 Y116.758 E3.14682
G1 X74.800 Y117.113 F7800.000
G1 E1.14682 F2400.00000
G92 E0
G1 X75.000 Y100.805 F7800.000
G1 E2.00000 F2400.00000
G1 F1800.000
G1 X74.288 Y100.692 E2.02174
G1 X73.645 Y100.365 E2.04348
G1 X73.135 Y99.855 E2.06522
G1 X72.808 Y99.212 E2.08696
G1 X72.695 Y98.500 E2.10870
G1 X72.808 Y97.788 E2.13044
G1 X73.135 Y97.145 E2.15219
G1 X73.645 Y96.635 E2.17393
G1 X74.288 Y96.308 E2.19567
G1 X75.000 Y96.195 E2.21741
G1 X75.712 Y96.308 E2.23915
G1 X76.355 Y96.635 E2.26089
G1 X76.865 Y97.145 E2.28263
G1 X77.192 Y97.788 E2.30437
G1 X77.305 Y98.500 E2.32611
G1 X77.192 Y99.212 E2.34785
G1 X76.865 Y99.855 E2.36959
G1 X76.355 Y100.365 E2.39133
G1 X75.712 Y100.692 E2.41307
G1 X75.059 Y100.796 E2.43301
G1 X75.000 Y100.536 F7800.000
G1 F1800.000
G1 X74.371 Y100.436 E2.45221
G1 X73.803 Y100.147 E2.47141
G1 X73.353 Y99.697 E2.49062
G1 X73.064 Y99.129 E2.50982
G1 X72.964 Y98.500 E2.52903
G1 X73.064 Y97.871 E2.54823
G1 X73.353 Y97.303 E2.56744
G1 X73.803 Y96.853 E2.58664
G1 X74.371 Y96.564 E2.60584
G1 X75.000 Y96.464 E2.62505
G1 X75.629 Y96.564 E2.64425
G1 X76.197 Y96.853 E2.66346
G1 X76.647 Y97.303 E2.68266
G1 X76.936 Y97.871 E2.70186
G1 X77.036 Y98.500 E2.72107
G1 X76.936 Y99.129 E2.74027
G1 X76.647 Y99.697 E2.75948
G1 X76.197 Y100.147 E2.77868
G1 X75.629 Y100.436 E2.79788
G1 X75.059 Y100.527 E2.81528
G1 X75.000 Y100.267 F7800.000
G1 F1800.000
G1 X74.454 Y100.181 E2.83195
G1 X73.961 Y99.930 E2.84861
G1 X73.570 Y99.539 E2.86528
G1 X73.319 Y99.046 E2.88195
G1 X73.233 Y98.500 E2.89862
G1 X73.319 Y97.954 E2.91528
G1 X73.570 Y97.461 E2.93195
G1 X73.961 Y97.070 E2.94862
G1 X74.454 Y96.819 E2.96529
G1 X75.000 Y96.733 E2.98195
G1 X75.546 Y96.819 E2.99862
G1 X76.039 Y97.070 E3.01529
G1 X76.430 Y97.461 E3.03196
G1 X76.681 Y97.954 E3.04862
G1 X76.767 Y98.500 E3.06529
G1 X76.681 Y99.046 E3.08196
G1 X76.430 Y99.539 E3.09863
G1 X76.039 Y99.930 E3.11529
G1 X75.546 Y100.181 E3.13196
G1 X75.059 Y100.258 E3.14682
G1 X74.800 Y100.613 F7800.000
G1 E1.14682 F2400.00000
G92 E0
G1 X75.000 Y86.640 F7800.000
G1 E2.00000 F2400.00000
G1 F1800.000
G1 X74.288 Y86.527 E2.02174
G1 X73.645 Y86.200 E2.04348
G1 X73.135 Y85.690 E2.06522
G1 X72.808 Y85.047 E2.08696
G1 X72.695 Y84.335 E2.10870
G1 X72.808 Y83.623 E2.13044
G1 X73.135 Y82.980 E2.15219
G1 X73.645 Y82.470 E2.17393
G1 X74.288 Y82.143 E2.19567
G1 X75.000 Y82.030 E2.21741
G1 X75.712 Y82.143 E2.23915
G1 X76.355 Y82.470 E2.26089
G1 X76.865 Y82.980 E2.28263
G1 X77.192 Y83.623 E2.30437
G1 X77.305 Y84.335 E2.32611
G1 X77.192 Y85.047 E2.34785
G1 X76.865 Y85.690 E2.36959
G1 X76.355 Y86.200 E2.39133
G1 X75.712 Y86.527 E2.41307
G1 X75.059 Y86.631 E2.43301
G1 X75.000 Y86.371 F7800.000
G1 F1800.000
G1 X74.371 Y86.271 E2.45221
G1 X73.803 Y85.982 E2.47141
G1 X73.353 Y85.532 E2.49062
G1 X73.064 Y84.964 E2.50982
G1 X72.964 Y84.335 E2.52903
G1 X73.064 Y83.706 E2.54823
G1 X73.353 Y83.138 E2.56744
G1 X73.803 Y82.688 E2.58664
G1 X74.371 Y82.399 E2.60584
G1 X75.000 Y82.299 E2.62505
G1 X75.629 Y82.399 E2.64425
G1 X76.197 Y82.688 E2.66346
G1 X76.647 Y83.138 E2.68266
G1 X76.936 Y83.706 E2.70186
G1 X77.036 Y84.335 E2.72107
G1 X76.936 Y84.964 E2.74027
G1 X76.647 Y85.532 E2.75948
G1 X76.197 Y85.982 E2.77868
G1 X75.629 Y86.271 E2.79788
G1 X75.059 Y86.362 E2.81528
G1 X75.000 Y86.102 F7800.000
G1 F1800.000
G1 X74.454 Y86.016 E2.83195
G1 X73.961 Y85.765 E2.84861
G1 X73.570 Y85.374 E2.86528
G1 X73.319 Y84.881 E2.88195
G1 X73.233 Y84.335 E2.89862
G1 X73.319 Y83.789 E2.91528
G1 X73.570 Y83.296 E2.93195
G1 X73.961 Y82.905 E2.94862
G1 X74.454 Y82.654 E2.96529
G1 X75.000 Y82.568 E2.98195
G1 X75.546 Y82.654 E2.99862
G1 X76.039 Y82.905 E3.01529
G1 X76.430 Y83.296 E3.03196
G1 X76.681 Y83.789 E3.04862
G1 X76.767 Y84.335 E3.06529
G1 X76.681 Y84.881 E3.08196
G1 X76.430 Y85.374 E3.09863
G1 X76.039 Y85.765 E3.11529
G1 X75.546 Y86.016 E3.13196
G1 X75.059 Y86.093 E3.14682
G1 X74.800 Y86.448 F7800.000
G1 E1.14682 F2400.00000
G92 E0
G1 X81.304 Y80.696 F7800.000
G1 E2.00000 F2400.00000
G1 F1800.000
G1 X81.304 Y105.599 E2.75076
G1 X82.206 Y106.292 E2.78506
G1 X82.738 Y106.760 E2.80642
G1 X83.240 Y107.262 E2.82783
G1 X83.709 Y107.795 E2.84923
G1 X84.145 Y108.356 E2.87064
G1 X84.544 Y108.943 E2.89205
G1 X84.905 Y109.555 E2.91346
G1 X85.228 Y110.187 E2.93487
G1 X85.510 Y110.839 E2.95628
G1 X85.750 Y111.507 E2.97768
G1 X85.948 Y112.189 E2.99909
G1 X86.103 Y112.882 E3.02050
G1 X86.214 Y113.583 E3.04191
G1 X86.281 Y114.290 E3.06331
G1 X86.303 Y115.000 E3.08472
G1 X86.281 Y115.710 E3.10613
G1 X86.228 Y116.273 E3.12319
G1 X86.095 Y116.284 E3.12720
G1 X86.007 Y115.954 E3.13749
G1 X85.614 Y115.350 E3.15923
G1 X85.054 Y114.896 E3.18097
G1 X84.380 Y114.637 E3.20271
G1 X83.660 Y114.600 E3.22445
G1 X82.964 Y114.786 E3.24619
G1 X82.359 Y115.179 E3.26794
G1 X81.905 Y115.740 E3.28967
G1 X81.647 Y116.413 E3.31141
G1 X81.609 Y117.133 E3.33315
G1 X81.795 Y117.830 E3.35490
G1 X82.188 Y118.434 E3.37664
G1 X82.749 Y118.888 E3.39838
G1 X83.422 Y119.147 E3.42012
G1 X84.142 Y119.184 E3.44186
G1 X84.839 Y118.998 E3.46360
G1 X85.443 Y118.605 E3.48534
G1 X85.663 Y118.333 E3.49588
G1 X85.779 Y118.394 E3.49981
G1 X85.510 Y119.161 E3.52434
G1 X85.228 Y119.813 E3.54575
G1 X84.905 Y120.445 E3.56715
G1 X84.544 Y121.057 E3.58856
G1 X84.145 Y121.644 E3.60997
G1 X83.709 Y122.205 E3.63138
G1 X83.240 Y122.738 E3.65279
G1 X82.738 Y123.240 E3.67419
G1 X82.206 Y123.708 E3.69555
G1 X81.304 Y124.401 E3.72985
G1 X81.304 Y149.304 E4.48061
G1 X68.696 Y149.304 E4.86070
G1 X68.696 Y124.401 E5.61146
G1 X67.794 Y123.708 E5.64577
G1 X67.262 Y123.240 E5.66712
G1 X66.760 Y122.738 E5.68853
G1 X66.291 Y122.205 E5.70994
G1 X65.855 Y121.644 E5.73135
G1 X65.456 Y121.057 E5.75275
G1 X65.095 Y120.445 E5.77416
G1 X64.772 Y119.813 E5.79557
G1 X64.490 Y119.161 E5.81698
G1 X64.250 Y118.493 E5.83839
G1 X64.052 Y117.811 E5.85979
G1 X63.897 Y117.118 E5.88120
G1 X63.786 Y116.417 E5.90261
G1 X63.719 Y115.710 E5.92402
G1 X63.697 Y115.000 E5.94543
G1 X63.719 Y114.290 E5.96683
G1 X63.772 Y113.727 E5.98389
G1 X63.905 Y113.716 E5.98791
G1 X63.993 Y114.046 E5.99819
G1 X64.386 Y114.650 E6.01993
G1 X64.946 Y115.104 E6.04167
G1 X65.620 Y115.363 E6.06341
G1 X66.340 Y115.400 E6.08515
G1 X67.036 Y115.214 E6.10690
G1 X67.641 Y114.821 E6.12864
G1 X68.095 Y114.260 E6.15038
G1 X68.353 Y113.587 E6.17212
G1 X68.391 Y112.867 E6.19386
G1 X68.205 Y112.170 E6.21560
G1 X67.812 Y111.566 E6.23734
G1 X67.251 Y111.112 E6.25908
G1 X66.578 Y110.853 E6.28082
G1 X65.858 Y110.816 E6.30256
G1 X65.161 Y111.002 E6.32430
G1 X64.557 Y111.395 E6.34604
G1 X64.337 Y111.667 E6.35659
G1 X64.221 Y111.606 E6.36052
G1 X64.490 Y110.839 E6.38504
G1 X64.772 Y110.187 E6.40645
G1 X65.095 Y109.555 E6.42785
G1 X65.456 Y108.943 E6.44926
G1 X65.855 Y108.356 E6.47067
G1 X66.291 Y107.795 E6.49208
G1 X66.760 Y107.262 E6.51349
G1 X67.262 Y106.760 E6.53490
G1 X67.794 Y106.292 E6.55625
G1 X68.696 Y105.599 E6.59056
G1 X68.696 Y80.696 E7.34132
G1 X81.244 Y80.696 E7.71960
G1 E5.71960 F2400.00000
G92 E0
G1 X67.117 Y111.345 F7800.000
G1 E2.00000 F2400.00000
G1 F1800.000
G1 X67.612 Y111.746 E2.01920
G1 X67.959 Y112.280 E2.03841
G1 X68.124 Y112.895 E2.05761
G1 X68.090 Y113.531 E2.07682
G1 X67.862 Y114.126 E2.09602
G1 X67.461 Y114.621 E2.11522
G1 X66.927 Y114.968 E2.13443
G1 X66.312 Y115.133 E2.15363
G1 X65.676 Y115.099 E2.17284
G1 X65.081 Y114.871 E2.19204
G1 X64.586 Y114.470 E2.21124
G1 X64.239 Y113.936 E2.23045
G1 X64.074 Y113.321 E2.24965
G1 X64.107 Y112.685 E2.26886
G1 X64.336 Y112.090 E2.28806
G1 X64.737 Y111.595 E2.30726
G1 X65.271 Y111.248 E2.32647
G1 X65.886 Y111.083 E2.34567
G1 X66.522 Y111.117 E2.36488
G1 X67.061 Y111.323 E2.38227
G1 X66.982 Y111.578 F7800.000
G1 F1800.000
G1 X67.412 Y111.926 E2.39894
G1 X67.713 Y112.389 E2.41561
G1 X67.856 Y112.923 E2.43228
G1 X67.827 Y113.475 E2.44894
G1 X67.629 Y113.992 E2.46561
G1 X67.281 Y114.421 E2.48228
G1 X66.818 Y114.722 E2.49894
G1 X66.284 Y114.865 E2.51561
G1 X65.731 Y114.836 E2.53228
G1 X65.215 Y114.638 E2.54895
G1 X64.786 Y114.290 E2.56561
G1 X64.485 Y113.827 E2.58228
G1 X64.341 Y113.293 E2.59895
G1 X64.370 Y112.741 E2.61562
G1 X64.569 Y112.224 E2.63228
G1 X64.916 Y111.795 E2.64895
G1 X65.380 Y111.494 E2.66562
G1 X65.914 Y111.351 E2.68229
G1 X66.466 Y111.380 E2.69895
G1 X66.926 Y111.556 E2.71381
G1 X67.329 Y111.378 F7800.000
G1 E0.71381 F2400.00000
G92 E0
