; generated by Slic3r 1.3.1-dev (Build adea0d9) on 2020-03-04 at 15:11:02

; external perimeters extrusion width = 0.44mm (1.51mm^3/s)
; perimeters extrusion width = 0.56mm (2.15mm^3/s)
; infill extrusion width = 0.50mm (1.91mm^3/s)
; solid infill extrusion width = 0.56mm (1.62mm^3/s)
; top infill extrusion width = 0.56mm (1.62mm^3/s)

M107
G92 E0
;D3D:START:START
T0
M104 S215 T0

G21
G90
M107
T0
G28
G29
M109 T0 S215 T0
G0 F3000
M107
T0
G92 E0
G0 X0 Y149 Z0.1 F3600
G1 Y49 E6.5 F1200
G0 Z1
G92 E0
; Filament gcode

G21 ; set units to millimeters
G90 ; use absolute coordinates
M82 ; use absolute distances for extrusion
G92 E0
G1 Z0.300 F7800.000
G1 E-2.00000 F2400.00000
G92 E0
G1 X95.010 Y103.135 F7800.000
G1 E2.00000 F2400.00000
G1 F1800.000
G1 X95.653 Y102.808 E2.02174
G1 X96.365 Y102.695 E2.04348
G1 X97.077 Y102.808 E2.06522
G1 X97.720 Y103.135 E2.08697
G1 X98.230 Y103.645 E2.10870
G1 X98.557 Y104.288 E2.13045
G1 X98.670 Y105.000 E2.15219
G1 X98.557 Y105.712 E2.17393
G1 X98.230 Y106.355 E2.19567
G1 X97.720 Y106.865 E2.21741
G1 X97.077 Y107.192 E2.23915
G1 X96.365 Y107.305 E2.26089
G1 X95.653 Y107.192 E2.28263
G1 X95.010 Y106.865 E2.30437
G1 X94.500 Y106.355 E2.32611
G1 X94.173 Y105.712 E2.34785
G1 X94.060 Y105.000 E2.36959
G1 X94.173 Y104.288 E2.39133
G1 X94.500 Y103.645 E2.41308
G1 X94.968 Y103.178 E2.43301
G1 X95.168 Y103.353 F7800.000
G1 F1800.000
G1 X95.736 Y103.064 E2.45221
G1 X96.365 Y102.964 E2.47142
G1 X96.994 Y103.064 E2.49062
G1 X97.562 Y103.353 E2.50982
G1 X98.012 Y103.803 E2.52903
G1 X98.301 Y104.371 E2.54823
G1 X98.401 Y105.000 E2.56744
G1 X98.301 Y105.629 E2.58664
G1 X98.012 Y106.197 E2.60585
G1 X97.562 Y106.647 E2.62505
G1 X96.994 Y106.936 E2.64425
G1 X96.365 Y107.036 E2.66346
G1 X95.736 Y106.936 E2.68266
G1 X95.168 Y106.647 E2.70187
G1 X94.718 Y106.197 E2.72107
G1 X94.429 Y105.629 E2.74027
G1 X94.329 Y105.000 E2.75948
G1 X94.429 Y104.371 E2.77868
G1 X94.718 Y103.803 E2.79789
G1 X95.126 Y103.395 E2.81528
G1 X95.326 Y103.570 F7800.000
G1 F1800.000
G1 X95.819 Y103.319 E2.83195
G1 X96.365 Y103.233 E2.84861
G1 X96.911 Y103.319 E2.86528
G1 X97.404 Y103.570 E2.88195
G1 X97.795 Y103.961 E2.89862
G1 X98.046 Y104.454 E2.91529
G1 X98.132 Y105.000 E2.93195
G1 X98.046 Y105.546 E2.94862
G1 X97.795 Y106.039 E2.96529
G1 X97.404 Y106.430 E2.98195
G1 X96.911 Y106.681 E2.99862
G1 X96.365 Y106.767 E3.01529
G1 X95.819 Y106.681 E3.03196
G1 X95.326 Y106.430 E3.04863
G1 X94.935 Y106.039 E3.06529
G1 X94.684 Y105.546 E3.08196
G1 X94.598 Y105.000 E3.09863
G1 X94.684 Y104.454 E3.11529
G1 X94.935 Y103.961 E3.13196
G1 X95.284 Y103.613 E3.14682
G1 X95.284 Y103.173 F7800.000
G1 E1.14682 F2400.00000
G92 E0
G1 X84.505 Y105.000 F7800.000
G1 E2.00000 F2400.00000
G1 F1800.000
G1 X84.392 Y105.712 E2.02174
G1 X84.065 Y106.355 E2.04348
G1 X83.555 Y106.865 E2.06522
G1 X82.912 Y107.192 E2.08696
G1 X82.200 Y107.305 E2.10870
G1 X81.488 Y107.192 E2.13044
G1 X80.845 Y106.865 E2.15219
G1 X80.335 Y106.355 E2.17392
G1 X80.008 Y105.712 E2.19567
G1 X79.895 Y105.000 E2.21741
G1 X80.008 Y104.288 E2.23915
G1 X80.335 Y103.645 E2.26089
G1 X80.845 Y103.135 E2.28263
G1 X81.488 Y102.808 E2.30437
G1 X82.200 Y102.695 E2.32611
G1 X82.912 Y102.808 E2.34785
G1 X83.555 Y103.135 E2.36959
G1 X84.065 Y103.645 E2.39133
G1 X84.392 Y104.288 E2.41307
G1 X84.496 Y104.941 E2.43301
G1 X84.236 Y105.000 F7800.000
G1 F1800.000
G1 X84.136 Y105.629 E2.45221
G1 X83.847 Y106.197 E2.47142
G1 X83.397 Y106.647 E2.49062
G1 X82.829 Y106.936 E2.50982
G1 X82.200 Y107.036 E2.52903
G1 X81.571 Y106.936 E2.54823
G1 X81.003 Y106.647 E2.56744
G1 X80.553 Y106.197 E2.58664
G1 X80.264 Y105.629 E2.60584
G1 X80.164 Y105.000 E2.62505
G1 X80.264 Y104.371 E2.64425
G1 X80.553 Y103.803 E2.66346
G1 X81.003 Y103.353 E2.68266
G1 X81.571 Y103.064 E2.70186
G1 X82.200 Y102.964 E2.72107
G1 X82.829 Y103.064 E2.74027
G1 X83.397 Y103.353 E2.75948
G1 X83.847 Y103.803 E2.77868
G1 X84.136 Y104.371 E2.79788
G1 X84.227 Y104.941 E2.81528
G1 X83.967 Y105.000 F7800.000
G1 F1800.000
G1 X83.881 Y105.546 E2.83195
G1 X83.630 Y106.039 E2.84862
G1 X83.239 Y106.430 E2.86528
G1 X82.746 Y106.681 E2.88195
G1 X82.200 Y106.767 E2.89862
G1 X81.654 Y106.681 E2.91528
G1 X81.161 Y106.430 E2.93195
G1 X80.770 Y106.039 E2.94862
G1 X80.519 Y105.546 E2.96529
G1 X80.433 Y105.000 E2.98195
G1 X80.519 Y104.454 E2.99862
G1 X80.770 Y103.961 E3.01529
G1 X81.161 Y103.570 E3.03195
G1 X81.654 Y103.319 E3.04862
G1 X82.200 Y103.233 E3.06529
G1 X82.746 Y103.319 E3.08196
G1 X83.239 Y103.570 E3.09863
G1 X83.630 Y103.961 E3.11529
G1 X83.881 Y104.454 E3.13196
G1 X83.958 Y104.941 E3.14682
G1 X84.313 Y105.200 F7800.000
G1 E1.14682 F2400.00000
G92 E0
G1 X77.296 Y98.696 F7800.000
G1 E2.00000 F2400.00000
G1 F1800.000
G1 X102.156 Y98.696 E2.74947
G1 X104.542 Y111.304 E3.13631
G1 X77.296 Y111.304 E3.95772
G1 X77.296 Y98.756 E4.33600
G1 X77.031 Y98.431 F7800.000
G1 F1800.000
G1 X102.376 Y98.431 E5.10011
G1 X104.863 Y111.569 E5.50325
G1 X77.031 Y111.569 E6.34233
G1 X77.031 Y98.491 E6.73663
G1 X76.765 Y98.165 F7800.000
G1 F1800.000
G1 X102.596 Y98.165 E7.51538
G1 X105.184 Y111.835 E7.93482
G1 X76.765 Y111.835 E8.79158
G1 X76.765 Y98.225 E9.20189
G1 X77.161 Y98.225 F7800.000
G1 X77.459 Y99.065 F7800.000
G1 F1800.000
G1 X77.665 Y98.859 E9.21071
G1 X78.041 Y98.859 E9.22206
G1 X77.459 Y99.441 E9.24694
G1 X77.459 Y99.818 E9.25830
G1 X78.418 Y98.859 E9.29923
G1 X78.794 Y98.859 E9.31058
G1 X77.459 Y100.194 E9.36757
G1 X77.459 Y100.570 E9.37892
G1 X79.170 Y98.859 E9.45196
G1 X79.546 Y98.859 E9.46331
G1 X77.459 Y100.946 E9.55241
G1 X77.459 Y101.322 E9.56376
G1 X79.922 Y98.859 E9.66890
G1 X80.298 Y98.859 E9.68026
G1 X77.459 Y101.698 E9.80145
G1 X77.459 Y102.074 E9.81281
G1 X80.674 Y98.859 E9.95006
G1 X81.050 Y98.859 E9.96141
G1 X77.459 Y102.450 E10.11471
G1 X77.459 Y102.826 E10.12606
G1 X81.426 Y98.859 E10.29542
G1 X81.802 Y98.859 E10.30677
G1 X77.459 Y103.202 E10.49218
G1 X77.459 Y103.578 E10.50353
G1 X82.178 Y98.859 E10.70500
G1 X82.554 Y98.859 E10.71635
G1 X77.459 Y103.954 E10.93386
G1 X77.459 Y104.330 E10.94521
G1 X82.930 Y98.859 E11.17878
G1 X83.307 Y98.859 E11.19013
G1 X77.459 Y104.707 E11.43975
G1 X77.459 Y105.083 E11.45110
G1 X83.683 Y98.859 E11.71678
G1 X84.059 Y98.859 E11.72813
G1 X77.459 Y105.459 E12.00985
G1 X77.459 Y105.835 E12.02120
G1 X84.435 Y98.859 E12.31898
G1 X84.811 Y98.859 E12.33033
G1 X80.715 Y102.954 E12.50515
G1 X81.301 Y102.655 E12.52500
G1 X81.407 Y102.639 E12.52822
G1 X85.187 Y98.859 E12.68958
G1 X85.563 Y98.859 E12.70093
G1 X81.854 Y102.568 E12.85926
G1 X82.097 Y102.529 E12.86669
G1 X82.245 Y102.553 E12.87122
G1 X85.939 Y98.859 E13.02891
G1 X86.315 Y98.859 E13.04026
G1 X82.569 Y102.604 E13.20015
G1 X82.894 Y102.656 E13.21006
G1 X86.691 Y98.859 E13.37216
G1 X87.067 Y98.859 E13.38351
G1 X83.143 Y102.783 E13.55104
G1 X83.392 Y102.910 E13.55947
G1 X87.443 Y98.859 E13.73241
G1 X87.819 Y98.859 E13.74377
G1 X83.633 Y103.045 E13.92245
G1 X83.821 Y103.233 E13.93048
G1 X88.196 Y98.859 E14.11719
G1 X88.572 Y98.859 E14.12854
G1 X84.009 Y103.421 E14.32328
G1 X84.191 Y103.615 E14.33131
G1 X88.948 Y98.859 E14.53433
G1 X89.324 Y98.859 E14.54568
G1 X84.318 Y103.864 E14.75934
G1 X84.445 Y104.113 E14.76778
G1 X89.700 Y98.859 E14.99207
G1 X90.076 Y98.859 E15.00342
G1 X84.556 Y104.379 E15.23905
G1 X84.607 Y104.703 E15.24897
G1 X90.452 Y98.859 E15.49845
G1 X90.828 Y98.859 E15.50980
G1 X84.659 Y105.028 E15.77315
G1 X84.671 Y105.103 E15.77545
G1 X84.616 Y105.447 E15.78594
G1 X91.204 Y98.859 E16.06714
G1 X91.580 Y98.859 E16.07849
G1 X84.545 Y105.893 E16.37877
G1 E14.37877 F2400.00000
G92 E0
G1 X80.154 Y103.515 F7800.000
G1 E2.00000 F2400.00000
G1 F1800.000
G1 X77.459 Y106.211 E2.11506
G1 X77.459 Y106.587 E2.12641
G1 X79.839 Y104.207 E2.22800
G1 X79.768 Y104.654 E2.24166
G1 X77.459 Y106.963 E2.34024
G1 X77.459 Y107.339 E2.35159
G1 X79.753 Y105.045 E2.44952
G1 X79.804 Y105.369 E2.45945
G1 X77.459 Y107.715 E2.55958
G1 X77.459 Y108.091 E2.57093
G1 X79.856 Y105.694 E2.67327
G1 X79.983 Y105.943 E2.68171
G1 X77.459 Y108.467 E2.78947
G1 X77.459 Y108.843 E2.80082
G1 X80.110 Y106.192 E2.91400
G1 X80.245 Y106.433 E2.92235
G1 X77.459 Y109.219 E3.04128
G1 X77.459 Y109.596 E3.05263
G1 X80.433 Y106.621 E3.17958
G1 X80.621 Y106.809 E3.18761
G1 X77.459 Y109.972 E3.32259
G1 X77.459 Y110.348 E3.33394
G1 X80.815 Y106.991 E3.47720
G1 X81.064 Y107.118 E3.48564
G1 X77.459 Y110.724 E3.63954
G1 X77.459 Y111.100 E3.65089
G1 X81.313 Y107.245 E3.81542
G1 X81.508 Y107.345 E3.82202
G1 X81.579 Y107.356 E3.82418
G1 X77.793 Y111.141 E3.98577
G1 X78.169 Y111.141 E3.99713
G1 X81.903 Y107.407 E4.15652
G1 X82.228 Y107.459 E4.16644
G1 X78.545 Y111.141 E4.32365
G1 X78.921 Y111.141 E4.33500
G1 X82.647 Y107.416 E4.49401
G1 X83.093 Y107.345 E4.50767
G1 X79.297 Y111.141 E4.66970
G1 X79.673 Y111.141 E4.68105
G1 X91.956 Y98.859 E5.20535
G1 X92.332 Y98.859 E5.21670
G1 X80.049 Y111.141 E5.74099
G1 X80.426 Y111.141 E5.75234
G1 X92.708 Y98.859 E6.27663
G1 X93.085 Y98.859 E6.28799
G1 X80.802 Y111.141 E6.81228
G1 X81.178 Y111.141 E6.82363
G1 X93.461 Y98.859 E7.34792
G1 X93.837 Y98.859 E7.35927
G1 X81.554 Y111.141 E7.88357
G1 X81.930 Y111.141 E7.89492
G1 X94.213 Y98.859 E8.41921
G1 X94.589 Y98.859 E8.43056
G1 X82.306 Y111.141 E8.95486
G1 X82.682 Y111.141 E8.96621
G1 X94.965 Y98.859 E9.49050
G1 X95.341 Y98.859 E9.50185
G1 X83.058 Y111.141 E10.02615
G1 X83.434 Y111.141 E10.03750
G1 X95.717 Y98.859 E10.56179
G1 X96.093 Y98.859 E10.57314
G1 X83.810 Y111.141 E11.09744
G1 X84.186 Y111.141 E11.10879
G1 X96.469 Y98.859 E11.63308
G1 X96.845 Y98.859 E11.64443
G1 X84.562 Y111.141 E12.16872
G1 X84.938 Y111.141 E12.18008
G1 X97.221 Y98.859 E12.70437
G1 X97.597 Y98.859 E12.71572
G1 X85.315 Y111.141 E13.24001
G1 X85.691 Y111.141 E13.25136
G1 X97.974 Y98.859 E13.77566
G1 X98.350 Y98.859 E13.78701
G1 X86.067 Y111.141 E14.31130
G1 X86.443 Y111.141 E14.32265
G1 X98.726 Y98.859 E14.84695
G1 X99.102 Y98.859 E14.85830
G1 X95.137 Y102.823 E15.02753
G1 X95.466 Y102.655 E15.03869
G1 X95.721 Y102.615 E15.04648
G1 X99.478 Y98.859 E15.20682
G1 X99.854 Y98.859 E15.21817
G1 X96.168 Y102.544 E15.37550
G1 X96.262 Y102.529 E15.37836
G1 X96.518 Y102.570 E15.38620
G1 X100.230 Y98.859 E15.54463
G1 X100.606 Y98.859 E15.55598
G1 X96.843 Y102.622 E15.71660
G1 X97.057 Y102.655 E15.72314
G1 X97.142 Y102.699 E15.72602
G1 X100.982 Y98.859 E15.88994
G1 X101.358 Y98.859 E15.90129
G1 X97.391 Y102.826 E16.07062
G1 X97.640 Y102.953 E16.07906
G1 X101.734 Y98.859 E16.25382
G1 X102.039 Y98.859 E16.26302
G1 X102.051 Y98.918 E16.26486
G1 X97.861 Y103.108 E16.44368
G1 X98.049 Y103.296 E16.45170
G1 X102.110 Y99.235 E16.62505
G1 X102.170 Y99.551 E16.63477
G1 X98.237 Y103.484 E16.80264
G1 X98.344 Y103.590 E16.80719
G1 X98.399 Y103.698 E16.81085
G1 X102.230 Y99.867 E16.97438
G1 X102.290 Y100.183 E16.98410
G1 X98.526 Y103.947 E17.14477
G1 X98.653 Y104.197 E17.15321
G1 X102.350 Y100.499 E17.31101
G1 X102.410 Y100.816 E17.32073
G1 X98.738 Y104.487 E17.47745
G1 X98.789 Y104.812 E17.48737
G1 X102.470 Y101.132 E17.64446
G1 X102.529 Y101.448 E17.65417
G1 X98.828 Y105.149 E17.81215
G1 X98.757 Y105.596 E17.82581
G1 X102.589 Y101.764 E17.98937
G1 X102.649 Y102.081 E17.99908
G1 X98.583 Y106.146 E18.17262
G1 E16.17262 F2400.00000
G92 E0
G1 X94.188 Y103.772 F7800.000
G1 E2.00000 F2400.00000
G1 F1800.000
G1 X86.819 Y111.141 E2.31456
G1 X87.195 Y111.141 E2.32591
G1 X93.980 Y104.356 E2.61554
G1 X93.909 Y104.803 E2.62919
G1 X87.571 Y111.141 E2.89974
G1 X87.947 Y111.141 E2.91109
G1 X93.935 Y105.153 E3.16669
G1 X93.987 Y105.478 E3.17661
G1 X88.323 Y111.141 E3.41835
G1 X88.699 Y111.141 E3.42971
G1 X94.064 Y105.777 E3.65869
G1 X94.191 Y106.026 E3.66713
G1 X89.075 Y111.141 E3.88548
G1 X89.451 Y111.141 E3.89683
G1 X94.318 Y106.275 E4.10454
G1 X94.386 Y106.410 E4.10909
G1 X94.473 Y106.496 E4.11279
G1 X89.827 Y111.141 E4.31107
G1 X90.203 Y111.141 E4.32242
G1 X94.661 Y106.684 E4.51268
G1 X94.849 Y106.872 E4.52070
G1 X90.580 Y111.141 E4.70293
G1 X90.956 Y111.141 E4.71428
G1 X95.063 Y107.034 E4.88962
G1 X95.312 Y107.161 E4.89805
G1 X91.332 Y111.141 E5.06797
G1 X91.708 Y111.141 E5.07932
G1 X95.562 Y107.288 E5.24381
G1 X95.673 Y107.345 E5.24759
G1 X95.852 Y107.373 E5.25307
G1 X92.084 Y111.141 E5.41393
G1 X92.460 Y111.141 E5.42528
G1 X96.177 Y107.424 E5.58394
G1 X96.514 Y107.463 E5.59419
G1 X92.836 Y111.141 E5.75119
G1 X93.212 Y111.141 E5.76254
G1 X96.961 Y107.392 E5.92257
G1 X97.264 Y107.345 E5.93181
G1 X97.511 Y107.218 E5.94020
G1 X93.588 Y111.141 E6.10766
G1 X93.964 Y111.141 E6.11901
G1 X102.709 Y102.397 E6.49227
G1 X102.769 Y102.713 E6.50199
G1 X94.340 Y111.141 E6.86175
G1 X94.716 Y111.141 E6.87310
G1 X102.829 Y103.029 E7.21937
G1 X102.889 Y103.345 E7.22909
G1 X95.092 Y111.141 E7.56186
G1 X95.469 Y111.141 E7.57321
G1 X102.948 Y103.662 E7.89248
G1 X103.008 Y103.978 E7.90219
G1 X95.845 Y111.141 E8.20797
G1 X96.221 Y111.141 E8.21932
G1 X103.068 Y104.294 E8.51160
G1 X103.128 Y104.610 E8.52131
G1 X96.597 Y111.141 E8.80009
G1 X96.973 Y111.141 E8.81144
G1 X103.188 Y104.927 E9.07672
G1 X103.248 Y105.243 E9.08644
G1 X97.349 Y111.141 E9.33822
G1 X97.725 Y111.141 E9.34957
G1 X103.307 Y105.559 E9.58786
G1 X103.367 Y105.875 E9.59757
G1 X98.101 Y111.141 E9.82236
G1 X98.477 Y111.141 E9.83371
G1 X103.427 Y106.191 E10.04500
G1 X103.487 Y106.508 E10.05472
G1 X98.853 Y111.141 E10.25251
G1 X99.229 Y111.141 E10.26386
G1 X103.547 Y106.824 E10.44815
G1 X103.607 Y107.140 E10.45787
G1 X99.605 Y111.141 E10.62867
G1 X99.981 Y111.141 E10.64002
G1 X103.667 Y107.456 E10.79732
G1 X103.726 Y107.773 E10.80703
G1 X100.358 Y111.141 E10.95083
G1 X100.734 Y111.141 E10.96218
G1 X103.786 Y108.089 E11.09249
G1 X103.846 Y108.405 E11.10220
G1 X101.110 Y111.141 E11.21901
G1 X101.486 Y111.141 E11.23036
G1 X103.906 Y108.721 E11.33367
G1 X103.966 Y109.037 E11.34338
G1 X101.862 Y111.141 E11.43319
G1 X102.238 Y111.141 E11.44454
G1 X104.026 Y109.354 E11.52085
G1 X104.086 Y109.670 E11.53057
G1 X102.614 Y111.141 E11.59338
G1 X102.990 Y111.141 E11.60473
G1 X104.145 Y109.986 E11.65405
G1 X104.205 Y110.302 E11.66376
G1 X103.366 Y111.141 E11.69958
G1 X103.742 Y111.141 E11.71093
G1 X104.265 Y110.619 E11.73326
G1 X104.325 Y110.935 E11.74297
G1 X104.118 Y111.141 E11.75179
G1 E9.75179 F2400.00000
G92 E0
G1 X81.488 Y87.192 F7800.000
G1 E2.00000 F2400.00000
G1 F1800.000
G1 X80.845 Y86.865 E2.02174
G1 X80.335 Y86.355 E2.04348
G1 X80.008 Y85.712 E2.06522
G1 X79.895 Y85.000 E2.08696
G1 X80.008 Y84.288 E2.10871
G1 X80.335 Y83.645 E2.13045
G1 X80.845 Y83.135 E2.15219
G1 X81.488 Y82.808 E2.17393
G1 X82.200 Y82.695 E2.19567
G1 X82.912 Y82.808 E2.21741
G1 X83.555 Y83.135 E2.23915
G1 X84.065 Y83.645 E2.26089
G1 X84.392 Y84.288 E2.28263
G1 X84.505 Y85.000 E2.30437
G1 X84.392 Y85.712 E2.32611
G1 X84.065 Y86.355 E2.34785
G1 X83.555 Y86.865 E2.36959
G1 X82.912 Y87.192 E2.39134
G1 X82.200 Y87.305 E2.41308
G1 X81.547 Y87.201 E2.43301
G1 X81.571 Y86.936 F7800.000
G1 F1800.000
G1 X81.003 Y86.647 E2.45221
G1 X80.553 Y86.197 E2.47142
G1 X80.264 Y85.629 E2.49062
G1 X80.164 Y85.000 E2.50982
G1 X80.264 Y84.371 E2.52903
G1 X80.553 Y83.803 E2.54823
G1 X81.003 Y83.353 E2.56744
G1 X81.571 Y83.064 E2.58664
G1 X82.200 Y82.964 E2.60584
G1 X82.829 Y83.064 E2.62505
G1 X83.397 Y83.353 E2.64425
G1 X83.847 Y83.803 E2.66346
G1 X84.136 Y84.371 E2.68266
G1 X84.236 Y85.000 E2.70186
G1 X84.136 Y85.629 E2.72107
G1 X83.847 Y86.197 E2.74027
G1 X83.397 Y86.647 E2.75948
G1 X82.829 Y86.936 E2.77868
G1 X82.200 Y87.036 E2.79789
G1 X81.630 Y86.946 E2.81528
G1 X81.654 Y86.681 F7800.000
G1 F1800.000
G1 X81.161 Y86.430 E2.83195
G1 X80.770 Y86.039 E2.84862
G1 X80.519 Y85.546 E2.86528
G1 X80.433 Y85.000 E2.88195
G1 X80.519 Y84.454 E2.89862
G1 X80.770 Y83.961 E2.91529
G1 X81.161 Y83.570 E2.93195
G1 X81.654 Y83.319 E2.94862
G1 X82.200 Y83.233 E2.96529
G1 X82.746 Y83.319 E2.98195
G1 X83.239 Y83.570 E2.99862
G1 X83.630 Y83.961 E3.01529
G1 X83.881 Y84.454 E3.03196
G1 X83.967 Y85.000 E3.04863
G1 X83.881 Y85.546 E3.06529
G1 X83.630 Y86.039 E3.08196
G1 X83.239 Y86.430 E3.09863
G1 X82.746 Y86.681 E3.11530
G1 X82.200 Y86.767 E3.13196
G1 X81.713 Y86.690 E3.14682
G1 X81.357 Y86.948 F7800.000
G1 E1.14682 F2400.00000
G92 E0
G1 X94.060 Y85.000 F7800.000
G1 E2.00000 F2400.00000
G1 F1800.000
