; generated by Slic3r 1.3.1-dev (Build (Unknown revision)) on 2020-02-28 at 14:42:12

; external perimeters extrusion width = 0.44mm (1.51mm^3/s)
; perimeters extrusion width = 0.56mm (2.15mm^3/s)
; infill extrusion width = 0.50mm (1.91mm^3/s)
; solid infill extrusion width = 0.56mm (1.62mm^3/s)
; top infill extrusion width = 0.56mm (1.62mm^3/s)

M107
G92 E0
;D3D:START:START
T0
M104 S215 T0

G21
G90
M107
T0
G28
G29
M109 T0 S215 T0
G0 F3000
M107
T0
G92 E0
G0 X0 Y149 Z0.1 F3600
G1 Y49 E6.5 F1200
G0 Z1
G92 E0
; Filament gcode

G21 ; set units to millimeters
G90 ; use absolute coordinates
M82 ; use absolute distances for extrusion
G92 E0
G1 Z0.300 F7800.000
G1 E-2.00000 F2400.00000
G92 E0
G1 X91.075 Y97.124 F7800.000
G1 E2.00000 F2400.00000
G1 F1800.000
G1 X90.710 Y96.980 E2.01182
G1 X90.430 Y96.908 E2.02053
G1 X90.144 Y96.872 E2.02923
G1 X89.856 Y96.872 E2.03792
G1 X89.570 Y96.908 E2.04662
G1 X89.290 Y96.980 E2.05532
G1 X89.022 Y97.086 E2.06402
G1 X88.769 Y97.225 E2.07271
G1 X88.535 Y97.395 E2.08142
G1 X88.325 Y97.592 E2.09011
G1 X88.141 Y97.814 E2.09881
G1 X87.987 Y98.058 E2.10751
G1 X87.864 Y98.319 E2.11621
G1 X87.775 Y98.594 E2.12491
G1 X87.720 Y98.877 E2.13361
G1 X87.702 Y99.165 E2.14231
G1 X87.720 Y99.453 E2.15101
G1 X87.775 Y99.736 E2.15971
G1 X87.864 Y100.011 E2.16840
G1 X87.987 Y100.272 E2.17710
G1 X88.141 Y100.516 E2.18580
G1 X88.325 Y100.738 E2.19450
G1 X88.535 Y100.935 E2.20320
G1 X88.769 Y101.105 E2.21190
G1 X89.022 Y101.244 E2.22059
G1 X89.290 Y101.350 E2.22929
G1 X89.570 Y101.422 E2.23799
G1 X89.856 Y101.458 E2.24669
G1 X90.144 Y101.458 E2.25539
G1 X90.430 Y101.422 E2.26409
G1 X90.710 Y101.350 E2.27279
G1 X91.063 Y101.210 E2.28424
G1 X91.063 Y108.304 E2.49810
G1 X83.937 Y108.304 E2.71294
G1 X83.937 Y97.045 E3.05238
G1 X84.087 Y95.998 E3.08426
G1 X84.508 Y95.077 E3.11478
G1 X85.171 Y94.312 E3.14530
G1 X86.022 Y93.765 E3.17582
G1 X86.994 Y93.479 E3.20634
G1 X88.006 Y93.479 E3.23687
G1 X88.978 Y93.765 E3.26739
G1 X89.829 Y94.312 E3.29791
G1 X90.492 Y95.077 E3.32843
G1 X90.913 Y95.998 E3.35895
G1 X91.066 Y97.065 E3.39144
G1 X91.329 Y97.624 F7800.000
G1 F1800.000
G1 X91.088 Y97.450 E3.40040
G1 X90.865 Y97.327 E3.40809
G1 X90.628 Y97.233 E3.41578
G1 X90.381 Y97.169 E3.42348
G1 X90.128 Y97.138 E3.43117
G1 X89.872 Y97.138 E3.43885
G1 X89.619 Y97.169 E3.44654
G1 X89.372 Y97.233 E3.45424
G1 X89.135 Y97.327 E3.46193
G1 X88.912 Y97.450 E3.46962
G1 X88.705 Y97.600 E3.47731
G1 X88.519 Y97.774 E3.48500
G1 X88.357 Y97.971 E3.49269
G1 X88.220 Y98.186 E3.50039
G1 X88.111 Y98.417 E3.50808
G1 X88.032 Y98.660 E3.51576
G1 X87.985 Y98.910 E3.52346
G1 X87.969 Y99.165 E3.53115
G1 X87.985 Y99.420 E3.53884
G1 X88.032 Y99.670 E3.54653
G1 X88.111 Y99.913 E3.55422
G1 X88.220 Y100.144 E3.56191
G1 X88.357 Y100.359 E3.56961
G1 X88.519 Y100.556 E3.57730
G1 X88.705 Y100.730 E3.58499
G1 X88.912 Y100.880 E3.59268
G1 X89.135 Y101.003 E3.60037
G1 X89.372 Y101.097 E3.60806
G1 X89.619 Y101.161 E3.61575
G1 X89.872 Y101.192 E3.62344
G1 X90.128 Y101.192 E3.63113
G1 X90.381 Y101.161 E3.63882
G1 X90.628 Y101.097 E3.64652
G1 X90.865 Y101.003 E3.65421
G1 X91.088 Y100.880 E3.66190
G1 X91.329 Y100.706 E3.67085
G1 X91.329 Y108.569 E3.90793
G1 X83.671 Y108.569 E4.13879
G1 X83.671 Y97.026 E4.48681
G1 X83.830 Y95.922 E4.52042
G1 X84.282 Y94.932 E4.55324
G1 X84.995 Y94.109 E4.58606
G1 X85.911 Y93.521 E4.61888
G1 X86.956 Y93.214 E4.65171
G1 X88.044 Y93.214 E4.68453
G1 X89.089 Y93.521 E4.71735
G1 X90.005 Y94.109 E4.75018
G1 X90.718 Y94.932 E4.78300
G1 X91.170 Y95.922 E4.81582
G1 X91.329 Y97.026 E4.84943
G1 X91.329 Y97.564 E4.86567
G1 X91.594 Y98.175 F7800.000
G1 F1800.000
G1 X91.480 Y98.208 E4.86928
G1 X91.287 Y97.957 E4.87884
G1 X91.125 Y97.805 E4.88552
G1 X90.946 Y97.675 E4.89220
G1 X90.752 Y97.568 E4.89889
G1 X90.546 Y97.486 E4.90557
G1 X90.331 Y97.431 E4.91225
G1 X90.111 Y97.403 E4.91894
G1 X89.889 Y97.403 E4.92562
G1 X89.669 Y97.431 E4.93230
G1 X89.454 Y97.486 E4.93899
G1 X89.248 Y97.568 E4.94567
G1 X89.054 Y97.675 E4.95235
G1 X88.875 Y97.805 E4.95904
G1 X88.713 Y97.957 E4.96572
G1 X88.572 Y98.127 E4.97240
G1 X88.453 Y98.315 E4.97909
G1 X88.359 Y98.515 E4.98577
G1 X88.290 Y98.726 E4.99245
G1 X88.249 Y98.944 E4.99914
G1 X88.235 Y99.165 E5.00582
G1 X88.249 Y99.386 E5.01250
G1 X88.290 Y99.604 E5.01919
G1 X88.359 Y99.815 E5.02587
G1 X88.453 Y100.015 E5.03255
G1 X88.572 Y100.203 E5.03924
G1 X88.713 Y100.373 E5.04592
G1 X88.875 Y100.525 E5.05261
G1 X89.054 Y100.655 E5.05929
G1 X89.248 Y100.762 E5.06597
G1 X89.454 Y100.844 E5.07266
G1 X89.669 Y100.899 E5.07934
G1 X89.889 Y100.927 E5.08602
G1 X90.111 Y100.927 E5.09271
G1 X90.331 Y100.899 E5.09939
G1 X90.546 Y100.844 E5.10607
G1 X90.752 Y100.762 E5.11276
G1 X90.946 Y100.655 E5.11944
G1 X91.125 Y100.525 E5.12613
G1 X91.287 Y100.373 E5.13281
G1 X91.480 Y100.122 E5.14237
G1 X91.594 Y100.155 E5.14597
G1 X91.594 Y108.835 E5.40766
G1 X83.406 Y108.835 E5.65453
G1 X83.406 Y97.007 E6.01113
G1 X83.572 Y95.847 E6.04646
G1 X84.056 Y94.787 E6.08159
G1 X84.819 Y93.906 E6.11671
G1 X85.800 Y93.276 E6.15184
G1 X86.917 Y92.948 E6.18697
G1 X88.083 Y92.948 E6.22209
G1 X89.201 Y93.276 E6.25722
G1 X90.181 Y93.906 E6.29234
G1 X90.944 Y94.787 E6.32747
G1 X91.428 Y95.847 E6.36260
G1 X91.594 Y97.007 E6.39792
G1 X91.594 Y98.115 E6.43134
G1 X91.481 Y98.138 F7800.000
G1 X91.544 Y98.190 F7800.000
G1 F1800.000
G1 X91.636 Y98.633 E6.44236
G1 F1800.000
G1 X91.673 Y98.948 E6.44766
G1 F1800.000
G1 X91.680 Y99.170 E6.45006
G1 F1800.000
G1 X91.652 Y99.596 E6.45736
G1 F1800.000
G1 X91.544 Y100.140 E6.47185
G1 E4.47185 F2400.00000
G92 E0
G1 X90.635 Y96.816 F7800.000
G1 E2.00000 F2400.00000
G1 F1800.000
G1 X90.849 Y96.602 E2.00923
G1 X90.802 Y96.270 E2.01944
G1 X90.328 Y96.744 E2.03984
G1 X89.983 Y96.710 E2.05042
G1 X90.747 Y95.945 E2.08335
G1 X90.628 Y95.685 E2.09207
G1 X89.584 Y96.729 E2.13704
G1 X89.416 Y96.750 E2.14219
G1 X89.102 Y96.831 E2.15206
G1 X90.509 Y95.424 E2.21265
G1 X90.390 Y95.164 E2.22137
G1 X87.967 Y97.586 E2.32573
G1 E0.32573 F2400.00000
G92 E0
G1 X85.450 Y94.411 F7800.000
G1 E2.00000 F2400.00000
G1 F1800.000
G1 X85.242 Y94.620 E2.00898
G1 X84.630 Y95.325 E2.03743
G1 X84.390 Y95.851 E2.05501
G1 X86.376 Y93.865 E2.14054
G1 X86.914 Y93.707 E2.15760
G1 X84.208 Y96.413 E2.27415
G1 X84.144 Y96.856 E2.28779
G1 X87.358 Y93.642 E2.42624
G1 X87.738 Y93.642 E2.43780
G1 X84.099 Y97.280 E2.59452
G1 X84.099 Y97.660 E2.60608
G1 X88.107 Y93.652 E2.77869
G1 X88.400 Y93.738 E2.78800
G1 X84.099 Y98.039 E2.97325
G1 X84.099 Y98.419 E2.98481
G1 X88.693 Y93.824 E3.18270
G1 X88.983 Y93.914 E3.19193
G1 X84.099 Y98.798 E3.40230
G1 X84.099 Y99.178 E3.41385
G1 X89.214 Y94.063 E3.63417
G1 X89.445 Y94.211 E3.64253
G1 X84.099 Y99.557 E3.87279
G1 X84.099 Y99.937 E3.88435
G1 X89.676 Y94.360 E4.12456
G1 X89.757 Y94.411 E4.12748
G1 X89.871 Y94.544 E4.13281
G1 X84.099 Y100.316 E4.38144
G1 X84.099 Y100.696 E4.39300
G1 X90.048 Y94.747 E4.64921
G1 X90.224 Y94.950 E4.65740
G1 X84.099 Y101.075 E4.92120
G1 X84.099 Y101.455 E4.93276
G1 X88.174 Y97.380 E5.10827
G1 X88.029 Y97.555 E5.11518
G1 X87.857 Y97.827 E5.12500
G1 X87.720 Y98.118 E5.13480
G1 X87.674 Y98.260 E5.13934
G1 X84.099 Y101.834 E5.29330
G1 X84.099 Y102.214 E5.30485
G1 X87.559 Y98.754 E5.45387
G1 X87.545 Y99.147 E5.46586
G1 X84.099 Y102.593 E5.61428
G1 X84.099 Y102.973 E5.62584
G1 X87.580 Y99.491 E5.77578
G1 X87.652 Y99.799 E5.78540
G1 X84.099 Y103.352 E5.93845
G1 X84.099 Y103.732 E5.95001
G1 X87.753 Y100.077 E6.10740
G1 X87.879 Y100.331 E6.11603
G1 X84.099 Y104.111 E6.27883
G1 X84.099 Y104.491 E6.29038
G1 X88.026 Y100.564 E6.45952
G1 X88.197 Y100.772 E6.46773
G1 X84.099 Y104.870 E6.64425
G1 X84.099 Y105.249 E6.65581
G1 X88.388 Y100.961 E6.84053
G1 X88.598 Y101.130 E6.84875
G1 X84.099 Y105.629 E7.04250
G1 X84.099 Y106.008 E7.05406
G1 X88.827 Y101.280 E7.25772
G1 X89.079 Y101.408 E7.26631
G1 X84.099 Y106.388 E7.48081
G1 X84.099 Y106.767 E7.49236
G1 X89.355 Y101.511 E7.71875
G1 X89.661 Y101.585 E7.72833
G1 X84.099 Y107.147 E7.96790
G1 X84.099 Y107.526 E7.97945
G1 X90.005 Y101.620 E8.23384
G1 X90.402 Y101.603 E8.24593
G1 X84.099 Y107.906 E8.51741
G1 X84.099 Y108.141 E8.52458
G1 X84.243 Y108.141 E8.52897
G1 X90.901 Y101.498 E8.81543
G1 X90.901 Y101.863 E8.82655
G1 X84.622 Y108.141 E9.09697
G1 X85.002 Y108.141 E9.10853
G1 X90.901 Y102.242 E9.36261
G1 X90.901 Y102.622 E9.37416
G1 X85.381 Y108.141 E9.61190
G1 X85.761 Y108.141 E9.62345
G1 X90.901 Y103.001 E9.84484
G1 X90.901 Y103.381 E9.85640
G1 X86.140 Y108.141 E10.06144
G1 X86.520 Y108.141 E10.07300
G1 X90.901 Y103.760 E10.26170
G1 X90.901 Y104.140 E10.27325
G1 X86.899 Y108.141 E10.44561
G1 X87.279 Y108.141 E10.45716
G1 X90.901 Y104.519 E10.61317
G1 X90.901 Y104.899 E10.62473
G1 X87.658 Y108.141 E10.76439
G1 X88.038 Y108.141 E10.77595
G1 X90.901 Y105.278 E10.89927
G1 X90.901 Y105.658 E10.91083
G1 X88.417 Y108.141 E11.01780
G1 X88.797 Y108.141 E11.02936
G1 X90.901 Y106.037 E11.11999
G1 X90.901 Y106.417 E11.13155
G1 X89.176 Y108.141 E11.20583
G1 X89.556 Y108.141 E11.21739
G1 X90.901 Y106.796 E11.27533
G1 X90.901 Y107.176 E11.28688
G1 X89.935 Y108.141 E11.32848
G1 X90.315 Y108.141 E11.34004
G1 X90.901 Y107.555 E11.36529
G1 X90.901 Y107.935 E11.37684
G1 X90.694 Y108.141 E11.38575
G1 E9.38575 F2400.00000
G92 E0
G1 X80.063 Y108.304 F7800.000
G1 E2.00000 F2400.00000
G1 F1800.000
G1 X78.252 Y108.304 E2.05461
G1 X79.196 Y96.027 E2.42583
G1 X79.196 Y80.696 E2.88801
G1 X80.063 Y80.696 E2.91415
G1 X80.063 Y108.244 E3.74465
G1 X80.329 Y108.569 F7800.000
G1 F1800.000
G1 X77.965 Y108.569 E3.81591
G1 X78.931 Y96.017 E4.19547
G1 X78.931 Y80.431 E4.66535
G1 X80.329 Y80.431 E4.70750
G1 X80.329 Y108.509 E5.55402
G1 X80.594 Y108.835 F7800.000
G1 F1800.000
G1 X77.678 Y108.835 E5.64194
G1 X78.665 Y96.006 E6.02984
G1 X78.665 Y80.165 E6.50742
G1 X80.594 Y80.165 E6.56559
G1 X80.594 Y108.775 E7.42812
G1 X80.244 Y108.643 F7800.000
G1 X79.694 Y108.141 F7800.000
G1 F1800.000
G1 X79.901 Y107.935 E7.43705
G1 X79.901 Y107.554 E7.44869
G1 X79.313 Y108.141 E7.47407
G1 X78.933 Y108.141 E7.48570
G1 X79.901 Y107.173 E7.52754
G1 X79.901 Y106.793 E7.53917
G1 X78.552 Y108.141 E7.59746
G1 X78.435 Y108.141 E7.60103
G1 X78.457 Y107.855 E7.60979
G1 X79.901 Y106.412 E7.67217
G1 X79.901 Y106.031 E7.68380
G1 X78.489 Y107.443 E7.74481
G1 X78.521 Y107.030 E7.75745
G1 X79.901 Y105.650 E7.81709
G1 X79.901 Y105.270 E7.82872
G1 X78.553 Y106.618 E7.88698
G1 X78.584 Y106.206 E7.89962
G1 X79.901 Y104.889 E7.95652
G1 X79.901 Y104.508 E7.96815
G1 X78.616 Y105.793 E8.02367
G1 X78.648 Y105.381 E8.03631
G1 X79.901 Y104.128 E8.09046
G1 X79.901 Y103.747 E8.10210
G1 X78.679 Y104.968 E8.15488
G1 X78.711 Y104.556 E8.16752
G1 X79.901 Y103.366 E8.21893
G1 X79.901 Y102.985 E8.23056
G1 X78.743 Y104.143 E8.28060
G1 X78.775 Y103.731 E8.29324
G1 X79.901 Y102.605 E8.34191
G1 X79.901 Y102.224 E8.35354
G1 X78.806 Y103.318 E8.40084
G1 X78.838 Y102.906 E8.41348
G1 X79.901 Y101.843 E8.45940
G1 X79.901 Y101.462 E8.47104
G1 X78.870 Y102.494 E8.51559
G1 X78.902 Y102.081 E8.52823
G1 X79.901 Y101.082 E8.57142
G1 X79.901 Y100.701 E8.58305
G1 X78.933 Y101.669 E8.62486
G1 X78.965 Y101.256 E8.63750
G1 X79.901 Y100.320 E8.67794
G1 X79.901 Y99.940 E8.68958
G1 X78.997 Y100.844 E8.72865
G1 X79.028 Y100.431 E8.74129
G1 X79.901 Y99.559 E8.77899
G1 X79.901 Y99.178 E8.79062
G1 X79.060 Y100.019 E8.82695
G1 X79.092 Y99.606 E8.83959
G1 X79.901 Y98.797 E8.87455
G1 X79.901 Y98.417 E8.88618
G1 X79.124 Y99.194 E8.91977
G1 X79.155 Y98.782 E8.93241
G1 X79.901 Y98.036 E8.96463
G1 X79.901 Y97.655 E8.97626
G1 X79.187 Y98.369 E9.00710
G1 X79.219 Y97.957 E9.01974
G1 X79.901 Y97.275 E9.04922
G1 X79.901 Y96.894 E9.06085
G1 X79.251 Y97.544 E9.08896
G1 X79.282 Y97.132 E9.10159
G1 X79.901 Y96.513 E9.12833
G1 X79.901 Y96.132 E9.13996
G1 X79.314 Y96.719 E9.16532
G1 X79.346 Y96.307 E9.17796
G1 X79.901 Y95.752 E9.20195
G1 X79.901 Y95.371 E9.21359
G1 X79.359 Y95.913 E9.23702
G1 X79.359 Y95.533 E9.24866
G1 X79.901 Y94.990 E9.27209
G1 X79.901 Y94.610 E9.28372
G1 X79.359 Y95.152 E9.30716
G1 X79.359 Y94.771 E9.31879
G1 X79.901 Y94.229 E9.34223
G1 X79.901 Y93.848 E9.35386
G1 X79.359 Y94.390 E9.37730
G1 X79.359 Y94.010 E9.38893
G1 X79.901 Y93.467 E9.41237
G1 X79.901 Y93.087 E9.42400
G1 X79.359 Y93.629 E9.44744
G1 X79.359 Y93.248 E9.45907
G1 X79.901 Y92.706 E9.48251
G1 X79.901 Y92.325 E9.49414
G1 X79.359 Y92.868 E9.51758
G1 X79.359 Y92.487 E9.52921
G1 X79.901 Y91.945 E9.55265
G1 X79.901 Y91.564 E9.56428
G1 X79.359 Y92.106 E9.58772
G1 X79.359 Y91.725 E9.59935
G1 X79.901 Y91.183 E9.62279
G1 X79.901 Y90.802 E9.63442
G1 X79.359 Y91.345 E9.65786
G1 X79.359 Y90.964 E9.66949
G1 X79.901 Y90.422 E9.69293
G1 X79.901 Y90.041 E9.70456
G1 X79.359 Y90.583 E9.72800
G1 X79.359 Y90.203 E9.73963
G1 X79.901 Y89.660 E9.76307
G1 X79.901 Y89.279 E9.77470
G1 X79.359 Y89.822 E9.79814
G1 X79.359 Y89.441 E9.80977
G1 X79.901 Y88.899 E9.83321
G1 X79.901 Y88.518 E9.84484
G1 X79.359 Y89.060 E9.86828
G1 X79.359 Y88.680 E9.87991
G1 X79.901 Y88.137 E9.90335
G1 X79.901 Y87.757 E9.91498
G1 X79.359 Y88.299 E9.93842
G1 X79.359 Y87.918 E9.95005
G1 X79.901 Y87.376 E9.97349
G1 X79.901 Y86.995 E9.98512
G1 X79.359 Y87.538 E10.00856
G1 X79.359 Y87.157 E10.02019
G1 X79.901 Y86.614 E10.04363
G1 X79.901 Y86.234 E10.05526
G1 X79.359 Y86.776 E10.07870
G1 X79.359 Y86.395 E10.09033
G1 X79.901 Y85.853 E10.11377
G1 X79.901 Y85.472 E10.12540
G1 X79.359 Y86.015 E10.14884
G1 X79.359 Y85.634 E10.16047
G1 X79.901 Y85.092 E10.18390
G1 X79.901 Y84.711 E10.19554
G1 X79.359 Y85.253 E10.21897
G1 X79.359 Y84.873 E10.23061
G1 X79.901 Y84.330 E10.25404
G1 X79.901 Y83.949 E10.26568
G1 X79.359 Y84.492 E10.28911
G1 X79.359 Y84.111 E10.30075
G1 X79.901 Y83.569 E10.32418
G1 X79.901 Y83.188 E10.33582
G1 X79.359 Y83.730 E10.35925
G1 X79.359 Y83.350 E10.37089
G1 X79.901 Y82.807 E10.39432
G1 X79.901 Y82.427 E10.40596
G1 X79.359 Y82.969 E10.42939
G1 X79.359 Y82.588 E10.44103
G1 X79.901 Y82.046 E10.46446
G1 X79.901 Y81.665 E10.47610
G1 X79.359 Y82.207 E10.49953
G1 X79.359 Y81.827 E10.51117
G1 X79.901 Y81.284 E10.53460
G1 X79.901 Y80.904 E10.54624
G1 X79.359 Y81.446 E10.56967
G1 X79.359 Y81.065 E10.58130
G1 X79.565 Y80.859 E10.59024
G1 E8.59024 F2400.00000
G92 E0
G1 X71.748 Y108.304 F7800.000
G1 E2.00000 F2400.00000
G1 F1800.000
G1 X69.937 Y108.304 E2.05461
G1 X69.937 Y80.696 E2.88692
G1 X70.804 Y80.696 E2.91305
G1 X70.804 Y96.027 E3.37524
G1 X71.744 Y108.244 E3.74465
G1 X72.035 Y108.569 F7800.000
G1 F1800.000
G1 X69.671 Y108.569 E3.81591
G1 X69.671 Y80.431 E4.66423
G1 X71.069 Y80.431 E4.70639
G1 X71.069 Y96.017 E5.17627
G1 X72.030 Y108.510 E5.55402
G1 X72.322 Y108.835 F7800.000
G1 F1800.000
G1 X69.406 Y108.835 E5.64194
G1 X69.406 Y80.165 E6.50628
G1 X71.335 Y80.165 E6.56445
G1 X71.335 Y96.006 E7.04203
G1 X72.317 Y108.775 E7.42812
G1 X71.973 Y108.639 F7800.000
G1 X71.358 Y108.141 F7800.000
G1 F1800.000
G1 X71.565 Y107.935 E7.43698
G1 X71.538 Y107.584 E7.44765
G1 X70.980 Y108.141 E7.47156
G1 X70.602 Y108.141 E7.48301
G1 X71.511 Y107.233 E7.52197
G1 X71.484 Y106.882 E7.53263
G1 X70.224 Y108.141 E7.58663
G1 X70.099 Y108.141 E7.59043
G1 X70.099 Y107.889 E7.59808
G1 X71.457 Y106.531 E7.65630
G1 X71.430 Y106.181 E7.66696
G1 X70.099 Y107.511 E7.72402
G1 X70.099 Y107.133 E7.73548
G1 X71.403 Y105.830 E7.79138
G1 X71.376 Y105.479 E7.80204
G1 X70.099 Y106.756 E7.85679
G1 X70.099 Y106.378 E7.86824
G1 X71.349 Y105.128 E7.92183
G1 X71.322 Y104.777 E7.93249
G1 X70.099 Y106.000 E7.98492
G1 X70.099 Y105.622 E7.99638
G1 X71.295 Y104.427 E8.04765
G1 X71.268 Y104.076 E8.05832
G1 X70.099 Y105.244 E8.10843
G1 X70.099 Y104.867 E8.11989
G1 X71.241 Y103.725 E8.16884
G1 X71.214 Y103.374 E8.17951
G1 X70.099 Y104.489 E8.22731
G1 X70.099 Y104.111 E8.23877
G1 X71.187 Y103.023 E8.28541
G1 X71.160 Y102.673 E8.29608
G1 X70.099 Y103.733 E8.34156
G1 X70.099 Y103.355 E8.35302
G1 X71.133 Y102.322 E8.39734
G1 X71.106 Y101.971 E8.40801
G1 X70.099 Y102.978 E8.45118
G1 X70.099 Y102.600 E8.46264
G1 X71.079 Y101.620 E8.50465
G1 X71.052 Y101.269 E8.51532
G1 X70.099 Y102.222 E8.55618
G1 X70.099 Y101.844 E8.56763
G1 X71.025 Y100.918 E8.60733
G1 X70.998 Y100.568 E8.61800
G1 X70.099 Y101.466 E8.65654
G1 X70.099 Y101.089 E8.66800
G1 X70.971 Y100.217 E8.70538
G1 X70.944 Y99.866 E8.71605
