; generated by Slic3r 1.3.1-dev (Build (Unknown revision)) on 2020-02-14 at 14:20:17

; external perimeters extrusion width = 0.44mm (2.86mm^3/s)
; perimeters extrusion width = 0.56mm (4.14mm^3/s)
; infill extrusion width = 0.50mm (3.66mm^3/s)
; solid infill extrusion width = 0.56mm (3.10mm^3/s)
; top infill extrusion width = 0.56mm (3.10mm^3/s)

M107
G92 E0
;D3D:START:START
T0
M104 S215 T0

G21
G90
M107
T0
G28
G29
M109 T0 S215 T0
G0 F3000
M107
T0
G92 E0
G0 X0 Y149 Z0.1 F3600
G1 Y49 E6.5 F1200
G0 Z1
G92 E0
; Filament gcode

G21 ; set units to millimeters
G90 ; use absolute coordinates
M82 ; use absolute distances for extrusion
G92 E0
G1 Z0.300 F7800.000
G1 E-2.00000 F2400.00000
G92 E0
G1 X101.837 Y120.226 F7800.000
G1 E2.00000 F2400.00000
G1 F1800.000
G1 X102.404 Y119.937 E2.02110
G1 X103.033 Y119.838 E2.04221
G1 X103.662 Y119.937 E2.06331
G1 X104.230 Y120.226 E2.08442
G1 X104.680 Y120.677 E2.10552
G1 X104.970 Y121.244 E2.12662
G1 X105.069 Y121.873 E2.14772
G1 X104.970 Y122.503 E2.16883
G1 X104.680 Y123.070 E2.18993
G1 X104.230 Y123.521 E2.21103
G1 X103.662 Y123.810 E2.23214
G1 X103.033 Y123.909 E2.25324
G1 X102.404 Y123.810 E2.27435
G1 X101.837 Y123.521 E2.29545
G1 X101.386 Y123.070 E2.31655
G1 X101.097 Y122.503 E2.33766
G1 X100.997 Y121.873 E2.35876
G1 X101.097 Y121.244 E2.37986
G1 X101.386 Y120.677 E2.40096
G1 X101.794 Y120.269 E2.42008
G1 X101.995 Y120.444 F7800.000
G1 F1800.000
G1 X102.487 Y120.193 E2.43839
G1 X103.033 Y120.106 E2.45671
G1 X103.579 Y120.193 E2.47503
G1 X104.072 Y120.444 E2.49334
G1 X104.463 Y120.835 E2.51166
G1 X104.714 Y121.327 E2.52997
G1 X104.800 Y121.873 E2.54829
G1 X104.714 Y122.420 E2.56661
G1 X104.463 Y122.912 E2.58492
G1 X104.072 Y123.303 E2.60324
G1 X103.579 Y123.554 E2.62155
G1 X103.033 Y123.641 E2.63987
G1 X102.487 Y123.554 E2.65819
G1 X101.995 Y123.303 E2.67650
G1 X101.604 Y122.912 E2.69482
G1 X101.353 Y122.420 E2.71313
G1 X101.266 Y121.873 E2.73145
G1 X101.353 Y121.327 E2.74976
G1 X101.604 Y120.835 E2.76808
G1 X101.952 Y120.486 E2.78441
G1 X101.953 Y120.046 F7800.000
G1 E0.78441 F2400.00000
G92 E0
G1 X98.038 Y106.501 F7800.000
G1 E2.00000 F2400.00000
G1 F1800.000
G1 X97.409 Y106.600 E2.02111
G1 X96.780 Y106.501 E2.04221
G1 X96.212 Y106.211 E2.06331
G1 X95.762 Y105.761 E2.08442
G1 X95.473 Y105.193 E2.10552
G1 X95.373 Y104.564 E2.12662
G1 X95.473 Y103.935 E2.14772
G1 X95.762 Y103.368 E2.16883
G1 X96.212 Y102.917 E2.18993
G1 X96.780 Y102.628 E2.21103
G1 X97.409 Y102.528 E2.23214
G1 X98.038 Y102.628 E2.25324
G1 X98.606 Y102.917 E2.27434
G1 X99.056 Y103.368 E2.29545
G1 X99.345 Y103.935 E2.31655
G1 X99.445 Y104.564 E2.33766
G1 X99.345 Y105.193 E2.35876
G1 X99.056 Y105.761 E2.37986
G1 X98.606 Y106.211 E2.40096
G1 X98.092 Y106.473 E2.42008
G1 X97.955 Y106.245 F7800.000
G1 F1800.000
G1 X97.409 Y106.331 E2.43840
G1 X96.863 Y106.245 E2.45671
G1 X96.371 Y105.994 E2.47503
G1 X95.980 Y105.603 E2.49335
G1 X95.729 Y105.110 E2.51166
G1 X95.642 Y104.564 E2.52997
G1 X95.729 Y104.018 E2.54829
G1 X95.980 Y103.526 E2.56661
G1 X96.371 Y103.135 E2.58492
G1 X96.863 Y102.884 E2.60324
G1 X97.409 Y102.797 E2.62155
G1 X97.955 Y102.884 E2.63987
G1 X98.448 Y103.135 E2.65819
G1 X98.839 Y103.526 E2.67650
G1 X99.090 Y104.018 E2.69482
G1 X99.176 Y104.564 E2.71313
G1 X99.090 Y105.110 E2.73145
G1 X98.839 Y105.603 E2.74976
G1 X98.448 Y105.994 E2.76808
G1 X98.009 Y106.218 E2.78441
G1 X97.872 Y106.636 F7800.000
G1 E0.78441 F2400.00000
G92 E0
G1 X75.207 Y126.839 F7800.000
G1 E2.00000 F2400.00000
G1 F1800.000
G1 X75.661 Y127.399 E2.02389
G1 X75.919 Y128.072 E2.04778
G1 X75.957 Y128.792 E2.07167
G1 X75.770 Y129.489 E2.09556
G1 X75.377 Y130.094 E2.11945
G1 X74.817 Y130.547 E2.14334
G1 X74.144 Y130.806 E2.16723
G1 X73.424 Y130.844 E2.19112
G1 X72.727 Y130.657 E2.21502
G1 X72.122 Y130.264 E2.23891
G1 X71.668 Y129.704 E2.26280
G1 X71.410 Y129.031 E2.28669
G1 X71.372 Y128.311 E2.31058
G1 X71.559 Y127.614 E2.33447
G1 X71.952 Y127.009 E2.35836
G1 X72.512 Y126.555 E2.38225
G1 X73.185 Y126.297 E2.40614
G1 X73.905 Y126.259 E2.43003
G1 X74.602 Y126.446 E2.45392
G1 X75.157 Y126.806 E2.47583
G1 X75.027 Y127.038 F7800.000
G1 F1800.000
G1 X75.428 Y127.533 E2.49693
G1 X75.656 Y128.128 E2.51803
G1 X75.689 Y128.764 E2.53914
G1 X75.525 Y129.380 E2.56024
G1 X75.178 Y129.914 E2.58135
G1 X74.683 Y130.315 E2.60245
G1 X74.088 Y130.543 E2.62355
G1 X73.452 Y130.576 E2.64465
G1 X72.836 Y130.411 E2.66576
G1 X72.302 Y130.064 E2.68686
G1 X71.901 Y129.569 E2.70796
G1 X71.673 Y128.975 E2.72907
G1 X71.640 Y128.339 E2.75017
G1 X71.805 Y127.723 E2.77128
G1 X72.152 Y127.189 E2.79238
G1 X72.647 Y126.788 E2.81348
G1 X73.241 Y126.560 E2.83458
G1 X73.877 Y126.527 E2.85569
G1 X74.493 Y126.691 E2.87679
G1 X74.977 Y127.006 E2.89591
G1 X74.847 Y127.238 F7800.000
G1 F1800.000
G1 X75.195 Y127.668 E2.91422
G1 X75.393 Y128.184 E2.93254
G1 X75.422 Y128.736 E2.95085
G1 X75.279 Y129.270 E2.96917
G1 X74.978 Y129.734 E2.98749
G1 X74.548 Y130.082 E3.00580
G1 X74.032 Y130.280 E3.02412
G1 X73.480 Y130.309 E3.04243
G1 X72.946 Y130.166 E3.06075
G1 X72.482 Y129.865 E3.07907
G1 X72.134 Y129.435 E3.09738
G1 X71.936 Y128.919 E3.11570
G1 X71.907 Y128.367 E3.13401
G1 X72.050 Y127.833 E3.15233
G1 X72.351 Y127.369 E3.17064
G1 X72.781 Y127.021 E3.18896
G1 X73.297 Y126.823 E3.20728
G1 X73.849 Y126.794 E3.22559
G1 X74.383 Y126.937 E3.24391
G1 X74.797 Y127.206 E3.26024
G1 X75.227 Y127.115 F7800.000
G1 E1.26024 F2400.00000
G92 E0
G1 X83.936 Y122.621 F7800.000
G1 E2.00000 F2400.00000
G1 F1800.000
G1 X83.677 Y121.948 E2.02389
G1 X83.639 Y121.228 E2.04778
G1 X83.826 Y120.531 E2.07168
G1 X84.219 Y119.927 E2.09557
G1 X84.779 Y119.473 E2.11946
G1 X85.453 Y119.214 E2.14335
G1 X86.173 Y119.177 E2.16724
G1 X86.869 Y119.363 E2.19113
G1 X87.474 Y119.756 E2.21502
G1 X87.928 Y120.316 E2.23891
G1 X88.186 Y120.990 E2.26280
G1 X88.224 Y121.710 E2.28669
G1 X88.038 Y122.406 E2.31058
G1 X87.645 Y123.011 E2.33448
G1 X87.084 Y123.465 E2.35837
G1 X86.411 Y123.723 E2.38226
G1 X85.691 Y123.761 E2.40615
G1 X84.994 Y123.575 E2.43004
G1 X84.390 Y123.182 E2.45393
G1 X83.973 Y122.668 E2.47583
G1 X84.169 Y122.487 F7800.000
G1 F1800.000
G1 X83.940 Y121.892 E2.49693
G1 X83.907 Y121.256 E2.51804
G1 X84.072 Y120.641 E2.53914
G1 X84.419 Y120.107 E2.56025
G1 X84.914 Y119.706 E2.58135
G1 X85.508 Y119.477 E2.60245
G1 X86.145 Y119.444 E2.62355
G1 X86.760 Y119.609 E2.64466
G1 X87.294 Y119.956 E2.66576
G1 X87.695 Y120.451 E2.68686
G1 X87.923 Y121.046 E2.70797
G1 X87.957 Y121.682 E2.72907
G1 X87.792 Y122.297 E2.75018
G1 X87.445 Y122.831 E2.77128
G1 X86.950 Y123.232 E2.79238
G1 X86.355 Y123.460 E2.81349
G1 X85.719 Y123.494 E2.83459
G1 X85.104 Y123.329 E2.85569
G1 X84.570 Y122.982 E2.87679
G1 X84.206 Y122.534 E2.89591
G1 X84.401 Y122.352 F7800.000
G1 F1800.000
G1 X84.203 Y121.836 E2.91422
G1 X84.174 Y121.284 E2.93254
G1 X84.318 Y120.750 E2.95086
G1 X84.619 Y120.287 E2.96917
G1 X85.048 Y119.939 E2.98749
G1 X85.564 Y119.740 E3.00580
G1 X86.117 Y119.712 E3.02412
G1 X86.651 Y119.855 E3.04244
G1 X87.114 Y120.156 E3.06075
G1 X87.462 Y120.585 E3.07907
G1 X87.660 Y121.101 E3.09738
G1 X87.689 Y121.654 E3.11570
G1 X87.546 Y122.188 E3.13402
G1 X87.245 Y122.651 E3.15233
G1 X86.815 Y122.999 E3.17065
G1 X86.299 Y123.197 E3.18897
G1 X85.747 Y123.226 E3.20728
G1 X85.213 Y123.083 E3.22559
G1 X84.749 Y122.782 E3.24391
G1 X84.439 Y122.399 E3.26024
G1 X84.001 Y122.352 F7800.000
G1 E1.26024 F2400.00000
G92 E0
G1 X98.225 Y114.371 F7800.000
G1 E2.00000 F2400.00000
G1 F1800.000
G1 X97.967 Y113.698 E2.02389
G1 X97.929 Y112.978 E2.04778
G1 X98.116 Y112.281 E2.07167
G1 X98.508 Y111.677 E2.09557
G1 X99.069 Y111.223 E2.11945
G1 X99.742 Y110.964 E2.14334
G1 X100.462 Y110.927 E2.16723
G1 X101.159 Y111.113 E2.19113
G1 X101.764 Y111.506 E2.21502
G1 X102.217 Y112.066 E2.23891
G1 X102.476 Y112.740 E2.26280
G1 X102.514 Y113.460 E2.28669
G1 X102.327 Y114.156 E2.31058
G1 X101.934 Y114.761 E2.33447
G1 X101.374 Y115.215 E2.35836
G1 X100.701 Y115.473 E2.38225
G1 X99.980 Y115.511 E2.40614
G1 X99.284 Y115.325 E2.43003
G1 X98.679 Y114.932 E2.45393
G1 X98.263 Y114.418 E2.47583
G1 X98.458 Y114.237 F7800.000
G1 F1800.000
G1 X98.230 Y113.642 E2.49693
G1 X98.196 Y113.006 E2.51803
G1 X98.361 Y112.391 E2.53914
G1 X98.708 Y111.857 E2.56024
G1 X99.203 Y111.456 E2.58134
G1 X99.798 Y111.227 E2.60244
G1 X100.434 Y111.194 E2.62355
G1 X101.049 Y111.359 E2.64465
G1 X101.584 Y111.706 E2.66576
G1 X101.984 Y112.201 E2.68686
G1 X102.213 Y112.796 E2.70796
G1 X102.246 Y113.432 E2.72906
G1 X102.081 Y114.047 E2.75017
G1 X101.734 Y114.581 E2.77127
G1 X101.239 Y114.982 E2.79237
G1 X100.645 Y115.210 E2.81348
G1 X100.009 Y115.244 E2.83458
G1 X99.393 Y115.079 E2.85569
G1 X98.859 Y114.732 E2.87679
G1 X98.496 Y114.284 E2.89590
G1 X98.691 Y114.102 F7800.000
G1 F1800.000
G1 X98.493 Y113.586 E2.91422
G1 X98.464 Y113.034 E2.93253
G1 X98.607 Y112.500 E2.95085
G1 X98.908 Y112.037 E2.96917
G1 X99.338 Y111.689 E2.98748
G1 X99.854 Y111.490 E3.00580
G1 X100.406 Y111.462 E3.02411
G1 X100.940 Y111.605 E3.04243
G1 X101.404 Y111.906 E3.06075
G1 X101.752 Y112.335 E3.07906
G1 X101.950 Y112.851 E3.09737
G1 X101.979 Y113.404 E3.11569
G1 X101.836 Y113.938 E3.13401
G1 X101.534 Y114.401 E3.15232
G1 X101.105 Y114.749 E3.17064
G1 X100.589 Y114.947 E3.18895
G1 X100.037 Y114.976 E3.20727
G1 X99.502 Y114.833 E3.22559
G1 X99.039 Y114.532 E3.24390
G1 X98.729 Y114.149 E3.26023
G1 X98.291 Y114.102 F7800.000
G1 E1.26023 F2400.00000
G92 E0
G1 X112.515 Y106.121 F7800.000
G1 E2.00000 F2400.00000
G1 F1800.000
G1 X112.256 Y105.448 E2.02389
G1 X112.218 Y104.728 E2.04778
G1 X112.405 Y104.031 E2.07167
G1 X112.798 Y103.427 E2.09557
G1 X113.358 Y102.973 E2.11945
G1 X114.031 Y102.714 E2.14335
G1 X114.752 Y102.677 E2.16724
G1 X115.448 Y102.863 E2.19113
G1 X116.053 Y103.256 E2.21502
G1 X116.507 Y103.816 E2.23891
G1 X116.765 Y104.490 E2.26280
G1 X116.803 Y105.210 E2.28669
G1 X116.616 Y105.906 E2.31058
G1 X116.224 Y106.511 E2.33447
G1 X115.663 Y106.965 E2.35837
G1 X114.990 Y107.223 E2.38225
G1 X114.270 Y107.261 E2.40614
G1 X113.573 Y107.075 E2.43004
G1 X112.968 Y106.682 E2.45393
G1 X112.552 Y106.168 E2.47583
G1 X112.747 Y105.987 F7800.000
G1 F1800.000
G1 X112.519 Y105.392 E2.49693
G1 X112.486 Y104.756 E2.51804
G1 X112.651 Y104.141 E2.53914
G1 X112.998 Y103.607 E2.56025
G1 X113.493 Y103.206 E2.58135
G1 X114.087 Y102.977 E2.60245
G1 X114.723 Y102.944 E2.62355
G1 X115.339 Y103.109 E2.64466
G1 X115.873 Y103.456 E2.66576
G1 X116.274 Y103.951 E2.68686
G1 X116.502 Y104.546 E2.70797
G1 X116.536 Y105.182 E2.72907
G1 X116.371 Y105.797 E2.75018
G1 X116.024 Y106.331 E2.77128
G1 X115.529 Y106.732 E2.79238
G1 X114.934 Y106.960 E2.81348
G1 X114.298 Y106.994 E2.83459
G1 X113.683 Y106.829 E2.85569
G1 X113.148 Y106.482 E2.87680
G1 X112.785 Y106.034 E2.89591
G1 X112.980 Y105.852 F7800.000
G1 F1800.000
G1 X112.782 Y105.336 E2.91423
G1 X112.753 Y104.784 E2.93254
G1 X112.896 Y104.250 E2.95086
G1 X113.198 Y103.787 E2.96918
G1 X113.627 Y103.439 E2.98749
G1 X114.143 Y103.240 E3.00581
G1 X114.695 Y103.212 E3.02412
G1 X115.229 Y103.355 E3.04244
G1 X115.693 Y103.656 E3.06075
G1 X116.041 Y104.085 E3.07907
G1 X116.239 Y104.601 E3.09738
G1 X116.268 Y105.154 E3.11570
G1 X116.125 Y105.688 E3.13402
G1 X115.824 Y106.151 E3.15233
G1 X115.394 Y106.499 E3.17065
G1 X114.878 Y106.697 E3.18896
G1 X114.326 Y106.726 E3.20728
G1 X113.792 Y106.583 E3.22560
G1 X113.328 Y106.282 E3.24391
G1 X113.018 Y105.899 E3.26024
G1 X112.580 Y105.852 F7800.000
G1 E1.26024 F2400.00000
G92 E0
G1 X124.782 Y99.039 F7800.000
G1 E2.00000 F2400.00000
G1 F1800.000
G1 X124.523 Y98.366 E2.02389
G1 X124.486 Y97.646 E2.04778
G1 X124.672 Y96.949 E2.07168
G1 X125.065 Y96.344 E2.09557
G1 X125.626 Y95.890 E2.11946
G1 X126.299 Y95.632 E2.14335
G1 X127.019 Y95.594 E2.16724
G1 X127.715 Y95.781 E2.19113
G1 X128.320 Y96.174 E2.21502
G1 X128.774 Y96.734 E2.23891
G1 X129.032 Y97.407 E2.26280
G1 X129.070 Y98.127 E2.28669
G1 X128.884 Y98.824 E2.31058
G1 X128.491 Y99.429 E2.33447
G1 X127.930 Y99.882 E2.35836
G1 X127.257 Y100.141 E2.38226
G1 X126.537 Y100.179 E2.40614
G1 X125.840 Y99.992 E2.43004
G1 X125.236 Y99.599 E2.45393
G1 X124.820 Y99.086 E2.47583
G1 X125.015 Y98.904 F7800.000
G1 F1800.000
G1 X124.786 Y98.310 E2.49693
G1 X124.753 Y97.674 E2.51804
G1 X124.918 Y97.058 E2.53914
G1 X125.265 Y96.524 E2.56024
G1 X125.760 Y96.123 E2.58135
G1 X126.355 Y95.895 E2.60245
G1 X126.991 Y95.862 E2.62355
G1 X127.606 Y96.026 E2.64465
G1 X128.140 Y96.373 E2.66576
G1 X128.541 Y96.868 E2.68686
G1 X128.769 Y97.463 E2.70796
G1 X128.803 Y98.099 E2.72907
G1 X128.638 Y98.715 E2.75017
G1 X128.291 Y99.249 E2.77128
G1 X127.796 Y99.650 E2.79238
G1 X127.201 Y99.878 E2.81348
G1 X126.565 Y99.911 E2.83459
G1 X125.950 Y99.746 E2.85569
G1 X125.416 Y99.399 E2.87679
G1 X125.052 Y98.951 E2.89591
G1 X125.248 Y98.770 F7800.000
G1 F1800.000
G1 X125.049 Y98.254 E2.91422
G1 X125.021 Y97.702 E2.93254
G1 X125.164 Y97.168 E2.95086
G1 X125.465 Y96.704 E2.96917
G1 X125.894 Y96.356 E2.98749
G1 X126.411 Y96.158 E3.00580
G1 X126.963 Y96.129 E3.02412
G1 X127.497 Y96.272 E3.04243
G1 X127.960 Y96.573 E3.06075
G1 X128.308 Y97.003 E3.07906
G1 X128.506 Y97.519 E3.09738
G1 X128.535 Y98.071 E3.11570
G1 X128.392 Y98.605 E3.13401
G1 X128.091 Y99.069 E3.15233
G1 X127.661 Y99.417 E3.17064
G1 X127.145 Y99.615 E3.18896
G1 X126.593 Y99.644 E3.20728
G1 X126.059 Y99.501 E3.22559
G1 X125.596 Y99.200 E3.24391
G1 X125.285 Y98.817 E3.26023
G1 X124.848 Y98.770 F7800.000
G1 E1.26023 F2400.00000
G92 E0
G1 X126.777 Y90.608 F7800.000
G1 E2.00000 F2400.00000
G1 F1800.000
G1 X133.081 Y101.526 E2.41768
G1 X114.257 Y112.394 E3.13778
G1 X114.142 Y112.150 E3.14671
G1 X113.922 Y111.826 E3.15970
G1 X113.718 Y111.609 E3.16957
G1 X113.400 Y111.362 E3.18292
G1 X113.041 Y111.179 E3.19627
G1 X112.768 Y111.090 E3.20578
G1 X112.486 Y111.037 E3.21529
G1 X112.083 Y111.024 E3.22863
G1 X111.685 Y111.087 E3.24198
G1 X111.412 Y111.176 E3.25149
G1 X111.153 Y111.298 E3.26100
G1 X110.810 Y111.530 E3.27471
G1 X110.455 Y111.909 E3.29189
G1 X110.290 Y112.169 E3.30213
G1 X110.130 Y112.539 E3.31548
G1 X110.042 Y112.933 E3.32883
G1 X110.024 Y113.219 E3.33834
G1 X110.042 Y113.505 E3.34784
G1 X110.130 Y113.899 E3.36119
G1 X110.290 Y114.268 E3.37454
G1 X110.455 Y114.529 E3.38478
G1 X110.810 Y114.907 E3.40196
G1 X111.153 Y115.140 E3.41568
G1 X111.341 Y115.229 E3.42258
G1 X111.226 Y115.800 E3.44189
G1 X111.042 Y116.486 E3.46542
G1 X110.816 Y117.159 E3.48894
G1 X110.547 Y117.816 E3.51246
G1 X110.238 Y118.456 E3.53599
G1 X109.890 Y119.074 E3.55952
G1 X109.503 Y119.670 E3.58304
G1 X109.080 Y120.240 E3.60657
G1 X108.621 Y120.782 E3.63009
G1 X108.130 Y121.295 E3.65362
G1 X107.607 Y121.775 E3.67714
G1 X107.055 Y122.222 E3.70067
G1 X106.476 Y122.634 E3.72419
G1 X105.873 Y123.008 E3.74772
G1 X105.247 Y123.343 E3.77124
G1 X104.733 Y123.579 E3.78998
G1 X104.657 Y123.470 E3.79440
G1 X104.898 Y123.228 E3.80570
G1 X105.225 Y122.586 E3.82959
G1 X105.338 Y121.873 E3.85348
G1 X105.225 Y121.161 E3.87738
G1 X104.898 Y120.519 E3.90126
G1 X104.388 Y120.009 E3.92516
G1 X103.746 Y119.681 E3.94905
G1 X103.033 Y119.569 E3.97294
G1 X102.321 Y119.681 E3.99683
G1 X101.678 Y120.009 E4.02072
G1 X101.169 Y120.519 E4.04461
G1 X100.841 Y121.161 E4.06850
G1 X100.728 Y121.873 E4.09239
G1 X100.841 Y122.586 E4.11628
G1 X101.169 Y123.228 E4.14017
G1 X101.679 Y123.738 E4.16406
G1 X102.321 Y124.066 E4.18795
G1 X102.666 Y124.120 E4.19954
G1 X102.672 Y124.251 E4.20386
G1 X102.571 Y124.275 E4.20729
G1 X101.873 Y124.401 E4.23081
G1 X101.167 Y124.483 E4.25434
G1 X100.458 Y124.520 E4.27787
G1 X99.748 Y124.512 E4.30139
G1 X99.040 Y124.460 E4.32491
G1 X98.336 Y124.364 E4.34844
G1 X97.640 Y124.224 E4.37196
G1 X96.954 Y124.040 E4.39549
G1 X96.402 Y123.854 E4.41480
G1 X96.419 Y123.646 E4.42170
G1 X96.389 Y123.233 E4.43542
G1 X96.236 Y122.726 E4.45297
G1 X96.033 Y122.366 E4.46669
G1 X95.848 Y122.132 E4.47656
G1 X95.559 Y121.867 E4.48954
G1 X95.311 Y121.702 E4.49941
G1 X94.955 Y121.539 E4.51240
G1 X94.668 Y121.459 E4.52227
G1 X94.278 Y121.414 E4.53525
G1 X93.969 Y121.427 E4.54549
G1 X93.475 Y121.543 E4.56231
G1 X93.193 Y121.668 E4.57254
G1 X92.864 Y121.882 E4.58552
G1 X92.643 Y122.081 E4.59539
G1 X92.389 Y122.394 E4.60874
G1 X92.199 Y122.749 E4.62210
