; generated by Slic3r 1.3.1-dev (Build adea0d9) on 2020-02-27 at 11:22:54

; external perimeters extrusion width = 0.44mm (2.86mm^3/s)
; perimeters extrusion width = 0.56mm (4.14mm^3/s)
; infill extrusion width = 0.50mm (3.66mm^3/s)
; solid infill extrusion width = 0.56mm (3.10mm^3/s)
; top infill extrusion width = 0.56mm (3.10mm^3/s)

M107
G92 E0
;D3D:START:START
T0
M104 S215 T0

G21
G90
M107
T0
G28
G29
M109 T0 S215 T0
G0 F3000
M107
T0
G92 E0
G0 X0 Y149 Z0.1 F3600
G1 Y49 E6.5 F1200
G0 Z1
G92 E0
; Filament gcode

G21 ; set units to millimeters
G90 ; use absolute coordinates
M82 ; use absolute distances for extrusion
G92 E0
G1 Z0.300 F7800.000
G1 E-2.00000 F2400.00000
G92 E0
G1 X66.610 Y122.041 F7800.000
G1 E2.00000 F2400.00000
G1 F1800.000
G1 X67.225 Y121.876 E2.01920
G1 X67.861 Y121.910 E2.03841
G1 X68.456 Y122.138 E2.05761
G1 X68.951 Y122.539 E2.07682
G1 X69.298 Y123.073 E2.09602
G1 X69.463 Y123.688 E2.11522
G1 X69.430 Y124.324 E2.13443
G1 X69.201 Y124.919 E2.15363
G1 X68.800 Y125.414 E2.17284
G1 X68.266 Y125.761 E2.19204
G1 X67.651 Y125.926 E2.21124
G1 X67.015 Y125.893 E2.23045
G1 X66.420 Y125.664 E2.24965
G1 X65.925 Y125.264 E2.26886
G1 X65.578 Y124.729 E2.28806
G1 X65.413 Y124.114 E2.30727
G1 X65.447 Y123.478 E2.32647
G1 X65.675 Y122.883 E2.34568
G1 X66.076 Y122.388 E2.36488
G1 X66.560 Y122.074 E2.38227
G1 X66.719 Y122.287 F7800.000
G1 F1800.000
G1 X67.253 Y122.144 E2.39894
G1 X67.805 Y122.173 E2.41561
G1 X68.322 Y122.371 E2.43228
G1 X68.751 Y122.719 E2.44894
G1 X69.052 Y123.182 E2.46561
G1 X69.195 Y123.716 E2.48228
G1 X69.166 Y124.269 E2.49895
G1 X68.968 Y124.785 E2.51561
G1 X68.620 Y125.214 E2.53228
G1 X68.157 Y125.515 E2.54895
G1 X67.623 Y125.659 E2.56562
G1 X67.071 Y125.630 E2.58228
G1 X66.554 Y125.431 E2.59895
G1 X66.125 Y125.084 E2.61562
G1 X65.824 Y124.620 E2.63229
G1 X65.681 Y124.086 E2.64895
G1 X65.710 Y123.534 E2.66562
G1 X65.908 Y123.018 E2.68229
G1 X66.256 Y122.588 E2.69896
G1 X66.669 Y122.320 E2.71381
G1 X66.761 Y121.889 F7800.000
G1 E0.71381 F2400.00000
G92 E0
G1 X70.799 Y108.090 F7800.000
G1 E2.00000 F2400.00000
G1 F1800.000
G1 X70.204 Y107.862 E2.01920
G1 X69.709 Y107.461 E2.03841
G1 X69.362 Y106.927 E2.05761
G1 X69.197 Y106.312 E2.07682
G1 X69.230 Y105.676 E2.09602
G1 X69.459 Y105.081 E2.11522
G1 X69.860 Y104.586 E2.13443
G1 X70.394 Y104.239 E2.15363
G1 X71.009 Y104.074 E2.17284
G1 X71.645 Y104.107 E2.19204
G1 X72.240 Y104.336 E2.21124
G1 X72.735 Y104.736 E2.23045
G1 X73.082 Y105.271 E2.24966
G1 X73.247 Y105.886 E2.26886
G1 X73.213 Y106.522 E2.28806
G1 X72.985 Y107.117 E2.30727
G1 X72.584 Y107.612 E2.32647
G1 X72.050 Y107.959 E2.34567
G1 X71.435 Y108.124 E2.36488
G1 X70.859 Y108.093 E2.38227
G1 X70.855 Y107.827 F7800.000
G1 F1800.000
G1 X70.338 Y107.629 E2.39894
G1 X69.909 Y107.281 E2.41561
G1 X69.608 Y106.818 E2.43228
G1 X69.465 Y106.284 E2.44894
G1 X69.494 Y105.731 E2.46561
G1 X69.692 Y105.215 E2.48228
G1 X70.040 Y104.786 E2.49895
G1 X70.503 Y104.485 E2.51561
G1 X71.037 Y104.341 E2.53228
G1 X71.589 Y104.370 E2.54895
G1 X72.106 Y104.569 E2.56562
G1 X72.535 Y104.916 E2.58228
G1 X72.836 Y105.380 E2.59895
G1 X72.979 Y105.914 E2.61562
G1 X72.950 Y106.466 E2.63229
G1 X72.752 Y106.982 E2.64896
G1 X72.404 Y107.412 E2.66562
G1 X71.941 Y107.713 E2.68229
G1 X71.407 Y107.856 E2.69896
G1 X70.915 Y107.830 E2.71382
G1 X70.587 Y108.125 F7800.000
G1 E0.71382 F2400.00000
G92 E0
G1 X40.857 Y114.288 F7800.000
G1 E2.00000 F2400.00000
G1 F1800.000
G1 X40.970 Y115.000 E2.02174
G1 X40.857 Y115.712 E2.04348
G1 X40.530 Y116.355 E2.06522
G1 X40.020 Y116.865 E2.08696
G1 X39.377 Y117.192 E2.10870
G1 X38.665 Y117.305 E2.13044
G1 X37.953 Y117.192 E2.15218
G1 X37.310 Y116.865 E2.17393
G1 X36.800 Y116.355 E2.19566
G1 X36.473 Y115.712 E2.21741
G1 X36.360 Y115.000 E2.23915
G1 X36.473 Y114.288 E2.26089
G1 X36.800 Y113.645 E2.28263
G1 X37.310 Y113.135 E2.30437
G1 X37.953 Y112.808 E2.32611
G1 X38.665 Y112.695 E2.34785
G1 X39.377 Y112.808 E2.36959
G1 X40.020 Y113.135 E2.39133
G1 X40.530 Y113.645 E2.41307
G1 X40.830 Y114.234 E2.43301
G1 X40.601 Y114.371 F7800.000
G1 F1800.000
G1 X40.701 Y115.000 E2.45221
G1 X40.601 Y115.629 E2.47141
G1 X40.312 Y116.197 E2.49062
G1 X39.862 Y116.647 E2.50982
G1 X39.294 Y116.936 E2.52903
G1 X38.665 Y117.036 E2.54823
G1 X38.036 Y116.936 E2.56743
G1 X37.468 Y116.647 E2.58664
G1 X37.018 Y116.197 E2.60584
G1 X36.729 Y115.629 E2.62505
G1 X36.629 Y115.000 E2.64425
G1 X36.729 Y114.371 E2.66345
G1 X37.018 Y113.803 E2.68266
G1 X37.468 Y113.353 E2.70186
G1 X38.036 Y113.064 E2.72107
G1 X38.665 Y112.964 E2.74027
G1 X39.294 Y113.064 E2.75947
G1 X39.862 Y113.353 E2.77868
G1 X40.312 Y113.803 E2.79788
G1 X40.574 Y114.317 E2.81528
G1 X40.346 Y114.454 F7800.000
G1 F1800.000
G1 X40.432 Y115.000 E2.83195
G1 X40.346 Y115.546 E2.84861
G1 X40.095 Y116.039 E2.86528
G1 X39.704 Y116.430 E2.88195
G1 X39.211 Y116.681 E2.89862
G1 X38.665 Y116.767 E2.91528
G1 X38.119 Y116.681 E2.93195
G1 X37.626 Y116.430 E2.94862
G1 X37.235 Y116.039 E2.96528
G1 X36.984 Y115.546 E2.98195
G1 X36.898 Y115.000 E2.99862
G1 X36.984 Y114.454 E3.01529
G1 X37.235 Y113.961 E3.03196
G1 X37.626 Y113.570 E3.04862
G1 X38.119 Y113.319 E3.06529
G1 X38.665 Y113.233 E3.08196
G1 X39.211 Y113.319 E3.09862
G1 X39.704 Y113.570 E3.11529
G1 X40.095 Y113.961 E3.13196
G1 X40.318 Y114.401 E3.14682
G1 X40.737 Y114.537 F7800.000
G1 E1.14682 F2400.00000
G92 E0
G1 X50.525 Y115.000 F7800.000
G1 E2.00000 F2400.00000
G1 F1800.000
G1 X50.638 Y114.288 E2.02174
G1 X50.965 Y113.645 E2.04348
G1 X51.475 Y113.135 E2.06522
G1 X52.118 Y112.808 E2.08696
G1 X52.830 Y112.695 E2.10870
G1 X53.542 Y112.808 E2.13044
G1 X54.185 Y113.135 E2.15219
G1 X54.695 Y113.645 E2.17392
G1 X55.022 Y114.288 E2.19567
G1 X55.135 Y115.000 E2.21741
G1 X55.022 Y115.712 E2.23915
G1 X54.695 Y116.355 E2.26089
G1 X54.185 Y116.865 E2.28263
G1 X53.542 Y117.192 E2.30437
G1 X52.830 Y117.305 E2.32611
G1 X52.118 Y117.192 E2.34785
G1 X51.475 Y116.865 E2.36959
G1 X50.965 Y116.355 E2.39133
G1 X50.638 Y115.712 E2.41308
G1 X50.534 Y115.059 E2.43301
G1 X50.794 Y115.000 F7800.000
G1 F1800.000
G1 X50.894 Y114.371 E2.45221
G1 X51.183 Y113.803 E2.47142
G1 X51.633 Y113.353 E2.49062
G1 X52.201 Y113.064 E2.50982
G1 X52.830 Y112.964 E2.52903
G1 X53.459 Y113.064 E2.54823
G1 X54.027 Y113.353 E2.56744
G1 X54.477 Y113.803 E2.58664
G1 X54.766 Y114.371 E2.60584
G1 X54.866 Y115.000 E2.62505
G1 X54.766 Y115.629 E2.64425
G1 X54.477 Y116.197 E2.66346
G1 X54.027 Y116.647 E2.68266
G1 X53.459 Y116.936 E2.70186
G1 X52.830 Y117.036 E2.72107
G1 X52.201 Y116.936 E2.74027
G1 X51.633 Y116.647 E2.75948
G1 X51.183 Y116.197 E2.77868
G1 X50.894 Y115.629 E2.79788
G1 X50.803 Y115.059 E2.81528
G1 X51.063 Y115.000 F7800.000
G1 F1800.000
G1 X51.149 Y114.454 E2.83195
G1 X51.400 Y113.961 E2.84862
G1 X51.791 Y113.570 E2.86528
G1 X52.284 Y113.319 E2.88195
G1 X52.830 Y113.233 E2.89862
G1 X53.376 Y113.319 E2.91528
G1 X53.869 Y113.570 E2.93195
G1 X54.260 Y113.961 E2.94862
G1 X54.511 Y114.454 E2.96529
G1 X54.597 Y115.000 E2.98195
G1 X54.511 Y115.546 E2.99862
G1 X54.260 Y116.039 E3.01529
G1 X53.869 Y116.430 E3.03195
G1 X53.376 Y116.681 E3.04862
G1 X52.830 Y116.767 E3.06529
G1 X52.284 Y116.681 E3.08196
G1 X51.791 Y116.430 E3.09863
G1 X51.400 Y116.039 E3.11529
G1 X51.149 Y115.546 E3.13196
G1 X51.072 Y115.059 E3.14682
G1 X50.717 Y114.800 F7800.000
G1 E1.14682 F2400.00000
G92 E0
G1 X67.025 Y115.000 F7800.000
G1 E2.00000 F2400.00000
G1 F1800.000
G1 X67.138 Y114.288 E2.02174
G1 X67.465 Y113.645 E2.04348
G1 X67.975 Y113.135 E2.06522
G1 X68.618 Y112.808 E2.08696
G1 X69.330 Y112.695 E2.10870
G1 X70.042 Y112.808 E2.13044
G1 X70.685 Y113.135 E2.15219
G1 X71.195 Y113.645 E2.17392
G1 X71.522 Y114.288 E2.19567
G1 X71.635 Y115.000 E2.21741
G1 X71.522 Y115.712 E2.23915
G1 X71.195 Y116.355 E2.26089
G1 X70.685 Y116.865 E2.28263
G1 X70.042 Y117.192 E2.30437
G1 X69.330 Y117.305 E2.32611
G1 X68.618 Y117.192 E2.34785
G1 X67.975 Y116.865 E2.36959
G1 X67.465 Y116.355 E2.39133
G1 X67.138 Y115.712 E2.41308
G1 X67.034 Y115.059 E2.43301
G1 X67.294 Y115.000 F7800.000
G1 F1800.000
G1 X67.394 Y114.371 E2.45221
G1 X67.683 Y113.803 E2.47142
G1 X68.133 Y113.353 E2.49062
G1 X68.701 Y113.064 E2.50982
G1 X69.330 Y112.964 E2.52903
G1 X69.959 Y113.064 E2.54823
G1 X70.527 Y113.353 E2.56743
G1 X70.977 Y113.803 E2.58664
G1 X71.266 Y114.371 E2.60584
G1 X71.366 Y115.000 E2.62505
G1 X71.266 Y115.629 E2.64425
G1 X70.977 Y116.197 E2.66346
G1 X70.527 Y116.647 E2.68266
G1 X69.959 Y116.936 E2.70186
G1 X69.330 Y117.036 E2.72107
G1 X68.701 Y116.936 E2.74027
G1 X68.133 Y116.647 E2.75948
G1 X67.683 Y116.197 E2.77868
G1 X67.394 Y115.629 E2.79788
G1 X67.303 Y115.059 E2.81528
G1 X67.563 Y115.000 F7800.000
G1 F1800.000
G1 X67.649 Y114.454 E2.83195
G1 X67.900 Y113.961 E2.84861
G1 X68.291 Y113.570 E2.86528
G1 X68.784 Y113.319 E2.88195
G1 X69.330 Y113.233 E2.89862
G1 X69.876 Y113.319 E2.91528
G1 X70.369 Y113.570 E2.93195
G1 X70.760 Y113.961 E2.94862
G1 X71.011 Y114.454 E2.96529
G1 X71.097 Y115.000 E2.98195
G1 X71.011 Y115.546 E2.99862
G1 X70.760 Y116.039 E3.01529
G1 X70.369 Y116.430 E3.03196
G1 X69.876 Y116.681 E3.04862
G1 X69.330 Y116.767 E3.06529
G1 X68.784 Y116.681 E3.08196
G1 X68.291 Y116.430 E3.09863
G1 X67.900 Y116.039 E3.11529
G1 X67.649 Y115.546 E3.13196
G1 X67.572 Y115.059 E3.14682
G1 X67.217 Y114.800 F7800.000
G1 E1.14682 F2400.00000
G92 E0
G1 X83.525 Y115.000 F7800.000
G1 E2.00000 F2400.00000
G1 F1800.000
G1 X83.638 Y114.288 E2.02174
G1 X83.965 Y113.645 E2.04348
G1 X84.475 Y113.135 E2.06522
G1 X85.118 Y112.808 E2.08696
G1 X85.830 Y112.695 E2.10870
G1 X86.542 Y112.808 E2.13044
G1 X87.185 Y113.135 E2.15219
G1 X87.695 Y113.645 E2.17392
G1 X88.022 Y114.288 E2.19567
G1 X88.135 Y115.000 E2.21741
G1 X88.022 Y115.712 E2.23915
G1 X87.695 Y116.355 E2.26089
G1 X87.185 Y116.865 E2.28263
G1 X86.542 Y117.192 E2.30437
G1 X85.830 Y117.305 E2.32611
G1 X85.118 Y117.192 E2.34785
G1 X84.475 Y116.865 E2.36959
G1 X83.965 Y116.355 E2.39133
G1 X83.638 Y115.712 E2.41307
G1 X83.534 Y115.059 E2.43301
G1 X83.794 Y115.000 F7800.000
G1 F1800.000
G1 X83.894 Y114.371 E2.45221
G1 X84.183 Y113.803 E2.47142
G1 X84.633 Y113.353 E2.49062
G1 X85.201 Y113.064 E2.50982
G1 X85.830 Y112.964 E2.52903
G1 X86.459 Y113.064 E2.54823
G1 X87.027 Y113.353 E2.56744
G1 X87.477 Y113.803 E2.58664
G1 X87.766 Y114.371 E2.60584
G1 X87.866 Y115.000 E2.62505
G1 X87.766 Y115.629 E2.64425
G1 X87.477 Y116.197 E2.66346
G1 X87.027 Y116.647 E2.68266
G1 X86.459 Y116.936 E2.70186
G1 X85.830 Y117.036 E2.72107
G1 X85.201 Y116.936 E2.74027
G1 X84.633 Y116.647 E2.75948
G1 X84.183 Y116.197 E2.77868
G1 X83.894 Y115.629 E2.79788
G1 X83.803 Y115.059 E2.81528
G1 X84.063 Y115.000 F7800.000
G1 F1800.000
G1 X84.149 Y114.454 E2.83195
G1 X84.400 Y113.961 E2.84862
G1 X84.791 Y113.570 E2.86528
G1 X85.284 Y113.319 E2.88195
G1 X85.830 Y113.233 E2.89862
G1 X86.376 Y113.319 E2.91528
G1 X86.869 Y113.570 E2.93195
G1 X87.260 Y113.961 E2.94862
G1 X87.511 Y114.454 E2.96529
G1 X87.597 Y115.000 E2.98195
G1 X87.511 Y115.546 E2.99862
G1 X87.260 Y116.039 E3.01529
G1 X86.869 Y116.430 E3.03195
G1 X86.376 Y116.681 E3.04862
G1 X85.830 Y116.767 E3.06529
G1 X85.284 Y116.681 E3.08196
G1 X84.791 Y116.430 E3.09863
G1 X84.400 Y116.039 E3.11529
G1 X84.149 Y115.546 E3.13196
G1 X84.072 Y115.059 E3.14682
G1 X83.717 Y114.800 F7800.000
G1 E1.14682 F2400.00000
G92 E0
G1 X97.690 Y115.000 F7800.000
G1 E2.00000 F2400.00000
G1 F1800.000
G1 X97.803 Y114.288 E2.02174
G1 X98.130 Y113.645 E2.04348
G1 X98.640 Y113.135 E2.06522
G1 X99.283 Y112.808 E2.08696
G1 X99.995 Y112.695 E2.10870
G1 X100.707 Y112.808 E2.13044
G1 X101.350 Y113.135 E2.15219
G1 X101.860 Y113.645 E2.17392
G1 X102.187 Y114.288 E2.19567
G1 X102.300 Y115.000 E2.21741
G1 X102.187 Y115.712 E2.23915
G1 X101.860 Y116.355 E2.26089
G1 X101.350 Y116.865 E2.28263
G1 X100.707 Y117.192 E2.30437
G1 X99.995 Y117.305 E2.32611
G1 X99.283 Y117.192 E2.34785
G1 X98.640 Y116.865 E2.36959
G1 X98.130 Y116.355 E2.39133
G1 X97.803 Y115.712 E2.41308
G1 X97.699 Y115.059 E2.43301
G1 X97.959 Y115.000 F7800.000
G1 F1800.000
G1 X98.059 Y114.371 E2.45221
G1 X98.348 Y113.803 E2.47142
G1 X98.798 Y113.353 E2.49062
G1 X99.366 Y113.064 E2.50982
G1 X99.995 Y112.964 E2.52903
G1 X100.624 Y113.064 E2.54823
G1 X101.192 Y113.353 E2.56744
G1 X101.642 Y113.803 E2.58664
G1 X101.931 Y114.371 E2.60584
G1 X102.031 Y115.000 E2.62505
G1 X101.931 Y115.629 E2.64425
G1 X101.642 Y116.197 E2.66346
G1 X101.192 Y116.647 E2.68266
G1 X100.624 Y116.936 E2.70186
G1 X99.995 Y117.036 E2.72107
G1 X99.366 Y116.936 E2.74027
G1 X98.798 Y116.647 E2.75948
G1 X98.348 Y116.197 E2.77868
G1 X98.059 Y115.629 E2.79788
G1 X97.968 Y115.059 E2.81528
G1 X98.228 Y115.000 F7800.000
G1 F1800.000
G1 X98.314 Y114.454 E2.83195
G1 X98.565 Y113.961 E2.84862
G1 X98.956 Y113.570 E2.86528
G1 X99.449 Y113.319 E2.88195
G1 X99.995 Y113.233 E2.89862
G1 X100.541 Y113.319 E2.91528
G1 X101.034 Y113.570 E2.93195
G1 X101.425 Y113.961 E2.94862
G1 X101.676 Y114.454 E2.96529
G1 X101.762 Y115.000 E2.98195
G1 X101.676 Y115.546 E2.99862
G1 X101.425 Y116.039 E3.01529
G1 X101.034 Y116.430 E3.03195
G1 X100.541 Y116.681 E3.04862
G1 X99.995 Y116.767 E3.06529
G1 X99.449 Y116.681 E3.08196
G1 X98.956 Y116.430 E3.09863
G1 X98.565 Y116.039 E3.11529
G1 X98.314 Y115.546 E3.13196
G1 X98.237 Y115.059 E3.14682
G1 X97.882 Y114.800 F7800.000
G1 E1.14682 F2400.00000
G92 E0
G1 X103.634 Y121.304 F7800.000
G1 E2.00000 F2400.00000
G1 F1800.000
G1 X81.894 Y121.304 E2.65539
G1 X81.918 Y120.897 E2.66767
G1 X81.865 Y120.509 E2.67949
G1 X81.779 Y120.223 E2.68848
G1 X81.604 Y119.861 E2.70062
G1 X81.363 Y119.537 E2.71277
G1 X81.158 Y119.336 E2.72142
G1 X80.930 Y119.163 E2.73007
G1 X80.575 Y118.972 E2.74222
G1 X80.190 Y118.852 E2.75437
G1 X79.906 Y118.810 E2.76302
G1 X79.631 Y118.804 E2.77132
G1 X79.302 Y118.838 E2.78129
G1 X78.959 Y118.939 E2.79208
G1 X78.704 Y119.052 E2.80048
G1 X78.459 Y119.201 E2.80913
G1 X78.151 Y119.461 E2.82128
G1 X77.897 Y119.774 E2.83342
G1 X77.743 Y120.042 E2.84274
G1 X77.576 Y120.521 E2.85804
G1 X77.531 Y120.827 E2.86736
G1 X77.535 Y121.241 E2.87984
G1 X77.656 Y121.757 E2.89581
G1 X77.836 Y122.129 E2.90829
G1 X77.955 Y122.301 E2.91458
G1 X77.570 Y122.738 E2.93215
G1 X77.068 Y123.240 E2.95355
G1 X76.535 Y123.709 E2.97496
G1 X75.974 Y124.145 E2.99637
G1 X75.387 Y124.544 E3.01778
G1 X74.775 Y124.905 E3.03919
G1 X74.143 Y125.228 E3.06059
G1 X73.491 Y125.510 E3.08200
G1 X72.823 Y125.750 E3.10341
G1 X72.141 Y125.948 E3.12482
G1 X71.448 Y126.103 E3.14623
G1 X70.747 Y126.214 E3.16763
G1 X70.040 Y126.281 E3.18904
G1 X69.330 Y126.303 E3.21045
G1 X68.620 Y126.281 E3.23186
G1 X68.057 Y126.228 E3.24891
G1 X68.046 Y126.095 E3.25293
G1 X68.375 Y126.007 E3.26322
G1 X68.980 Y125.614 E3.28496
G1 X69.434 Y125.054 E3.30670
G1 X69.693 Y124.380 E3.32844
G1 X69.730 Y123.660 E3.35018
G1 X69.544 Y122.964 E3.37192
G1 X69.151 Y122.359 E3.39366
G1 X68.590 Y121.905 E3.41540
G1 X67.917 Y121.647 E3.43714
G1 X67.197 Y121.609 E3.45888
G1 X66.501 Y121.796 E3.48062
G1 X65.896 Y122.188 E3.50236
G1 X65.442 Y122.749 E3.52410
G1 X65.183 Y123.422 E3.54585
G1 X65.146 Y124.142 E3.56759
G1 X65.332 Y124.839 E3.58932
G1 X65.725 Y125.443 E3.61107
G1 X65.997 Y125.663 E3.62161
G1 X65.936 Y125.779 E3.62554
G1 X65.837 Y125.750 E3.62866
G1 X65.169 Y125.510 E3.65006
G1 X64.517 Y125.228 E3.67147
G1 X63.885 Y124.905 E3.69288
G1 X63.273 Y124.544 E3.71429
G1 X62.686 Y124.145 E3.73570
G1 X62.125 Y123.709 E3.75710
G1 X61.592 Y123.240 E3.77851
G1 X61.090 Y122.738 E3.79992
G1 X60.705 Y122.301 E3.81749
G1 X60.824 Y122.129 E3.82378
G1 X61.004 Y121.757 E3.83625
G1 X61.120 Y121.262 E3.85156
G1 X61.139 Y121.003 E3.85940
G1 X61.089 Y120.535 E3.87361
G1 X60.917 Y120.042 E3.88933
G1 X60.763 Y119.774 E3.89865
G1 X60.509 Y119.461 E3.91080
G1 X60.201 Y119.201 E3.92294
G1 X59.946 Y119.047 E3.93192
G1 X59.584 Y118.899 E3.94374
G1 X59.293 Y118.831 E3.95273
G1 X58.903 Y118.802 E3.96454
G1 X58.606 Y118.827 E3.97352
G1 X58.225 Y118.920 E3.98534
G1 X57.961 Y119.032 E3.99399
G1 X57.712 Y119.175 E4.00264
G1 X57.399 Y119.429 E4.01479
G1 X57.139 Y119.736 E4.02694
G1 X56.984 Y119.991 E4.03592
G1 X56.836 Y120.354 E4.04774
G1 X56.768 Y120.644 E4.05672
G1 X56.740 Y121.035 E4.06853
G1 X56.762 Y121.304 E4.07666
G1 X35.026 Y121.304 E4.73196
